; G-Code generated by Simplify3D(R) Version 3.0.2
; May 14, 2016 at 6:12:29 PM
; Settings Summary
;   processName,Process1
;   applyToModels,Axis_Table_First_Floor_Down
;   profileName,3d machtudong (modified)
;   profileVersion,2016-03-30 16:48:23
;   baseProfile,FlashForge Right 60-70 (modified)
;   printMaterial,
;   printQuality,
;   printExtruders,
;   extruderName,Right Extruder,Left Extruder
;   extruderToolheadNumber,0,1
;   extruderDiameter,0.4,0.4
;   extruderAutoWidth,0,0
;   extruderWidth,0.4,0.4
;   extrusionMultiplier,0.95,0.95
;   extruderUseRetract,1,1
;   extruderRetractionDistance,1,1
;   extruderExtraRestartDistance,0,0
;   extruderRetractionZLift,0,0
;   extruderRetractionSpeed,1200,1200
;   extruderUseCoasting,0,0
;   extruderCoastingDistance,0.2,0.2
;   extruderUseWipe,0,0
;   extruderWipeDistance,5,5
;   primaryExtruder,0
;   layerHeight,0.2857
;   topSolidLayers,3
;   bottomSolidLayers,3
;   perimeterOutlines,2
;   printPerimetersInsideOut,1
;   startPointOption,2
;   startPointOriginX,0
;   startPointOriginY,0
;   startPointOriginZ,300
;   sequentialIslands,0
;   spiralVaseMode,0
;   firstLayerHeightPercentage,90
;   firstLayerWidthPercentage,100
;   firstLayerUnderspeed,0.5
;   useRaft,0
;   raftExtruder,0
;   raftLayers,3
;   raftOffset,3
;   raftSeparationDistance,0.14
;   raftInfill,85
;   disableRaftBaseLayers,0
;   useSkirt,1
;   skirtExtruder,0
;   skirtLayers,1
;   skirtOutlines,2
;   skirtOffset,10
;   usePrimePillar,0
;   primePillarExtruder,999
;   primePillarWidth,12
;   primePillarLocation,7
;   primePillarSpeedMultiplier,1
;   useOozeShield,0
;   oozeShieldExtruder,999
;   oozeShieldOffset,2
;   oozeShieldOutlines,1
;   oozeShieldSidewallShape,1
;   oozeShieldSidewallAngle,30
;   oozeShieldSpeedMultiplier,1
;   infillExtruder,0
;   internalInfillPattern,Rectilinear
;   externalInfillPattern,Rectilinear
;   infillPercentage,3
;   outlineOverlapPercentage,20
;   infillExtrusionWidthPercentage,100
;   minInfillLength,5
;   infillLayerInterval,1
;   infillAngles,45,-45
;   overlapInfillAngles,0
;   generateSupport,0
;   supportExtruder,0
;   supportInfillPercentage,30
;   supportExtraInflation,0
;   denseSupportLayers,0
;   denseSupportInfillPercentage,70
;   supportLayerInterval,1
;   supportHorizontalPartOffset,0.3
;   supportUpperSeparationLayers,1
;   supportLowerSeparationLayers,1
;   supportType,0
;   supportGridSpacing,4
;   maxOverhangAngle,45
;   supportAngles,0
;   temperatureName,Right Extruder,Heated Build Platform
;   temperatureNumber,0,0
;   temperatureSetpointCount,1,1
;   temperatureSetpointLayers,1,1
;   temperatureSetpointTemperatures,223,110
;   temperatureStabilizeAtStartup,0,0
;   temperatureHeatedBed,0,1
;   temperatureRelayBetweenLayers,0,0
;   temperatureRelayBetweenLoops,0,0
;   fanLayers,1
;   fanSpeeds,0
;   blipFanToFullPower,0
;   adjustSpeedForCooling,1
;   minSpeedLayerTime,15
;   minCoolingSpeedSlowdown,20
;   increaseFanForCooling,0
;   minFanLayerTime,45
;   maxCoolingFanSpeed,100
;   increaseFanForBridging,1
;   bridgingFanSpeed,100
;   use5D,1
;   relativeEdistances,1
;   allowEaxisZeroing,0
;   independentExtruderAxes,0
;   includeM10123,0
;   stickySupport,1
;   applyToolheadOffsets,0
;   gcodeXoffset,0
;   gcodeYoffset,0
;   gcodeZoffset,0
;   overrideMachineDefinition,1
;   machineTypeOverride,0
;   strokeXoverride,220
;   strokeYoverride,140
;   strokeZoverride,150
;   originOffsetXoverride,110
;   originOffsetYoverride,70
;   originOffsetZoverride,0
;   homeXdirOverride,1
;   homeYdirOverride,1
;   homeZdirOverride,-1
;   flipXoverride,1
;   flipYoverride,-1
;   flipZoverride,1
;   toolheadOffsets,0,0|0,0|0,0|0,0|0,0|0,0
;   overrideFirmwareConfiguration,1
;   firmwareTypeOverride,MakerBot/Sailfish Firmware
;   GPXconfigOverride,r1d
;   baudRateOverride,115200
;   overridePrinterModels,0
;   printerModelsOverride
;   startingGcode,; **** Replicator 1 dual right extruder start.gcode ****,M73 P0 ; enable build progress,G162 X Y F3000 ; home XY maximum,G161 Z F1200 ; home Z minimum,G92 Z-5 ; set Z to -5,G1 Z0 ; move Z to 0,G161 Z F100 ; home Z slowly,M132 X Y Z A B ; recall home offsets,M135 T0 ; load right extruder offsets,G1 X125 Y-70 Z30 F9000 ; move to wait position off table,G130 X20 Y20 Z20 A20 B20 ; lower stepper Vrefs while heating,M126 S[fan_speed_pwm],M140 S[bed0_temperature] T0,M134 T0 ; stabilize bed temperature,M104 S[extruder0_temperature] T0,M133 T0 ; stabilize extruder temperature,G130 X127 Y127 Z40 A127 B127 ; default stepper Vrefs,G92 A0 B0 ; zero extruders,G1 Z0.4 ; position nozzle,G1 E25 F300 ; purge nozzle,G1 X115 Y-70 Z0.15 F1200 ; slow wipe,G1 X110 Y-70 Z0.5 F1200 ; lift,G92 A0 B0 ; zero extruders,M73 P1 ;@body (notify GPX body has started),; **** end of start.gcode ****
;   layerChangeGcode,
;   retractionGcode,
;   toolChangeGcode,
;   endingGcode,(******* End.gcode*******),M109 S0 T0 ( Cool down the build platform ),M104 S0 T0 ( Cool down the Right Extruder ),M104 S0 T1 ( Cool down the Left Extruder ),M73 P100 ( End  build progress ),G0 Z150 ( Send Z axis to bottom of machine ),M18 ( Disable steppers ),G162 X Y F2500 ( Home XY endstops ),M18 ( Disable stepper motors ),M70 P5 ( We <3 Making Things!),M72 P1  ( Play Ta-Da song ),(*********end End.gcode*******)
;   createX3G,1
;   celebration,1
;   celebrationSong,Funky Town
;   createMB5G,0
;   postProcessing,
;   defaultSpeed,3600
;   outlineUnderspeed,0.5
;   solidInfillUnderspeed,0.8
;   supportUnderspeed,0.8
;   rapidXYspeed,4200
;   rapidZspeed,900
;   minBridgingArea,50
;   bridgingExtraInflation,0
;   bridgingExtrusionMultiplier,1
;   bridgingSpeedMultiplier,0.8
;   filamentDiameter,1.75
;   filamentPricePerKg,46
;   filamentDensity,1.25
;   useMinPrintHeight,0
;   minPrintHeight,0
;   useMaxPrintHeight,0
;   maxPrintHeight,0
;   useDiaphragm,0
;   diaphragmLayerInterval,20
;   robustSlicing,1
;   mergeAllIntoSolid,0
;   onlyRetractWhenCrossingOutline,1
;   retractBetweenLayers,1
;   useRetractionMinTravel,0
;   retractionMinTravel,3
;   retractWhileWiping,0
;   onlyWipeOutlines,1
;   avoidCrossingOutline,0
;   maxMovementDetourFactor,3
;   toolChangeRetractionDistance,12
;   toolChangeExtraRestartDistance,-0.5
;   toolChangeRetractionSpeed,600
;   allowThinWallGapFill,1
;   thinWallAllowedOverlapPercentage,10
;   horizontalSizeCompensation,0
G90
M83
; **** Replicator 1 dual right extruder start.gcode ****
M73 P0 ; enable build progress
G162 X Y F3000 ; home XY maximum
G161 Z F1200 ; home Z minimum
G92 Z-5 ; set Z to -5
G1 Z0 ; move Z to 0
G161 Z F100 ; home Z slowly
M132 X Y Z A B ; recall home offsets
M135 T0 ; load right extruder offsets
G1 X125 Y-70 Z30 F9000 ; move to wait position off table
G130 X20 Y20 Z20 A20 B20 ; lower stepper Vrefs while heating
M127
M140 S110 T0
M134 T0 ; stabilize bed temperature
M104 S223 T0
M133 T0 ; stabilize extruder temperature
G130 X127 Y127 Z40 A127 B127 ; default stepper Vrefs
G92 A0 B0 ; zero extruders
G1 Z0.4 ; position nozzle
G1 E25 F300 ; purge nozzle
G1 X115 Y-70 Z0.15 F1200 ; slow wipe
G1 X110 Y-70 Z0.5 F1200 ; lift
G92 A0 B0 ; zero extruders
M73 P1 ;@body (notify GPX body has started)
; **** end of start.gcode ****
G1 E-1.0000 F1200
G1 Z0.257 F900
; layer 1, Z = 0.25713
M135 T0
; tool H0.286 W0.400
; skirt
G1 X24.600 Y-37.621 F4200
G1 E1.0000 F360
G1 X50.492 Y5.400 E2.2664 F1800
G1 X50.761 Y5.400 E0.0122
G1 X50.982 Y5.491 E0.0108
G1 X57.009 Y11.518 E0.3847
G1 X57.100 Y11.739 E0.0108
G1 X57.100 Y44.261 E1.4680
G1 X57.009 Y44.482 E0.0108
G1 X50.982 Y50.509 E0.3847
G1 X50.761 Y50.600 E0.0108
G1 X-50.761 Y50.600 E4.5824
G1 X-50.982 Y50.509 E0.0108
G1 X-57.009 Y44.482 E0.3847
G1 X-57.100 Y44.261 E0.0108
G1 X-57.100 Y11.739 E1.4680
G1 X-57.009 Y11.518 E0.0108
G1 X-50.982 Y5.491 E0.3847
G1 X-50.761 Y5.400 E0.0108
G1 X-50.492 Y5.400 E0.0122
G1 X-24.600 Y-37.621 E2.2664
G1 X-24.600 Y-44.261 E0.2997
G1 X-24.509 Y-44.482 E0.0108
G1 X-18.482 Y-50.509 E0.3847
G1 X-18.261 Y-50.600 E0.0108
G1 X18.261 Y-50.600 E1.6485
G1 X18.482 Y-50.509 E0.0108
G1 X24.509 Y-44.482 E0.3847
G1 X24.600 Y-44.261 E0.0108
G1 X24.600 Y-37.621 E0.2997
G1 X24.200 Y-37.510 F4200
G1 X50.266 Y5.800 E2.2816 F1800
G1 X50.682 Y5.800 E0.0188
G1 X50.755 Y5.830 E0.0036
G1 X56.670 Y11.745 E0.3775
G1 X56.700 Y11.818 E0.0036
G1 X56.700 Y44.182 E1.4608
G1 X56.670 Y44.255 E0.0036
G1 X50.755 Y50.170 E0.3775
G1 X50.682 Y50.200 E0.0036
G1 X-50.682 Y50.200 E4.5752
G1 X-50.755 Y50.170 E0.0036
G1 X-56.670 Y44.255 E0.3775
G1 X-56.700 Y44.182 E0.0036
G1 X-56.700 Y11.818 E1.4608
G1 X-56.670 Y11.745 E0.0036
G1 X-50.755 Y5.830 E0.3775
G1 X-50.682 Y5.800 E0.0036
G1 X-50.266 Y5.800 E0.0188
G1 X-24.200 Y-37.510 E2.2816
G1 X-24.200 Y-44.182 E0.3012
G1 X-24.170 Y-44.255 E0.0036
G1 X-18.255 Y-50.170 E0.3775
G1 X-18.182 Y-50.200 E0.0036
G1 X18.182 Y-50.200 E1.6413
G1 X18.255 Y-50.170 E0.0036
G1 X24.170 Y-44.255 E0.3775
G1 X24.200 Y-44.182 E0.0036
G1 X24.200 Y-37.510 E0.3012
G1 E-1.0000 F1200
; inner perimeter
G1 X13.400 Y-39.400 F4200
G1 E1.0000 F1200
G1 X13.400 Y-34.510 E0.2207 F1350
G1 X44.161 Y16.600 E2.6925
G1 X45.900 Y16.600 E0.0785
G1 X45.900 Y39.400 E1.0291
G1 X-45.900 Y39.400 E4.1435
G1 X-45.900 Y16.600 E1.0291
G1 X-44.161 Y16.600 E0.0785
G1 X-13.400 Y-34.510 E2.6925
G1 X-13.400 Y-39.400 E0.2207
G1 X13.400 Y-39.400 E1.2097
; outer perimeter
G1 X13.800 Y-39.800 F4200
G1 X13.800 Y-34.621 E0.2337 F900
G1 X44.387 Y16.200 E2.6773
G1 X46.300 Y16.200 E0.0863
G1 X46.300 Y39.800 E1.0652
G1 X-46.300 Y39.800 E4.1796
G1 X-46.300 Y16.200 E1.0652
G1 X-44.387 Y16.200 E0.0863
G1 X-13.800 Y-34.621 E2.6773
G1 X-13.800 Y-39.800 E0.2337
G1 X13.800 Y-39.800 E1.2458
; inner perimeter
G1 X1.559 Y-12.559 F4200
G1 X1.103 Y-12.910 E0.0260 F1350
G1 X0.571 Y-13.130 E0.0260
G1 X0.000 Y-13.205 E0.0260
G1 X-0.571 Y-13.130 E0.0260
G1 X-1.103 Y-12.910 E0.0260
G1 X-1.559 Y-12.559 E0.0260
G1 X-1.910 Y-12.103 E0.0260
G1 X-2.130 Y-11.571 E0.0260
G1 X-2.205 Y-11.000 E0.0260
G1 X-2.130 Y-10.429 E0.0260
G1 X-1.910 Y-9.897 E0.0260
G1 X-1.559 Y-9.441 E0.0260
G1 X-1.103 Y-9.090 E0.0260
G1 X-0.571 Y-8.870 E0.0260
G1 X0.000 Y-8.795 E0.0260
G1 X0.571 Y-8.870 E0.0260
G1 X1.103 Y-9.090 E0.0260
G1 X1.559 Y-9.441 E0.0260
G1 X1.910 Y-9.897 E0.0260
G1 X2.129 Y-10.426 E0.0258
G1 X2.205 Y-11.000 E0.0261
G1 X2.130 Y-11.571 E0.0260
G1 X1.910 Y-12.103 E0.0260
G1 X1.559 Y-12.559 E0.0260
; outer perimeter
G1 X1.274 Y-12.274 F4200
G1 X0.901 Y-12.560 E0.0212 F900
G1 X0.466 Y-12.740 E0.0212
G1 X0.000 Y-12.802 E0.0212
G1 X-0.466 Y-12.740 E0.0212
G1 X-0.901 Y-12.560 E0.0212
G1 X-1.274 Y-12.274 E0.0212
G1 X-1.560 Y-11.901 E0.0212
G1 X-1.740 Y-11.466 E0.0212
G1 X-1.802 Y-11.000 E0.0212
G1 X-1.740 Y-10.534 E0.0212
G1 X-1.560 Y-10.099 E0.0212
G1 X-1.274 Y-9.726 E0.0212
G1 X-0.901 Y-9.440 E0.0212
G1 X-0.466 Y-9.260 E0.0212
G1 X0.000 Y-9.198 E0.0212
G1 X0.466 Y-9.260 E0.0212
G1 X0.901 Y-9.440 E0.0212
G1 X1.274 Y-9.726 E0.0212
G1 X1.560 Y-10.099 E0.0212
G1 X1.739 Y-10.531 E0.0211
G1 X1.802 Y-11.000 E0.0214
G1 X1.740 Y-11.466 E0.0212
G1 X1.560 Y-11.901 E0.0212
G1 X1.274 Y-12.274 E0.0212
; inner perimeter
G1 X31.929 Y8.870 F4200
G1 X31.397 Y9.090 E0.0260 F1350
G1 X30.941 Y9.441 E0.0260
G1 X30.590 Y9.897 E0.0260
G1 X30.370 Y10.429 E0.0260
G1 X30.295 Y11.000 E0.0260
G1 X30.370 Y11.571 E0.0260
G1 X30.590 Y12.103 E0.0260
G1 X30.941 Y12.559 E0.0260
G1 X31.397 Y12.910 E0.0260
G1 X31.929 Y13.130 E0.0260
G1 X32.500 Y13.205 E0.0260
G1 X33.071 Y13.130 E0.0260
G1 X33.603 Y12.910 E0.0260
G1 X34.059 Y12.559 E0.0260
G1 X34.410 Y12.103 E0.0260
G1 X34.630 Y11.571 E0.0260
G1 X34.705 Y11.000 E0.0260
G1 X34.630 Y10.429 E0.0260
G1 X34.410 Y9.897 E0.0260
G1 X34.059 Y9.441 E0.0260
G1 X33.603 Y9.090 E0.0260
G1 X33.071 Y8.870 E0.0260
G1 X32.500 Y8.795 E0.0260
G1 X31.929 Y8.870 E0.0260
; outer perimeter
G1 X32.034 Y9.260 F4200
G1 X31.599 Y9.440 E0.0212 F900
G1 X31.226 Y9.726 E0.0212
G1 X30.940 Y10.099 E0.0212
G1 X30.760 Y10.534 E0.0212
G1 X30.698 Y11.000 E0.0212
G1 X30.760 Y11.466 E0.0212
G1 X30.940 Y11.901 E0.0212
G1 X31.226 Y12.274 E0.0212
G1 X31.599 Y12.560 E0.0212
G1 X32.034 Y12.740 E0.0212
G1 X32.500 Y12.802 E0.0212
G1 X32.966 Y12.740 E0.0212
G1 X33.401 Y12.560 E0.0212
G1 X33.774 Y12.274 E0.0212
G1 X34.060 Y11.901 E0.0212
G1 X34.240 Y11.466 E0.0212
G1 X34.302 Y11.000 E0.0212
G1 X34.240 Y10.534 E0.0212
G1 X34.060 Y10.099 E0.0212
G1 X33.774 Y9.726 E0.0212
G1 X33.401 Y9.440 E0.0212
G1 X32.966 Y9.260 E0.0212
G1 X32.500 Y9.198 E0.0212
G1 X32.034 Y9.260 E0.0212
; inner perimeter
G1 X-30.941 Y9.441 F4200
G1 X-31.397 Y9.090 E0.0260 F1350
G1 X-31.929 Y8.870 E0.0260
G1 X-32.500 Y8.795 E0.0260
G1 X-33.071 Y8.870 E0.0260
G1 X-33.603 Y9.090 E0.0260
G1 X-34.059 Y9.441 E0.0260
G1 X-34.410 Y9.897 E0.0260
G1 X-34.630 Y10.429 E0.0260
G1 X-34.705 Y11.000 E0.0260
G1 X-34.630 Y11.571 E0.0260
G1 X-34.410 Y12.103 E0.0260
G1 X-34.059 Y12.559 E0.0260
G1 X-33.603 Y12.910 E0.0260
G1 X-33.071 Y13.130 E0.0260
G1 X-32.500 Y13.205 E0.0260
G1 X-31.929 Y13.130 E0.0260
G1 X-31.397 Y12.910 E0.0260
G1 X-30.941 Y12.559 E0.0260
G1 X-30.590 Y12.103 E0.0260
G1 X-30.370 Y11.571 E0.0260
G1 X-30.295 Y11.000 E0.0260
G1 X-30.370 Y10.429 E0.0260
G1 X-30.590 Y9.897 E0.0260
G1 X-30.941 Y9.441 E0.0260
; outer perimeter
G1 X-31.226 Y9.726 F4200
G1 X-31.599 Y9.440 E0.0212 F900
G1 X-32.034 Y9.260 E0.0212
G1 X-32.500 Y9.198 E0.0212
G1 X-32.966 Y9.260 E0.0212
G1 X-33.401 Y9.440 E0.0212
G1 X-33.774 Y9.726 E0.0212
G1 X-34.060 Y10.099 E0.0212
G1 X-34.240 Y10.534 E0.0212
G1 X-34.302 Y11.000 E0.0212
G1 X-34.240 Y11.466 E0.0212
G1 X-34.060 Y11.901 E0.0212
G1 X-33.774 Y12.274 E0.0212
G1 X-33.401 Y12.560 E0.0212
G1 X-32.966 Y12.740 E0.0212
G1 X-32.500 Y12.802 E0.0212
G1 X-32.034 Y12.740 E0.0212
G1 X-31.599 Y12.560 E0.0212
G1 X-31.226 Y12.274 E0.0212
G1 X-30.940 Y11.901 E0.0212
G1 X-30.760 Y11.466 E0.0212
G1 X-30.698 Y11.000 E0.0212
G1 X-30.760 Y10.534 E0.0212
G1 X-30.940 Y10.099 E0.0212
G1 X-31.226 Y9.726 E0.0212
; solid layer
G1 X-30.018 Y11.351 F4200
G1 X14.085 Y-32.752 E2.8152 F1440
G1 X13.872 Y-33.105 E0.0186
G1 X-30.002 Y10.769 E2.8006
G1 X-30.058 Y10.346 E0.0193
G1 X-30.084 Y10.285 E0.0030
G1 X13.660 Y-33.458 E2.7922
G1 X13.447 Y-33.812 E0.0186
G1 X-30.249 Y9.885 E2.7892
G1 X-30.311 Y9.736 E0.0073
G1 X-30.465 Y9.535 E0.0114
G1 X13.234 Y-34.165 E2.7895
G1 X13.080 Y-34.421 E0.0135
G1 X13.080 Y-34.576 E0.0070
G1 X-30.711 Y9.215 E2.7953
G1 X-30.712 Y9.212 E0.0001
G1 X-31.030 Y8.969 E0.0181
G1 X13.080 Y-35.142 E2.8157
G1 X13.080 Y-35.707 E0.0255
G1 X-31.379 Y8.752 E2.8379
G1 X-31.779 Y8.586 E0.0195
G1 X13.080 Y-36.273 E2.8635
G1 X13.080 Y-36.839 E0.0255
G1 X-32.262 Y8.503 E2.8943
G1 X-32.500 Y8.472 E0.0108
G1 X-32.841 Y8.517 E0.0155
G1 X13.080 Y-37.404 E2.9313
G1 X13.080 Y-37.970 E0.0255
G1 X-33.656 Y8.766 E2.9833
G1 X-45.204 Y16.920 F4200
G1 X-45.580 Y17.296 E0.0240 F1440
G1 X-45.580 Y17.861 E0.0255
G1 X-44.639 Y16.920 E0.0601
G1 X-44.073 Y16.920 E0.0255
G1 X-45.580 Y18.427 E0.0962
G1 X-45.580 Y18.993 E0.0255
G1 X12.493 Y-39.080 E3.7069
G1 X11.927 Y-39.080 E0.0255
G1 X-43.839 Y16.687 E3.5597
G1 X-42.984 Y15.266 E0.0748
G1 X11.361 Y-39.080 E3.4690
G1 X10.796 Y-39.080 E0.0255
G1 X-42.129 Y13.845 E3.3783
G1 X-41.274 Y12.424 E0.0748
G1 X10.230 Y-39.080 E3.2876
G1 X9.664 Y-39.080 E0.0255
G1 X-40.419 Y11.003 E3.1970
G1 X-39.564 Y9.583 E0.0748
G1 X9.099 Y-39.080 E3.1063
G1 X8.533 Y-39.080 E0.0255
G1 X-38.709 Y8.162 E3.0156
G1 X-37.854 Y6.741 E0.0748
G1 X7.967 Y-39.080 E2.9249
G1 X7.402 Y-39.080 E0.0255
G1 X-36.999 Y5.320 E2.8342
G1 X-36.143 Y3.899 E0.0748
G1 X6.836 Y-39.080 E2.7435
G1 X6.270 Y-39.080 E0.0255
G1 X-35.288 Y2.479 E2.6528
G1 X-34.433 Y1.058 E0.0748
G1 X5.705 Y-39.080 E2.5621
G1 X5.139 Y-39.080 E0.0255
G1 X-33.578 Y-0.363 E2.4714
G1 X-32.723 Y-1.784 E0.0748
G1 X4.573 Y-39.080 E2.3807
G1 X4.008 Y-39.080 E0.0255
G1 X-31.868 Y-3.204 E2.2900
G1 X-31.013 Y-4.625 E0.0748
G1 X3.442 Y-39.080 E2.1993
G1 X2.876 Y-39.080 E0.0255
G1 X-30.158 Y-6.046 E2.1086
G1 X-29.303 Y-7.467 E0.0748
G1 X2.310 Y-39.080 E2.0179
G1 X1.745 Y-39.080 E0.0255
G1 X-28.448 Y-8.888 E1.9273
G1 X-27.592 Y-10.308 E0.0748
G1 X1.179 Y-39.080 E1.8366
G1 X0.613 Y-39.080 E0.0255
G1 X-26.737 Y-11.729 E1.7459
G1 X-25.882 Y-13.150 E0.0748
