; G-Code generated by Simplify3D(R) Version 3.0.2
; May 14, 2016 at 12:33:39 PM
; Settings Summary
;   processName,Process1
;   applyToModels,Axis_End_Front
;   profileName,3d machtudong (modified)
;   profileVersion,2016-03-30 16:48:23
;   baseProfile,FlashForge Right 60-70 (modified)
;   printMaterial,
;   printQuality,
;   printExtruders,
;   extruderName,Right Extruder,Left Extruder
;   extruderToolheadNumber,0,1
;   extruderDiameter,0.4,0.4
;   extruderAutoWidth,0,0
;   extruderWidth,0.4,0.4
;   extrusionMultiplier,0.95,0.95
;   extruderUseRetract,1,1
;   extruderRetractionDistance,1,1
;   extruderExtraRestartDistance,0,0
;   extruderRetractionZLift,0,0
;   extruderRetractionSpeed,1200,1200
;   extruderUseCoasting,0,0
;   extruderCoastingDistance,0.2,0.2
;   extruderUseWipe,0,0
;   extruderWipeDistance,5,5
;   primaryExtruder,0
;   layerHeight,0.2857
;   topSolidLayers,3
;   bottomSolidLayers,3
;   perimeterOutlines,2
;   printPerimetersInsideOut,1
;   startPointOption,2
;   startPointOriginX,0
;   startPointOriginY,0
;   startPointOriginZ,300
;   sequentialIslands,0
;   spiralVaseMode,0
;   firstLayerHeightPercentage,90
;   firstLayerWidthPercentage,100
;   firstLayerUnderspeed,0.5
;   useRaft,0
;   raftExtruder,0
;   raftLayers,3
;   raftOffset,3
;   raftSeparationDistance,0.14
;   raftInfill,85
;   disableRaftBaseLayers,0
;   useSkirt,1
;   skirtExtruder,0
;   skirtLayers,1
;   skirtOutlines,2
;   skirtOffset,10
;   usePrimePillar,0
;   primePillarExtruder,999
;   primePillarWidth,12
;   primePillarLocation,7
;   primePillarSpeedMultiplier,1
;   useOozeShield,0
;   oozeShieldExtruder,999
;   oozeShieldOffset,2
;   oozeShieldOutlines,1
;   oozeShieldSidewallShape,1
;   oozeShieldSidewallAngle,30
;   oozeShieldSpeedMultiplier,1
;   infillExtruder,0
;   internalInfillPattern,Rectilinear
;   externalInfillPattern,Rectilinear
;   infillPercentage,3
;   outlineOverlapPercentage,20
;   infillExtrusionWidthPercentage,100
;   minInfillLength,5
;   infillLayerInterval,1
;   infillAngles,45,-45
;   overlapInfillAngles,0
;   generateSupport,0
;   supportExtruder,0
;   supportInfillPercentage,30
;   supportExtraInflation,0
;   denseSupportLayers,0
;   denseSupportInfillPercentage,70
;   supportLayerInterval,1
;   supportHorizontalPartOffset,0.3
;   supportUpperSeparationLayers,1
;   supportLowerSeparationLayers,1
;   supportType,0
;   supportGridSpacing,4
;   maxOverhangAngle,45
;   supportAngles,0
;   temperatureName,Right Extruder,Heated Build Platform
;   temperatureNumber,0,0
;   temperatureSetpointCount,1,1
;   temperatureSetpointLayers,1,1
;   temperatureSetpointTemperatures,223,110
;   temperatureStabilizeAtStartup,0,0
;   temperatureHeatedBed,0,1
;   temperatureRelayBetweenLayers,0,0
;   temperatureRelayBetweenLoops,0,0
;   fanLayers,1
;   fanSpeeds,0
;   blipFanToFullPower,0
;   adjustSpeedForCooling,1
;   minSpeedLayerTime,15
;   minCoolingSpeedSlowdown,20
;   increaseFanForCooling,0
;   minFanLayerTime,45
;   maxCoolingFanSpeed,100
;   increaseFanForBridging,1
;   bridgingFanSpeed,100
;   use5D,1
;   relativeEdistances,1
;   allowEaxisZeroing,0
;   independentExtruderAxes,0
;   includeM10123,0
;   stickySupport,1
;   applyToolheadOffsets,0
;   gcodeXoffset,0
;   gcodeYoffset,0
;   gcodeZoffset,0
;   overrideMachineDefinition,1
;   machineTypeOverride,0
;   strokeXoverride,220
;   strokeYoverride,140
;   strokeZoverride,150
;   originOffsetXoverride,110
;   originOffsetYoverride,70
;   originOffsetZoverride,0
;   homeXdirOverride,1
;   homeYdirOverride,1
;   homeZdirOverride,-1
;   flipXoverride,1
;   flipYoverride,-1
;   flipZoverride,1
;   toolheadOffsets,0,0|0,0|0,0|0,0|0,0|0,0
;   overrideFirmwareConfiguration,1
;   firmwareTypeOverride,MakerBot/Sailfish Firmware
;   GPXconfigOverride,r1d
;   baudRateOverride,115200
;   overridePrinterModels,0
;   printerModelsOverride
;   startingGcode,; **** Replicator 1 dual right extruder start.gcode ****,M73 P0 ; enable build progress,G162 X Y F3000 ; home XY maximum,G161 Z F1200 ; home Z minimum,G92 Z-5 ; set Z to -5,G1 Z0 ; move Z to 0,G161 Z F100 ; home Z slowly,M132 X Y Z A B ; recall home offsets,M135 T0 ; load right extruder offsets,G1 X125 Y-70 Z30 F9000 ; move to wait position off table,G130 X20 Y20 Z20 A20 B20 ; lower stepper Vrefs while heating,M126 S[fan_speed_pwm],M140 S[bed0_temperature] T0,M134 T0 ; stabilize bed temperature,M104 S[extruder0_temperature] T0,M133 T0 ; stabilize extruder temperature,G130 X127 Y127 Z40 A127 B127 ; default stepper Vrefs,G92 A0 B0 ; zero extruders,G1 Z0.4 ; position nozzle,G1 E25 F300 ; purge nozzle,G1 X115 Y-70 Z0.15 F1200 ; slow wipe,G1 X110 Y-70 Z0.5 F1200 ; lift,G92 A0 B0 ; zero extruders,M73 P1 ;@body (notify GPX body has started),; **** end of start.gcode ****
;   layerChangeGcode,
;   retractionGcode,
;   toolChangeGcode,
;   endingGcode,(******* End.gcode*******),M109 S0 T0 ( Cool down the build platform ),M104 S0 T0 ( Cool down the Right Extruder ),M104 S0 T1 ( Cool down the Left Extruder ),M73 P100 ( End  build progress ),G0 Z150 ( Send Z axis to bottom of machine ),M18 ( Disable steppers ),G162 X Y F2500 ( Home XY endstops ),M18 ( Disable stepper motors ),M70 P5 ( We <3 Making Things!),M72 P1  ( Play Ta-Da song ),(*********end End.gcode*******)
;   createX3G,1
;   celebration,1
;   celebrationSong,Funky Town
;   createMB5G,0
;   postProcessing,
;   defaultSpeed,3600
;   outlineUnderspeed,0.5
;   solidInfillUnderspeed,0.8
;   supportUnderspeed,0.8
;   rapidXYspeed,4200
;   rapidZspeed,900
;   minBridgingArea,50
;   bridgingExtraInflation,0
;   bridgingExtrusionMultiplier,1
;   bridgingSpeedMultiplier,0.8
;   filamentDiameter,1.75
;   filamentPricePerKg,46
;   filamentDensity,1.25
;   useMinPrintHeight,0
;   minPrintHeight,0
;   useMaxPrintHeight,0
;   maxPrintHeight,0
;   useDiaphragm,0
;   diaphragmLayerInterval,20
;   robustSlicing,1
;   mergeAllIntoSolid,0
;   onlyRetractWhenCrossingOutline,1
;   retractBetweenLayers,1
;   useRetractionMinTravel,0
;   retractionMinTravel,3
;   retractWhileWiping,0
;   onlyWipeOutlines,1
;   avoidCrossingOutline,0
;   maxMovementDetourFactor,3
;   toolChangeRetractionDistance,12
;   toolChangeExtraRestartDistance,-0.5
;   toolChangeRetractionSpeed,600
;   allowThinWallGapFill,1
;   thinWallAllowedOverlapPercentage,10
;   horizontalSizeCompensation,0
G90
M83
; **** Replicator 1 dual right extruder start.gcode ****
M73 P0 ; enable build progress
G162 X Y F3000 ; home XY maximum
G161 Z F1200 ; home Z minimum
G92 Z-5 ; set Z to -5
G1 Z0 ; move Z to 0
G161 Z F100 ; home Z slowly
M132 X Y Z A B ; recall home offsets
M135 T0 ; load right extruder offsets
G1 X125 Y-70 Z30 F9000 ; move to wait position off table
G130 X20 Y20 Z20 A20 B20 ; lower stepper Vrefs while heating
M127
M140 S110 T0
M134 T0 ; stabilize bed temperature
M104 S223 T0
M133 T0 ; stabilize extruder temperature
G130 X127 Y127 Z40 A127 B127 ; default stepper Vrefs
G92 A0 B0 ; zero extruders
G1 Z0.4 ; position nozzle
G1 E25 F300 ; purge nozzle
G1 X115 Y-70 Z0.15 F1200 ; slow wipe
G1 X110 Y-70 Z0.5 F1200 ; lift
G92 A0 B0 ; zero extruders
M73 P1 ;@body (notify GPX body has started)
; **** end of start.gcode ****
G1 E-1.0000 F1200
G1 Z0.257 F900
; layer 1, Z = 0.25713
M135 T0
; tool H0.286 W0.400
; skirt
G1 X14.138 Y-16.400 F4200
G1 E1.0000 F360
G1 X29.231 Y-21.871 E0.7246 F1800
G1 X29.282 Y-21.885 E0.0024
G1 X31.050 Y-22.195 E0.0810
G1 X31.102 Y-22.200 E0.0024
G1 X37.060 Y-22.200 E0.2689
G1 X37.063 Y-22.200 E0.0002
G1 X37.183 Y-22.199 E0.0054
G1 X37.186 Y-22.199 E0.0002
G1 X40.230 Y-22.128 E0.1374
G1 X40.272 Y-22.124 E0.0019
G1 X41.704 Y-21.887 E0.0655
G1 X41.745 Y-21.877 E0.0019
G1 X45.285 Y-20.765 E0.1675
G1 X45.324 Y-20.749 E0.0019
G1 X46.634 Y-20.124 E0.0655
G1 X46.671 Y-20.103 E0.0019
G1 X49.763 Y-18.051 E0.1675
G1 X49.796 Y-18.025 E0.0019
G1 X50.881 Y-17.061 E0.0655
G1 X50.910 Y-17.031 E0.0019
G1 X53.311 Y-14.201 E0.1675
G1 X53.336 Y-14.167 E0.0019
G1 X54.110 Y-12.940 E0.0655
G1 X54.130 Y-12.902 E0.0019
G1 X55.650 Y-9.517 E0.1675
G1 X55.665 Y-9.478 E0.0019
G1 X56.068 Y-8.083 E0.0655
G1 X56.077 Y-8.042 E0.0019
G1 X56.597 Y-4.368 E0.1675
G1 X56.600 Y-4.326 E0.0019
G1 X56.600 Y-2.874 E0.0655
G1 X56.597 Y-2.832 E0.0019
G1 X56.077 Y0.842 E0.1675
G1 X56.068 Y0.883 E0.0019
G1 X55.665 Y2.278 E0.0655
G1 X55.650 Y2.317 E0.0019
G1 X54.130 Y5.702 E0.1675
G1 X54.110 Y5.740 E0.0019
G1 X53.336 Y6.967 E0.0655
G1 X53.311 Y7.001 E0.0019
G1 X50.910 Y9.831 E0.1675
G1 X50.881 Y9.861 E0.0019
G1 X49.796 Y10.825 E0.0655
G1 X49.763 Y10.851 E0.0019
G1 X46.671 Y12.903 E0.1675
G1 X46.634 Y12.924 E0.0019
G1 X45.324 Y13.549 E0.0655
G1 X45.285 Y13.565 E0.0019
G1 X41.745 Y14.677 E0.1675
G1 X41.704 Y14.687 E0.0019
G1 X40.272 Y14.924 E0.0655
G1 X40.230 Y14.928 E0.0019
G1 X38.383 Y14.971 E0.0834
G1 X4.836 Y23.076 E1.5578
G1 X4.567 Y23.017 E0.0125
G1 X3.529 Y22.200 E0.0596
G1 X-3.529 Y22.200 E0.3185
G1 X-4.567 Y23.017 E0.0596
G1 X-4.836 Y23.076 E0.0125
G1 X-38.383 Y14.971 E1.5578
G1 X-40.230 Y14.928 E0.0834
G1 X-40.272 Y14.924 E0.0019
G1 X-41.704 Y14.687 E0.0655
G1 X-41.745 Y14.677 E0.0019
G1 X-45.285 Y13.565 E0.1675
G1 X-45.324 Y13.549 E0.0019
G1 X-46.634 Y12.924 E0.0655
G1 X-46.671 Y12.903 E0.0019
G1 X-49.763 Y10.851 E0.1675
G1 X-49.796 Y10.825 E0.0019
G1 X-50.881 Y9.861 E0.0655
G1 X-50.910 Y9.831 E0.0019
G1 X-53.311 Y7.001 E0.1675
G1 X-53.336 Y6.967 E0.0019
G1 X-54.110 Y5.739 E0.0655
G1 X-54.130 Y5.702 E0.0019
G1 X-55.650 Y2.317 E0.1675
G1 X-55.665 Y2.278 E0.0019
G1 X-56.068 Y0.883 E0.0655
G1 X-56.077 Y0.842 E0.0019
G1 X-56.597 Y-2.832 E0.1675
G1 X-56.600 Y-2.874 E0.0019
G1 X-56.600 Y-4.326 E0.0655
G1 X-56.597 Y-4.368 E0.0019
G1 X-56.077 Y-8.042 E0.1675
G1 X-56.068 Y-8.083 E0.0019
G1 X-55.665 Y-9.478 E0.0655
G1 X-55.650 Y-9.517 E0.0019
G1 X-54.130 Y-12.902 E0.1675
G1 X-54.110 Y-12.939 E0.0019
G1 X-53.336 Y-14.167 E0.0655
G1 X-53.311 Y-14.201 E0.0019
G1 X-50.910 Y-17.031 E0.1675
G1 X-50.881 Y-17.061 E0.0019
G1 X-49.796 Y-18.025 E0.0655
G1 X-49.763 Y-18.051 E0.0019
G1 X-46.671 Y-20.103 E0.1675
G1 X-46.634 Y-20.124 E0.0019
G1 X-45.324 Y-20.749 E0.0655
G1 X-45.285 Y-20.765 E0.0019
G1 X-41.742 Y-21.878 E0.1676
G1 X-41.701 Y-21.888 E0.0019
G1 X-40.262 Y-22.125 E0.0658
G1 X-40.220 Y-22.129 E0.0019
G1 X-37.047 Y-22.199 E0.1432
G1 X-37.044 Y-22.199 E0.0001
G1 X-36.931 Y-22.200 E0.0051
G1 X-36.928 Y-22.200 E0.0001
G1 X-31.102 Y-22.200 E0.2629
G1 X-31.050 Y-22.195 E0.0024
G1 X-29.282 Y-21.885 E0.0810
G1 X-29.232 Y-21.871 E0.0024
G1 X-14.138 Y-16.400 E0.7246
G1 X14.138 Y-16.400 E1.2763
G1 X14.208 Y-16.000 F4200
G1 X29.351 Y-21.489 E0.7270 F1800
G1 X29.368 Y-21.494 E0.0008
G1 X31.102 Y-21.798 E0.0795
G1 X31.120 Y-21.800 E0.0008
G1 X37.059 Y-21.800 E0.2681
G1 X37.060 Y-21.800 E0.0001
G1 X37.177 Y-21.799 E0.0053
G1 X37.178 Y-21.799 E0.0001
G1 X40.207 Y-21.728 E0.1367
G1 X40.221 Y-21.727 E0.0006
G1 X41.625 Y-21.495 E0.0642
G1 X41.638 Y-21.492 E0.0006
G1 X45.152 Y-20.387 E0.1662
G1 X45.165 Y-20.382 E0.0006
G1 X46.449 Y-19.769 E0.0642
G1 X46.461 Y-19.762 E0.0006
G1 X49.530 Y-17.726 E0.1662
G1 X49.541 Y-17.717 E0.0006
G1 X50.605 Y-16.772 E0.0642
G1 X50.615 Y-16.761 E0.0006
G1 X52.997 Y-13.953 E0.1662
G1 X53.005 Y-13.942 E0.0006
G1 X53.764 Y-12.738 E0.0642
G1 X53.771 Y-12.726 E0.0006
G1 X55.280 Y-9.366 E0.1662
G1 X55.284 Y-9.353 E0.0006
G1 X55.680 Y-7.986 E0.0642
G1 X55.683 Y-7.972 E0.0006
G1 X56.199 Y-4.326 E0.1662
G1 X56.200 Y-4.312 E0.0006
G1 X56.200 Y-2.888 E0.0642
G1 X56.199 Y-2.874 E0.0006
G1 X55.683 Y0.772 E0.1662
G1 X55.680 Y0.786 E0.0006
G1 X55.284 Y2.153 E0.0642
G1 X55.280 Y2.166 E0.0006
G1 X53.771 Y5.526 E0.1662
G1 X53.764 Y5.538 E0.0006
G1 X53.005 Y6.742 E0.0642
G1 X52.997 Y6.753 E0.0006
G1 X50.615 Y9.561 E0.1662
G1 X50.605 Y9.572 E0.0006
G1 X49.541 Y10.517 E0.0642
G1 X49.530 Y10.526 E0.0006
G1 X46.461 Y12.562 E0.1662
G1 X46.449 Y12.569 E0.0006
G1 X45.165 Y13.182 E0.0642
G1 X45.152 Y13.187 E0.0006
G1 X41.638 Y14.292 E0.1662
G1 X41.625 Y14.295 E0.0006
G1 X40.221 Y14.527 E0.0642
G1 X40.207 Y14.528 E0.0006
G1 X38.331 Y14.572 E0.0847
G1 X4.832 Y22.666 E1.5556
G1 X4.742 Y22.646 E0.0042
G1 X3.667 Y21.800 E0.0617
G1 X-3.667 Y21.800 E0.3310
G1 X-4.742 Y22.646 E0.0617
G1 X-4.832 Y22.666 E0.0042
G1 X-38.331 Y14.572 E1.5556
G1 X-40.207 Y14.528 E0.0847
G1 X-40.221 Y14.527 E0.0006
G1 X-41.625 Y14.295 E0.0642
G1 X-41.638 Y14.292 E0.0006
G1 X-45.152 Y13.187 E0.1662
G1 X-45.165 Y13.182 E0.0006
G1 X-46.449 Y12.569 E0.0642
G1 X-46.461 Y12.562 E0.0006
G1 X-49.530 Y10.526 E0.1662
G1 X-49.541 Y10.517 E0.0006
G1 X-50.605 Y9.572 E0.0642
G1 X-50.615 Y9.561 E0.0006
G1 X-52.997 Y6.753 E0.1662
G1 X-53.005 Y6.742 E0.0006
G1 X-53.764 Y5.538 E0.0642
G1 X-53.771 Y5.526 E0.0006
G1 X-55.280 Y2.166 E0.1662
G1 X-55.284 Y2.153 E0.0006
G1 X-55.680 Y0.786 E0.0642
G1 X-55.683 Y0.772 E0.0006
G1 X-56.199 Y-2.874 E0.1662
G1 X-56.200 Y-2.888 E0.0006
G1 X-56.200 Y-4.312 E0.0642
G1 X-56.199 Y-4.326 E0.0006
G1 X-55.683 Y-7.972 E0.1662
G1 X-55.680 Y-7.986 E0.0006
G1 X-55.284 Y-9.353 E0.0642
G1 X-55.280 Y-9.366 E0.0006
G1 X-53.771 Y-12.726 E0.1662
G1 X-53.764 Y-12.738 E0.0006
G1 X-53.005 Y-13.942 E0.0642
G1 X-52.997 Y-13.953 E0.0006
G1 X-50.615 Y-16.761 E0.1662
G1 X-50.605 Y-16.772 E0.0006
G1 X-49.541 Y-17.717 E0.0642
G1 X-49.530 Y-17.726 E0.0006
G1 X-46.461 Y-19.762 E0.1662
G1 X-46.449 Y-19.769 E0.0006
G1 X-45.165 Y-20.382 E0.0642
G1 X-45.152 Y-20.387 E0.0006
G1 X-41.635 Y-21.493 E0.1664
G1 X-41.622 Y-21.496 E0.0006
G1 X-40.211 Y-21.728 E0.0645
G1 X-40.197 Y-21.730 E0.0006
G1 X-37.040 Y-21.799 E0.1425
G1 X-37.039 Y-21.799 E0.0000
G1 X-36.928 Y-21.800 E0.0050
G1 X-36.927 Y-21.800 E0.0000
G1 X-31.120 Y-21.800 E0.2621
G1 X-31.102 Y-21.798 E0.0008
G1 X-29.368 Y-21.494 E0.0795
G1 X-29.351 Y-21.489 E0.0008
G1 X-14.208 Y-16.000 E0.7270
G1 X14.208 Y-16.000 E1.2826
G1 E-1.0000 F1200
; inner perimeter
G1 X16.105 Y-5.200 F4200
G1 E1.0000 F1200
G1 X32.105 Y-11.000 E0.7682 F1350
G1 X36.993 Y-11.000 E0.2206
G1 X39.160 Y-10.950 E0.0978
G1 X41.153 Y-10.323 E0.0943
G1 X42.894 Y-9.168 E0.0943
G1 X44.245 Y-7.575 E0.0943
G1 X45.101 Y-5.669 E0.0943
G1 X45.394 Y-3.600 E0.0943
G1 X45.101 Y-1.531 E0.0943
G1 X44.245 Y0.375 E0.0943
G1 X42.894 Y1.968 E0.0943
G1 X41.153 Y3.123 E0.0943
G1 X39.160 Y3.750 E0.0943
G1 X36.922 Y3.802 E0.1010
G1 X7.800 Y10.838 E1.3523
G1 X7.800 Y4.000 E0.3086
G1 X3.400 Y4.000 E0.1986
G1 X3.400 Y11.000 E0.3160
G1 X-3.400 Y11.000 E0.3069
G1 X-3.400 Y5.000 E0.2708
G1 X-7.800 Y5.000 E0.1986
G1 X-7.800 Y10.838 E0.2635
G1 X-36.922 Y3.802 E1.3523
G1 X-39.160 Y3.750 E0.1010
G1 X-41.153 Y3.123 E0.0943
G1 X-42.894 Y1.968 E0.0943
G1 X-44.245 Y0.375 E0.0943
G1 X-45.101 Y-1.531 E0.0943
G1 X-45.394 Y-3.600 E0.0943
G1 X-45.101 Y-5.669 E0.0943
G1 X-44.245 Y-7.575 E0.0943
G1 X-42.894 Y-9.168 E0.0943
G1 X-41.153 Y-10.323 E0.0943
G1 X-39.160 Y-10.950 E0.0943
G1 X-36.865 Y-11.000 E0.1036
G1 X-32.105 Y-11.000 E0.2148
G1 X-16.105 Y-5.200 E0.7682
G1 X16.105 Y-5.200 E1.4539
; outer perimeter
G1 X16.035 Y-5.600 F4200
G1 X32.035 Y-11.400 E0.7682 F900
G1 X36.998 Y-11.400 E0.2240
G1 X39.226 Y-11.348 E0.1006
G1 X41.327 Y-10.688 E0.0994
G1 X43.162 Y-9.470 E0.0994
G1 X44.587 Y-7.790 E0.0994
G1 X45.489 Y-5.781 E0.0994
G1 X45.798 Y-3.600 E0.0994
G1 X45.489 Y-1.419 E0.0994
G1 X44.587 Y0.590 E0.0994
G1 X43.162 Y2.270 E0.0994
G1 X41.327 Y3.488 E0.0994
G1 X39.226 Y4.148 E0.0994
G1 X36.974 Y4.201 E0.1017
G1 X7.400 Y11.346 E1.3733
G1 X7.400 Y4.400 E0.3135
G1 X3.800 Y4.400 E0.1625
G1 X3.800 Y11.400 E0.3160
G1 X-3.800 Y11.400 E0.3430
G1 X-3.800 Y5.400 E0.2708
G1 X-7.400 Y5.400 E0.1625
G1 X-7.400 Y11.346 E0.2684
G1 X-36.974 Y4.201 E1.3733
G1 X-39.226 Y4.148 E0.1017
G1 X-41.327 Y3.488 E0.0994
G1 X-43.162 Y2.270 E0.0994
G1 X-44.587 Y0.590 E0.0994
G1 X-45.489 Y-1.419 E0.0994
G1 X-45.798 Y-3.600 E0.0994
G1 X-45.489 Y-5.781 E0.0994
G1 X-44.587 Y-7.790 E0.0994
G1 X-43.162 Y-9.470 E0.0994
G1 X-41.327 Y-10.688 E0.0994
G1 X-39.226 Y-11.348 E0.0994
G1 X-36.869 Y-11.400 E0.1064
G1 X-32.035 Y-11.400 E0.2182
G1 X-16.035 Y-5.600 E0.7682
G1 X16.035 Y-5.600 E1.4475
; inner perimeter
G1 X33.012 Y-5.903 F4200
G1 X32.552 Y-4.792 E0.0543 F1350
G1 X32.395 Y-3.600 E0.0543
G1 X32.552 Y-2.408 E0.0543
G1 X33.012 Y-1.297 E0.0543
