; G-Code generated by Simplify3D(R) Version 3.0.2
; May 14, 2016 at 6:20:16 PM
; Settings Summary
;   processName,Process1
;   applyToModels,Axis_Table_First_Floor_Up
;   profileName,3d machtudong (modified)
;   profileVersion,2016-03-30 16:48:23
;   baseProfile,FlashForge Right 60-70 (modified)
;   printMaterial,
;   printQuality,
;   printExtruders,
;   extruderName,Right Extruder,Left Extruder
;   extruderToolheadNumber,0,1
;   extruderDiameter,0.4,0.4
;   extruderAutoWidth,0,0
;   extruderWidth,0.4,0.4
;   extrusionMultiplier,0.95,0.95
;   extruderUseRetract,1,1
;   extruderRetractionDistance,1,1
;   extruderExtraRestartDistance,0,0
;   extruderRetractionZLift,0,0
;   extruderRetractionSpeed,1200,1200
;   extruderUseCoasting,0,0
;   extruderCoastingDistance,0.2,0.2
;   extruderUseWipe,0,0
;   extruderWipeDistance,5,5
;   primaryExtruder,0
;   layerHeight,0.2857
;   topSolidLayers,3
;   bottomSolidLayers,3
;   perimeterOutlines,2
;   printPerimetersInsideOut,1
;   startPointOption,2
;   startPointOriginX,0
;   startPointOriginY,0
;   startPointOriginZ,300
;   sequentialIslands,0
;   spiralVaseMode,0
;   firstLayerHeightPercentage,90
;   firstLayerWidthPercentage,100
;   firstLayerUnderspeed,0.5
;   useRaft,0
;   raftExtruder,0
;   raftLayers,3
;   raftOffset,3
;   raftSeparationDistance,0.14
;   raftInfill,85
;   disableRaftBaseLayers,0
;   useSkirt,1
;   skirtExtruder,0
;   skirtLayers,1
;   skirtOutlines,2
;   skirtOffset,10
;   usePrimePillar,0
;   primePillarExtruder,999
;   primePillarWidth,12
;   primePillarLocation,7
;   primePillarSpeedMultiplier,1
;   useOozeShield,0
;   oozeShieldExtruder,999
;   oozeShieldOffset,2
;   oozeShieldOutlines,1
;   oozeShieldSidewallShape,1
;   oozeShieldSidewallAngle,30
;   oozeShieldSpeedMultiplier,1
;   infillExtruder,0
;   internalInfillPattern,Rectilinear
;   externalInfillPattern,Rectilinear
;   infillPercentage,3
;   outlineOverlapPercentage,20
;   infillExtrusionWidthPercentage,100
;   minInfillLength,5
;   infillLayerInterval,1
;   infillAngles,45,-45
;   overlapInfillAngles,0
;   generateSupport,0
;   supportExtruder,0
;   supportInfillPercentage,30
;   supportExtraInflation,0
;   denseSupportLayers,0
;   denseSupportInfillPercentage,70
;   supportLayerInterval,1
;   supportHorizontalPartOffset,0.3
;   supportUpperSeparationLayers,1
;   supportLowerSeparationLayers,1
;   supportType,0
;   supportGridSpacing,4
;   maxOverhangAngle,45
;   supportAngles,0
;   temperatureName,Right Extruder,Heated Build Platform
;   temperatureNumber,0,0
;   temperatureSetpointCount,1,1
;   temperatureSetpointLayers,1,1
;   temperatureSetpointTemperatures,223,110
;   temperatureStabilizeAtStartup,0,0
;   temperatureHeatedBed,0,1
;   temperatureRelayBetweenLayers,0,0
;   temperatureRelayBetweenLoops,0,0
;   fanLayers,1
;   fanSpeeds,0
;   blipFanToFullPower,0
;   adjustSpeedForCooling,1
;   minSpeedLayerTime,15
;   minCoolingSpeedSlowdown,20
;   increaseFanForCooling,0
;   minFanLayerTime,45
;   maxCoolingFanSpeed,100
;   increaseFanForBridging,1
;   bridgingFanSpeed,100
;   use5D,1
;   relativeEdistances,1
;   allowEaxisZeroing,0
;   independentExtruderAxes,0
;   includeM10123,0
;   stickySupport,1
;   applyToolheadOffsets,0
;   gcodeXoffset,0
;   gcodeYoffset,0
;   gcodeZoffset,0
;   overrideMachineDefinition,1
;   machineTypeOverride,0
;   strokeXoverride,220
;   strokeYoverride,140
;   strokeZoverride,150
;   originOffsetXoverride,110
;   originOffsetYoverride,70
;   originOffsetZoverride,0
;   homeXdirOverride,1
;   homeYdirOverride,1
;   homeZdirOverride,-1
;   flipXoverride,1
;   flipYoverride,-1
;   flipZoverride,1
;   toolheadOffsets,0,0|0,0|0,0|0,0|0,0|0,0
;   overrideFirmwareConfiguration,1
;   firmwareTypeOverride,MakerBot/Sailfish Firmware
;   GPXconfigOverride,r1d
;   baudRateOverride,115200
;   overridePrinterModels,0
;   printerModelsOverride
;   startingGcode,; **** Replicator 1 dual right extruder start.gcode ****,M73 P0 ; enable build progress,G162 X Y F3000 ; home XY maximum,G161 Z F1200 ; home Z minimum,G92 Z-5 ; set Z to -5,G1 Z0 ; move Z to 0,G161 Z F100 ; home Z slowly,M132 X Y Z A B ; recall home offsets,M135 T0 ; load right extruder offsets,G1 X125 Y-70 Z30 F9000 ; move to wait position off table,G130 X20 Y20 Z20 A20 B20 ; lower stepper Vrefs while heating,M126 S[fan_speed_pwm],M140 S[bed0_temperature] T0,M134 T0 ; stabilize bed temperature,M104 S[extruder0_temperature] T0,M133 T0 ; stabilize extruder temperature,G130 X127 Y127 Z40 A127 B127 ; default stepper Vrefs,G92 A0 B0 ; zero extruders,G1 Z0.4 ; position nozzle,G1 E25 F300 ; purge nozzle,G1 X115 Y-70 Z0.15 F1200 ; slow wipe,G1 X110 Y-70 Z0.5 F1200 ; lift,G92 A0 B0 ; zero extruders,M73 P1 ;@body (notify GPX body has started),; **** end of start.gcode ****
;   layerChangeGcode,
;   retractionGcode,
;   toolChangeGcode,
;   endingGcode,(******* End.gcode*******),M109 S0 T0 ( Cool down the build platform ),M104 S0 T0 ( Cool down the Right Extruder ),M104 S0 T1 ( Cool down the Left Extruder ),M73 P100 ( End  build progress ),G0 Z150 ( Send Z axis to bottom of machine ),M18 ( Disable steppers ),G162 X Y F2500 ( Home XY endstops ),M18 ( Disable stepper motors ),M70 P5 ( We <3 Making Things!),M72 P1  ( Play Ta-Da song ),(*********end End.gcode*******)
;   createX3G,1
;   celebration,1
;   celebrationSong,Funky Town
;   createMB5G,0
;   postProcessing,
;   defaultSpeed,3600
;   outlineUnderspeed,0.5
;   solidInfillUnderspeed,0.8
;   supportUnderspeed,0.8
;   rapidXYspeed,4200
;   rapidZspeed,900
;   minBridgingArea,50
;   bridgingExtraInflation,0
;   bridgingExtrusionMultiplier,1
;   bridgingSpeedMultiplier,0.8
;   filamentDiameter,1.75
;   filamentPricePerKg,46
;   filamentDensity,1.25
;   useMinPrintHeight,0
;   minPrintHeight,0
;   useMaxPrintHeight,0
;   maxPrintHeight,0
;   useDiaphragm,0
;   diaphragmLayerInterval,20
;   robustSlicing,1
;   mergeAllIntoSolid,0
;   onlyRetractWhenCrossingOutline,1
;   retractBetweenLayers,1
;   useRetractionMinTravel,0
;   retractionMinTravel,3
;   retractWhileWiping,0
;   onlyWipeOutlines,1
;   avoidCrossingOutline,0
;   maxMovementDetourFactor,3
;   toolChangeRetractionDistance,12
;   toolChangeExtraRestartDistance,-0.5
;   toolChangeRetractionSpeed,600
;   allowThinWallGapFill,1
;   thinWallAllowedOverlapPercentage,10
;   horizontalSizeCompensation,0
G90
M83
; **** Replicator 1 dual right extruder start.gcode ****
M73 P0 ; enable build progress
G162 X Y F3000 ; home XY maximum
G161 Z F1200 ; home Z minimum
G92 Z-5 ; set Z to -5
G1 Z0 ; move Z to 0
G161 Z F100 ; home Z slowly
M132 X Y Z A B ; recall home offsets
M135 T0 ; load right extruder offsets
G1 X125 Y-70 Z30 F9000 ; move to wait position off table
G130 X20 Y20 Z20 A20 B20 ; lower stepper Vrefs while heating
M127
M140 S110 T0
M134 T0 ; stabilize bed temperature
M104 S223 T0
M133 T0 ; stabilize extruder temperature
G130 X127 Y127 Z40 A127 B127 ; default stepper Vrefs
G92 A0 B0 ; zero extruders
G1 Z0.4 ; position nozzle
G1 E25 F300 ; purge nozzle
G1 X115 Y-70 Z0.15 F1200 ; slow wipe
G1 X110 Y-70 Z0.5 F1200 ; lift
G92 A0 B0 ; zero extruders
M73 P1 ;@body (notify GPX body has started)
; **** end of start.gcode ****
G1 E-1.0000 F1200
G1 Z0.257 F900
; layer 1, Z = 0.25713
M135 T0
; tool H0.286 W0.400
; skirt
G1 X22.600 Y-41.490 F4200
G1 E1.0000 F360
G1 X54.008 Y1.031 E2.3860 F1800
G1 X54.052 Y1.116 E0.0043
G1 X55.085 Y4.254 E0.1491
G1 X55.100 Y4.348 E0.0043
G1 X55.100 Y44.261 E1.8015
G1 X55.009 Y44.482 E0.0108
G1 X48.982 Y50.509 E0.3847
G1 X48.761 Y50.600 E0.0108
G1 X-48.761 Y50.600 E4.4018
G1 X-48.982 Y50.509 E0.0108
G1 X-55.009 Y44.482 E0.3847
G1 X-55.100 Y44.261 E0.0108
G1 X-55.100 Y4.348 E1.8015
G1 X-55.085 Y4.254 E0.0043
G1 X-54.052 Y1.116 E0.1491
G1 X-54.008 Y1.031 E0.0043
G1 X-22.600 Y-41.490 E2.3860
G1 X-22.600 Y-44.261 E0.1251
G1 X-22.509 Y-44.482 E0.0108
G1 X-16.482 Y-50.509 E0.3847
G1 X-16.261 Y-50.600 E0.0108
G1 X16.261 Y-50.600 E1.4680
G1 X16.482 Y-50.509 E0.0108
G1 X22.509 Y-44.482 E0.3847
G1 X22.600 Y-44.261 E0.0108
G1 X22.600 Y-41.490 E0.1251
G1 X22.200 Y-41.359 F4200
G1 X53.667 Y1.243 E2.3906 F1800
G1 X53.682 Y1.271 E0.0014
G1 X54.695 Y4.349 E0.1462
G1 X54.700 Y4.380 E0.0014
G1 X54.700 Y44.182 E1.7965
G1 X54.670 Y44.255 E0.0036
G1 X48.755 Y50.170 E0.3775
G1 X48.682 Y50.200 E0.0036
G1 X-48.682 Y50.200 E4.3947
G1 X-48.755 Y50.170 E0.0036
G1 X-54.670 Y44.255 E0.3775
G1 X-54.700 Y44.182 E0.0036
G1 X-54.700 Y4.380 E1.7965
G1 X-54.695 Y4.349 E0.0014
G1 X-53.682 Y1.271 E0.1462
G1 X-53.667 Y1.243 E0.0014
G1 X-22.200 Y-41.359 E2.3906
G1 X-22.200 Y-44.182 E0.1274
G1 X-22.170 Y-44.255 E0.0036
G1 X-16.255 Y-50.170 E0.3775
G1 X-16.182 Y-50.200 E0.0036
G1 X16.182 Y-50.200 E1.4608
G1 X16.255 Y-50.170 E0.0036
G1 X22.170 Y-44.255 E0.3775
G1 X22.200 Y-44.182 E0.0036
G1 X22.200 Y-41.359 E0.1274
G1 E-1.0000 F1200
; inner perimeter
G1 X11.400 Y-39.400 F4200
G1 E1.0000 F1200
G1 X11.400 Y-37.802 E0.0721 F1350
G1 X43.900 Y6.198 E2.4690
G1 X43.900 Y39.400 E1.4986
G1 X-43.900 Y39.400 E3.9630
G1 X-43.900 Y6.198 E1.4986
G1 X-11.400 Y-37.802 E2.4690
G1 X-11.400 Y-39.400 E0.0721
G1 X11.400 Y-39.400 E1.0291
; outer perimeter
G1 X11.800 Y-39.800 F4200
G1 X11.800 Y-37.934 E0.0842 F900
G1 X44.300 Y6.066 E2.4690
G1 X44.300 Y39.800 E1.5226
G1 X-44.300 Y39.800 E3.9991
G1 X-44.300 Y6.066 E1.5226
G1 X-11.800 Y-37.934 E2.4690
G1 X-11.800 Y-39.800 E0.0842
G1 X11.800 Y-39.800 E1.0652
; inner perimeter
G1 X1.103 Y-5.910 F4200
G1 X0.571 Y-6.130 E0.0260 F1350
G1 X0.000 Y-6.205 E0.0260
G1 X-0.571 Y-6.130 E0.0260
G1 X-1.103 Y-5.910 E0.0260
G1 X-1.559 Y-5.559 E0.0260
G1 X-1.910 Y-5.103 E0.0260
G1 X-2.130 Y-4.571 E0.0260
G1 X-2.205 Y-4.000 E0.0260
G1 X-2.130 Y-3.429 E0.0260
G1 X-1.910 Y-2.897 E0.0260
G1 X-1.559 Y-2.441 E0.0260
G1 X-1.103 Y-2.090 E0.0260
G1 X-0.571 Y-1.870 E0.0260
G1 X0.000 Y-1.795 E0.0260
G1 X0.571 Y-1.870 E0.0260
G1 X1.103 Y-2.090 E0.0260
G1 X1.559 Y-2.441 E0.0260
G1 X1.910 Y-2.897 E0.0260
G1 X2.130 Y-3.429 E0.0260
G1 X2.205 Y-4.000 E0.0260
G1 X2.130 Y-4.571 E0.0260
G1 X1.910 Y-5.103 E0.0260
G1 X1.559 Y-5.559 E0.0260
G1 X1.103 Y-5.910 E0.0260
; outer perimeter
G1 X0.901 Y-5.560 F4200
G1 X0.466 Y-5.740 E0.0212 F900
G1 X0.000 Y-5.802 E0.0212
G1 X-0.466 Y-5.740 E0.0212
G1 X-0.901 Y-5.560 E0.0212
G1 X-1.274 Y-5.274 E0.0212
G1 X-1.560 Y-4.901 E0.0212
G1 X-1.740 Y-4.466 E0.0212
G1 X-1.802 Y-4.000 E0.0212
G1 X-1.740 Y-3.534 E0.0212
G1 X-1.560 Y-3.099 E0.0212
G1 X-1.274 Y-2.726 E0.0212
G1 X-0.901 Y-2.440 E0.0212
G1 X-0.466 Y-2.260 E0.0212
G1 X0.000 Y-2.198 E0.0212
G1 X0.466 Y-2.260 E0.0212
G1 X0.901 Y-2.440 E0.0212
G1 X1.274 Y-2.726 E0.0212
G1 X1.560 Y-3.099 E0.0212
G1 X1.740 Y-3.534 E0.0212
G1 X1.802 Y-4.000 E0.0212
G1 X1.740 Y-4.466 E0.0212
G1 X1.560 Y-4.901 E0.0212
G1 X1.274 Y-5.274 E0.0212
G1 X0.901 Y-5.560 E0.0212
; inner perimeter
G1 X22.500 Y8.795 F4200
G1 X21.929 Y8.870 E0.0260 F1350
G1 X21.397 Y9.090 E0.0260
G1 X20.941 Y9.441 E0.0260
G1 X20.590 Y9.897 E0.0260
G1 X20.370 Y10.429 E0.0260
G1 X20.295 Y11.000 E0.0260
G1 X20.370 Y11.571 E0.0260
G1 X20.590 Y12.103 E0.0260
G1 X20.941 Y12.559 E0.0260
G1 X21.397 Y12.910 E0.0260
G1 X21.929 Y13.130 E0.0260
G1 X22.500 Y13.205 E0.0260
G1 X23.071 Y13.130 E0.0260
G1 X23.603 Y12.910 E0.0260
G1 X24.059 Y12.559 E0.0260
G1 X24.410 Y12.103 E0.0260
G1 X24.630 Y11.571 E0.0260
G1 X24.705 Y11.000 E0.0260
G1 X24.630 Y10.429 E0.0260
G1 X24.410 Y9.897 E0.0260
G1 X24.059 Y9.441 E0.0260
G1 X23.603 Y9.090 E0.0260
G1 X23.071 Y8.870 E0.0260
G1 X22.500 Y8.795 E0.0260
; outer perimeter
G1 X22.500 Y9.198 F4200
G1 X22.034 Y9.260 E0.0212 F900
G1 X21.599 Y9.440 E0.0212
G1 X21.226 Y9.726 E0.0212
G1 X20.940 Y10.099 E0.0212
G1 X20.760 Y10.534 E0.0212
G1 X20.698 Y11.000 E0.0212
G1 X20.760 Y11.466 E0.0212
G1 X20.940 Y11.901 E0.0212
G1 X21.226 Y12.274 E0.0212
G1 X21.599 Y12.560 E0.0212
G1 X22.034 Y12.740 E0.0212
G1 X22.500 Y12.802 E0.0212
G1 X22.966 Y12.740 E0.0212
G1 X23.401 Y12.560 E0.0212
G1 X23.774 Y12.274 E0.0212
G1 X24.060 Y11.901 E0.0212
G1 X24.240 Y11.466 E0.0212
G1 X24.302 Y11.000 E0.0212
G1 X24.240 Y10.534 E0.0212
G1 X24.060 Y10.099 E0.0212
G1 X23.774 Y9.726 E0.0212
G1 X23.401 Y9.440 E0.0212
G1 X22.966 Y9.260 E0.0212
G1 X22.500 Y9.198 E0.0212
; inner perimeter
G1 X30.821 Y13.400 F4200
G1 X30.821 Y38.600 E1.1374 F1350
G1 X43.179 Y38.600 E0.5578
G1 X43.179 Y13.400 E1.1374
G1 X30.821 Y13.400 E0.5578
; outer perimeter
G1 X31.221 Y13.800 F4200
G1 X31.221 Y38.200 E1.1013 F900
G1 X42.779 Y38.200 E0.5217
G1 X42.779 Y13.800 E1.1013
G1 X31.221 Y13.800 E0.5217
; inner perimeter
G1 X-20.941 Y9.441 F4200
G1 X-21.397 Y9.090 E0.0260 F1350
G1 X-21.929 Y8.870 E0.0260
G1 X-22.500 Y8.795 E0.0260
G1 X-23.071 Y8.870 E0.0260
G1 X-23.603 Y9.090 E0.0260
G1 X-24.059 Y9.441 E0.0260
G1 X-24.410 Y9.897 E0.0260
G1 X-24.630 Y10.429 E0.0260
G1 X-24.705 Y11.000 E0.0260
G1 X-24.630 Y11.571 E0.0260
G1 X-24.410 Y12.103 E0.0260
G1 X-24.059 Y12.559 E0.0260
G1 X-23.603 Y12.910 E0.0260
G1 X-23.071 Y13.130 E0.0260
G1 X-22.500 Y13.205 E0.0260
G1 X-21.929 Y13.130 E0.0260
G1 X-21.397 Y12.910 E0.0260
G1 X-20.941 Y12.559 E0.0260
G1 X-20.590 Y12.103 E0.0260
G1 X-20.370 Y11.571 E0.0260
G1 X-20.295 Y11.000 E0.0260
G1 X-20.370 Y10.429 E0.0260
G1 X-20.590 Y9.897 E0.0260
G1 X-20.941 Y9.441 E0.0260
; outer perimeter
G1 X-21.226 Y9.726 F4200
G1 X-21.599 Y9.440 E0.0212 F900
G1 X-22.034 Y9.260 E0.0212
G1 X-22.500 Y9.198 E0.0212
G1 X-22.966 Y9.260 E0.0212
G1 X-23.401 Y9.440 E0.0212
G1 X-23.774 Y9.726 E0.0212
G1 X-24.060 Y10.099 E0.0212
G1 X-24.240 Y10.534 E0.0212
G1 X-24.302 Y11.000 E0.0212
G1 X-24.240 Y11.466 E0.0212
G1 X-24.060 Y11.901 E0.0212
G1 X-23.774 Y12.274 E0.0212
G1 X-23.401 Y12.560 E0.0212
G1 X-22.966 Y12.740 E0.0212
G1 X-22.500 Y12.802 E0.0212
G1 X-22.034 Y12.740 E0.0212
G1 X-21.599 Y12.560 E0.0212
G1 X-21.226 Y12.274 E0.0212
G1 X-20.940 Y11.901 E0.0212
G1 X-20.760 Y11.466 E0.0212
G1 X-20.698 Y11.000 E0.0212
G1 X-20.760 Y10.534 E0.0212
G1 X-20.940 Y10.099 E0.0212
G1 X-21.226 Y9.726 E0.0212
G1 E-1.0000 F1200
; inner perimeter
G1 X-30.821 Y13.400 F4200
G1 E1.0000 F1200
G1 X-43.179 Y13.400 E0.5578 F1350
G1 X-43.179 Y38.600 E1.1374
G1 X-30.821 Y38.600 E0.5578
G1 X-30.821 Y13.400 E1.1374
; outer perimeter
G1 X-31.221 Y13.800 F4200
G1 X-42.779 Y13.800 E0.5217 F900
G1 X-42.779 Y38.200 E1.1013
G1 X-31.221 Y38.200 E0.5217
G1 X-31.221 Y13.800 E1.1013
; solid layer
G1 X-23.345 Y8.637 F4200
G1 X16.139 Y-30.847 E2.5204 F1440
G1 X16.380 Y-30.522 E0.0183
G1 X-22.631 Y8.489 E2.4902
G1 X-22.500 Y8.472 E0.0060
G1 X-22.101 Y8.525 E0.0182
G1 X16.620 Y-30.197 E2.4717
G1 X16.860 Y-29.871 E0.0183
G1 X-21.650 Y8.639 E2.4582
G1 X-21.250 Y8.805 E0.0195
G1 X17.101 Y-29.546 E2.4480
G1 X17.341 Y-29.220 E0.0183
G1 X-20.927 Y9.048 E2.4428
G1 X-20.712 Y9.212 E0.0122
G1 X-20.632 Y9.318 E0.0060
G1 X17.581 Y-28.895 E2.4392
G1 X17.822 Y-28.570 E0.0183
G1 X-20.386 Y9.638 E2.4389
G1 X-20.311 Y9.736 E0.0056
G1 X-20.196 Y10.013 E0.0136
G1 X18.062 Y-28.244 E2.4421
G1 X18.302 Y-27.919 E0.0183
G1 X-20.047 Y10.430 E2.4479
G1 X-19.981 Y10.930 E0.0228
G1 X18.543 Y-27.594 E2.4591
G1 X18.783 Y-27.268 E0.0183
G1 X-20.046 Y11.561 E2.4786
G1 E-1.0000 F1200
G1 X-42.496 Y13.080 F4200
G1 E1.0000 F1200
G1 X9.664 Y-39.080 E3.3295 F1440
G1 X10.230 Y-39.080 E0.0255
G1 X-41.930 Y13.080 E3.3295
G1 X-41.364 Y13.080 E0.0255
G1 X10.796 Y-39.080 E3.3295
G1 X11.080 Y-39.080 E0.0128
G1 X11.080 Y-38.799 E0.0127
G1 X-40.799 Y13.080 E3.3115
G1 X-40.233 Y13.080 E0.0255
G1 X11.080 Y-38.233 E3.2754
G1 X11.080 Y-37.697 E0.0242
G1 X11.093 Y-37.680 E0.0010
G1 X-39.667 Y13.080 E3.2401
G1 X-39.101 Y13.080 E0.0255
G1 X11.333 Y-37.355 E3.2194
G1 X11.573 Y-37.029 E0.0183
G1 X-38.536 Y13.080 E3.1986
G1 X-37.970 Y13.080 E0.0255
G1 X11.814 Y-36.704 E3.1778
G1 X12.054 Y-36.378 E0.0183
G1 X-37.404 Y13.080 E3.1571
G1 X-36.839 Y13.080 E0.0255
G1 X12.294 Y-36.053 E3.1363
G1 X12.535 Y-35.728 E0.0183
G1 X-36.273 Y13.080 E3.1155
G1 X-35.707 Y13.080 E0.0255
G1 X12.775 Y-35.402 E3.0948
G1 X13.015 Y-35.077 E0.0183
G1 X-35.142 Y13.080 E3.0740
G1 X-34.576 Y13.080 E0.0255
G1 X13.256 Y-34.752 E3.0532
G1 X13.496 Y-34.426 E0.0183
G1 X-34.010 Y13.080 E3.0325
G1 X-33.445 Y13.080 E0.0255
G1 X13.736 Y-34.101 E3.0117
