; G-Code generated by Simplify3D(R) Version 3.0.2
; May 14, 2016 at 6:37:41 PM
; Settings Summary
;   processName,Process1
;   applyToModels,Axis_Table_Second_Floor_Down
;   profileName,3d machtudong (modified)
;   profileVersion,2016-03-30 16:48:23
;   baseProfile,FlashForge Right 60-70 (modified)
;   printMaterial,
;   printQuality,
;   printExtruders,
;   extruderName,Right Extruder,Left Extruder
;   extruderToolheadNumber,0,1
;   extruderDiameter,0.4,0.4
;   extruderAutoWidth,0,0
;   extruderWidth,0.4,0.4
;   extrusionMultiplier,0.95,0.95
;   extruderUseRetract,1,1
;   extruderRetractionDistance,1,1
;   extruderExtraRestartDistance,0,0
;   extruderRetractionZLift,0,0
;   extruderRetractionSpeed,1200,1200
;   extruderUseCoasting,0,0
;   extruderCoastingDistance,0.2,0.2
;   extruderUseWipe,0,0
;   extruderWipeDistance,5,5
;   primaryExtruder,0
;   layerHeight,0.2857
;   topSolidLayers,3
;   bottomSolidLayers,3
;   perimeterOutlines,2
;   printPerimetersInsideOut,1
;   startPointOption,2
;   startPointOriginX,0
;   startPointOriginY,0
;   startPointOriginZ,300
;   sequentialIslands,0
;   spiralVaseMode,0
;   firstLayerHeightPercentage,90
;   firstLayerWidthPercentage,100
;   firstLayerUnderspeed,0.5
;   useRaft,0
;   raftExtruder,0
;   raftLayers,3
;   raftOffset,3
;   raftSeparationDistance,0.14
;   raftInfill,85
;   disableRaftBaseLayers,0
;   useSkirt,1
;   skirtExtruder,0
;   skirtLayers,1
;   skirtOutlines,2
;   skirtOffset,10
;   usePrimePillar,0
;   primePillarExtruder,999
;   primePillarWidth,12
;   primePillarLocation,7
;   primePillarSpeedMultiplier,1
;   useOozeShield,0
;   oozeShieldExtruder,999
;   oozeShieldOffset,2
;   oozeShieldOutlines,1
;   oozeShieldSidewallShape,1
;   oozeShieldSidewallAngle,30
;   oozeShieldSpeedMultiplier,1
;   infillExtruder,0
;   internalInfillPattern,Rectilinear
;   externalInfillPattern,Rectilinear
;   infillPercentage,3
;   outlineOverlapPercentage,20
;   infillExtrusionWidthPercentage,100
;   minInfillLength,5
;   infillLayerInterval,1
;   infillAngles,45,-45
;   overlapInfillAngles,0
;   generateSupport,0
;   supportExtruder,0
;   supportInfillPercentage,30
;   supportExtraInflation,0
;   denseSupportLayers,0
;   denseSupportInfillPercentage,70
;   supportLayerInterval,1
;   supportHorizontalPartOffset,0.3
;   supportUpperSeparationLayers,1
;   supportLowerSeparationLayers,1
;   supportType,0
;   supportGridSpacing,4
;   maxOverhangAngle,45
;   supportAngles,0
;   temperatureName,Right Extruder,Heated Build Platform
;   temperatureNumber,0,0
;   temperatureSetpointCount,1,1
;   temperatureSetpointLayers,1,1
;   temperatureSetpointTemperatures,223,110
;   temperatureStabilizeAtStartup,0,0
;   temperatureHeatedBed,0,1
;   temperatureRelayBetweenLayers,0,0
;   temperatureRelayBetweenLoops,0,0
;   fanLayers,1
;   fanSpeeds,0
;   blipFanToFullPower,0
;   adjustSpeedForCooling,1
;   minSpeedLayerTime,15
;   minCoolingSpeedSlowdown,20
;   increaseFanForCooling,0
;   minFanLayerTime,45
;   maxCoolingFanSpeed,100
;   increaseFanForBridging,1
;   bridgingFanSpeed,100
;   use5D,1
;   relativeEdistances,1
;   allowEaxisZeroing,0
;   independentExtruderAxes,0
;   includeM10123,0
;   stickySupport,1
;   applyToolheadOffsets,0
;   gcodeXoffset,0
;   gcodeYoffset,0
;   gcodeZoffset,0
;   overrideMachineDefinition,1
;   machineTypeOverride,0
;   strokeXoverride,220
;   strokeYoverride,140
;   strokeZoverride,150
;   originOffsetXoverride,110
;   originOffsetYoverride,70
;   originOffsetZoverride,0
;   homeXdirOverride,1
;   homeYdirOverride,1
;   homeZdirOverride,-1
;   flipXoverride,1
;   flipYoverride,-1
;   flipZoverride,1
;   toolheadOffsets,0,0|0,0|0,0|0,0|0,0|0,0
;   overrideFirmwareConfiguration,1
;   firmwareTypeOverride,MakerBot/Sailfish Firmware
;   GPXconfigOverride,r1d
;   baudRateOverride,115200
;   overridePrinterModels,0
;   printerModelsOverride
;   startingGcode,; **** Replicator 1 dual right extruder start.gcode ****,M73 P0 ; enable build progress,G162 X Y F3000 ; home XY maximum,G161 Z F1200 ; home Z minimum,G92 Z-5 ; set Z to -5,G1 Z0 ; move Z to 0,G161 Z F100 ; home Z slowly,M132 X Y Z A B ; recall home offsets,M135 T0 ; load right extruder offsets,G1 X125 Y-70 Z30 F9000 ; move to wait position off table,G130 X20 Y20 Z20 A20 B20 ; lower stepper Vrefs while heating,M126 S[fan_speed_pwm],M140 S[bed0_temperature] T0,M134 T0 ; stabilize bed temperature,M104 S[extruder0_temperature] T0,M133 T0 ; stabilize extruder temperature,G130 X127 Y127 Z40 A127 B127 ; default stepper Vrefs,G92 A0 B0 ; zero extruders,G1 Z0.4 ; position nozzle,G1 E25 F300 ; purge nozzle,G1 X115 Y-70 Z0.15 F1200 ; slow wipe,G1 X110 Y-70 Z0.5 F1200 ; lift,G92 A0 B0 ; zero extruders,M73 P1 ;@body (notify GPX body has started),; **** end of start.gcode ****
;   layerChangeGcode,
;   retractionGcode,
;   toolChangeGcode,
;   endingGcode,(******* End.gcode*******),M109 S0 T0 ( Cool down the build platform ),M104 S0 T0 ( Cool down the Right Extruder ),M104 S0 T1 ( Cool down the Left Extruder ),M73 P100 ( End  build progress ),G0 Z150 ( Send Z axis to bottom of machine ),M18 ( Disable steppers ),G162 X Y F2500 ( Home XY endstops ),M18 ( Disable stepper motors ),M70 P5 ( We <3 Making Things!),M72 P1  ( Play Ta-Da song ),(*********end End.gcode*******)
;   createX3G,1
;   celebration,1
;   celebrationSong,Funky Town
;   createMB5G,0
;   postProcessing,
;   defaultSpeed,3600
;   outlineUnderspeed,0.5
;   solidInfillUnderspeed,0.8
;   supportUnderspeed,0.8
;   rapidXYspeed,4200
;   rapidZspeed,900
;   minBridgingArea,50
;   bridgingExtraInflation,0
;   bridgingExtrusionMultiplier,1
;   bridgingSpeedMultiplier,0.8
;   filamentDiameter,1.75
;   filamentPricePerKg,46
;   filamentDensity,1.25
;   useMinPrintHeight,0
;   minPrintHeight,0
;   useMaxPrintHeight,0
;   maxPrintHeight,0
;   useDiaphragm,0
;   diaphragmLayerInterval,20
;   robustSlicing,1
;   mergeAllIntoSolid,0
;   onlyRetractWhenCrossingOutline,1
;   retractBetweenLayers,1
;   useRetractionMinTravel,0
;   retractionMinTravel,3
;   retractWhileWiping,0
;   onlyWipeOutlines,1
;   avoidCrossingOutline,0
;   maxMovementDetourFactor,3
;   toolChangeRetractionDistance,12
;   toolChangeExtraRestartDistance,-0.5
;   toolChangeRetractionSpeed,600
;   allowThinWallGapFill,1
;   thinWallAllowedOverlapPercentage,10
;   horizontalSizeCompensation,0
G90
M83
; **** Replicator 1 dual right extruder start.gcode ****
M73 P0 ; enable build progress
G162 X Y F3000 ; home XY maximum
G161 Z F1200 ; home Z minimum
G92 Z-5 ; set Z to -5
G1 Z0 ; move Z to 0
G161 Z F100 ; home Z slowly
M132 X Y Z A B ; recall home offsets
M135 T0 ; load right extruder offsets
G1 X125 Y-70 Z30 F9000 ; move to wait position off table
G130 X20 Y20 Z20 A20 B20 ; lower stepper Vrefs while heating
M127
M140 S110 T0
M134 T0 ; stabilize bed temperature
M104 S223 T0
M133 T0 ; stabilize extruder temperature
G130 X127 Y127 Z40 A127 B127 ; default stepper Vrefs
G92 A0 B0 ; zero extruders
G1 Z0.4 ; position nozzle
G1 E25 F300 ; purge nozzle
G1 X115 Y-70 Z0.15 F1200 ; slow wipe
G1 X110 Y-70 Z0.5 F1200 ; lift
G92 A0 B0 ; zero extruders
M73 P1 ;@body (notify GPX body has started)
; **** end of start.gcode ****
G1 E-1.0000 F1200
G1 Z0.257 F900
; layer 1, Z = 0.25713
M135 T0
; tool H0.286 W0.400
; skirt
G1 X21.709 Y4.500 F4200
G1 E1.0000 F360
G1 X22.370 Y5.658 E0.0602 F1800
G1 X22.400 Y5.730 E0.0035
G1 X23.090 Y8.328 E0.1213
G1 X23.100 Y8.406 E0.0035
G1 X23.100 Y33.298 E1.1236
G1 X23.077 Y33.414 E0.0053
G1 X21.509 Y37.199 E0.1849
G1 X21.444 Y37.297 E0.0053
G1 X16.047 Y42.694 E0.3445
G1 X15.949 Y42.759 E0.0053
G1 X12.164 Y44.327 E0.1849
G1 X12.048 Y44.350 E0.0053
G1 X-12.048 Y44.350 E1.0876
G1 X-12.164 Y44.327 E0.0053
G1 X-15.949 Y42.759 E0.1849
G1 X-16.047 Y42.694 E0.0053
G1 X-21.444 Y37.297 E0.3445
G1 X-21.509 Y37.199 E0.0053
G1 X-23.077 Y33.414 E0.1849
G1 X-23.100 Y33.298 E0.0053
G1 X-23.100 Y8.406 E1.1236
G1 X-23.090 Y8.328 E0.0035
G1 X-22.400 Y5.730 E0.1213
G1 X-22.370 Y5.658 E0.0035
G1 X-21.709 Y4.500 E0.0602
G1 X-22.370 Y3.342 E0.0602
G1 X-22.400 Y3.270 E0.0035
G1 X-23.090 Y0.672 E0.1213
G1 X-23.100 Y0.594 E0.0035
G1 X-23.100 Y-7.798 E0.3788
G1 X-23.077 Y-7.914 E0.0053
G1 X-21.509 Y-11.699 E0.1849
G1 X-21.444 Y-11.797 E0.0053
G1 X-17.366 Y-15.875 E0.2603
G1 X-19.759 Y-18.268 E0.1528
G1 X-19.850 Y-18.488 E0.0108
G1 X-19.850 Y-38.011 E0.8812
G1 X-19.759 Y-38.232 E0.0108
G1 X-13.732 Y-44.259 E0.3847
G1 X-13.511 Y-44.350 E0.0108
G1 X2.797 Y-44.350 E0.7361
G1 X2.933 Y-44.318 E0.0063
G1 X7.269 Y-42.159 E0.2186
G1 X7.376 Y-42.070 E0.0063
G1 X14.270 Y-32.937 E0.5165
G1 X14.302 Y-32.885 E0.0027
G1 X15.194 Y-31.021 E0.0933
G1 X15.215 Y-30.964 E0.0027
G1 X19.565 Y-13.675 E0.8047
G1 X21.444 Y-11.797 E0.1199
G1 X21.509 Y-11.699 E0.0053
G1 X23.077 Y-7.914 E0.1849
G1 X23.100 Y-7.798 E0.0053
G1 X23.100 Y0.594 E0.3788
G1 X23.090 Y0.672 E0.0035
G1 X22.400 Y3.270 E0.1213
G1 X22.370 Y3.342 E0.0035
G1 X21.709 Y4.500 E0.0602
G1 X21.248 Y4.500 F4200
G1 X22.010 Y5.834 E0.0693 F1800
G1 X22.020 Y5.858 E0.0012
G1 X22.697 Y8.406 E0.1190
G1 X22.700 Y8.432 E0.0012
G1 X22.700 Y33.259 E1.1206
G1 X22.692 Y33.297 E0.0018
G1 X21.155 Y37.009 E0.1813
G1 X21.133 Y37.042 E0.0018
G1 X15.792 Y42.383 E0.3409
G1 X15.759 Y42.405 E0.0018
G1 X12.047 Y43.942 E0.1813
G1 X12.009 Y43.950 E0.0018
G1 X-12.009 Y43.950 E1.0841
G1 X-12.047 Y43.942 E0.0018
G1 X-15.759 Y42.405 E0.1813
G1 X-15.792 Y42.383 E0.0018
G1 X-21.133 Y37.042 E0.3409
G1 X-21.155 Y37.009 E0.0018
G1 X-22.692 Y33.297 E0.1813
G1 X-22.700 Y33.259 E0.0018
G1 X-22.700 Y8.432 E1.1206
G1 X-22.697 Y8.406 E0.0012
G1 X-22.020 Y5.858 E0.1190
G1 X-22.010 Y5.834 E0.0012
G1 X-21.248 Y4.500 E0.0693
G1 X-22.010 Y3.166 E0.0693
G1 X-22.020 Y3.142 E0.0012
G1 X-22.697 Y0.594 E0.1190
G1 X-22.700 Y0.568 E0.0012
G1 X-22.700 Y-7.759 E0.3759
G1 X-22.692 Y-7.797 E0.0018
G1 X-21.155 Y-11.509 E0.1813
G1 X-21.133 Y-11.542 E0.0018
G1 X-16.800 Y-15.875 E0.2766
G1 X-19.420 Y-18.495 E0.1672
G1 X-19.450 Y-18.568 E0.0036
G1 X-19.450 Y-37.932 E0.8740
G1 X-19.420 Y-38.005 E0.0036
G1 X-13.505 Y-43.920 E0.3775
G1 X-13.432 Y-43.950 E0.0036
G1 X2.751 Y-43.950 E0.7304
G1 X2.796 Y-43.939 E0.0021
G1 X7.049 Y-41.821 E0.2145
G1 X7.084 Y-41.792 E0.0021
G1 X13.939 Y-32.712 E0.5135
G1 X13.949 Y-32.694 E0.0009
G1 X14.825 Y-30.866 E0.0915
G1 X14.832 Y-30.847 E0.0009
G1 X19.204 Y-13.471 E0.8088
G1 X21.133 Y-11.542 E0.1231
G1 X21.155 Y-11.509 E0.0018
G1 X22.692 Y-7.797 E0.1813
G1 X22.700 Y-7.759 E0.0018
G1 X22.700 Y0.568 E0.3759
G1 X22.697 Y0.594 E0.0012
G1 X22.020 Y3.142 E0.1190
G1 X22.010 Y3.166 E0.0012
G1 X21.248 Y4.500 E0.0693
G1 E-1.0000 F1200
; inner perimeter
G1 X11.900 Y9.909 F4200
G1 E1.0000 F1200
G1 X11.900 Y31.001 E0.9520 F1350
G1 X9.751 Y33.150 E0.1371
G1 X1.497 Y33.150 E0.3726
G1 X5.989 Y12.750 E0.9429
G1 X1.350 Y-8.315 E0.9736
G1 X1.350 Y-23.350 E0.6786
G1 X-8.650 Y-23.350 E0.4514
G1 X-8.650 Y-33.150 E0.4423
G1 X0.076 Y-33.150 E0.3939
G1 X4.635 Y-27.111 E0.3416
G1 X9.459 Y-7.943 E0.8921
G1 X11.900 Y-5.501 E0.1558
G1 X11.900 Y-0.909 E0.2073
G1 X8.809 Y4.500 E0.2812
G1 X11.900 Y9.909 E0.2812
G1 E-1.0000 F1200
; outer perimeter
G1 X12.300 Y-0.803 F4200
G1 E1.0000 F1200
G1 X9.270 Y4.500 E0.2757 F900
G1 X12.300 Y9.803 E0.2757
G1 X12.300 Y31.167 E0.9643
G1 X9.917 Y33.550 E0.1521
G1 X0.999 Y33.550 E0.4025
G1 X5.580 Y12.750 E0.9613
G1 X0.950 Y-8.272 E0.9716
G1 X0.950 Y-22.950 E0.6625
G1 X-9.050 Y-22.950 E0.4514
G1 X-9.050 Y-33.550 E0.4784
G1 X0.275 Y-33.550 E0.4209
G1 X5.003 Y-27.287 E0.3542
G1 X9.820 Y-8.148 E0.8908
G1 X12.300 Y-5.667 E0.1583
G1 X12.300 Y-0.803 E0.2195
G1 E-1.0000 F1200
; solid layer
G1 X9.596 Y32.830 F4200
G1 E1.0000 F1200
G1 X11.580 Y30.846 E0.1266 F1440
G1 X11.580 Y30.281 E0.0255
G1 X9.031 Y32.830 E0.1627
G1 X8.465 Y32.830 E0.0255
G1 X11.580 Y29.715 E0.1988
G1 X11.580 Y29.149 E0.0255
G1 X7.899 Y32.830 E0.2349
G1 X7.334 Y32.830 E0.0255
G1 X11.580 Y28.584 E0.2711
G1 X11.580 Y28.018 E0.0255
G1 X6.768 Y32.830 E0.3072
G1 X6.202 Y32.830 E0.0255
G1 X11.580 Y27.452 E0.3433
G1 X11.580 Y26.887 E0.0255
G1 X5.637 Y32.830 E0.3794
G1 X5.071 Y32.830 E0.0255
G1 X11.580 Y26.321 E0.4155
G1 X11.580 Y25.755 E0.0255
G1 X4.505 Y32.830 E0.4516
G1 X3.940 Y32.830 E0.0255
G1 X11.580 Y25.190 E0.4877
G1 X11.580 Y24.624 E0.0255
G1 X3.374 Y32.830 E0.5238
G1 X2.808 Y32.830 E0.0255
G1 X11.580 Y24.058 E0.5599
G1 X11.580 Y23.493 E0.0255
G1 X2.243 Y32.830 E0.5960
G1 X1.895 Y32.830 E0.0157
G1 X1.956 Y32.551 E0.0129
G1 X11.580 Y22.927 E0.6143
G1 X11.580 Y22.361 E0.0255
G1 X2.116 Y31.825 E0.6041
G1 X2.276 Y31.100 E0.0335
G1 X11.580 Y21.795 E0.5939
G1 X11.580 Y21.230 E0.0255
G1 X2.436 Y30.374 E0.5837
G1 X2.595 Y29.649 E0.0335
G1 X11.580 Y20.664 E0.5735
G1 X11.580 Y20.098 E0.0255
G1 X2.755 Y28.923 E0.5633
G1 X2.915 Y28.198 E0.0335
G1 X11.580 Y19.533 E0.5531
G1 X11.580 Y18.967 E0.0255
G1 X3.075 Y27.472 E0.5429
G1 X3.234 Y26.747 E0.0335
G1 X11.580 Y18.401 E0.5327
G1 X11.580 Y17.836 E0.0255
G1 X3.394 Y26.022 E0.5225
G1 X3.554 Y25.296 E0.0335
G1 X11.580 Y17.270 E0.5123
G1 X11.580 Y16.704 E0.0255
G1 X3.714 Y24.571 E0.5021
G1 X3.873 Y23.845 E0.0335
G1 X11.580 Y16.139 E0.4919
G1 X11.580 Y15.573 E0.0255
G1 X4.033 Y23.120 E0.4817
G1 X4.193 Y22.394 E0.0335
G1 X11.580 Y15.007 E0.4715
G1 X11.580 Y14.442 E0.0255
G1 X4.353 Y21.669 E0.4613
G1 X4.513 Y20.943 E0.0335
G1 X11.580 Y13.876 E0.4511
G1 X11.580 Y13.310 E0.0255
G1 X4.672 Y20.218 E0.4409
G1 X4.832 Y19.492 E0.0335
G1 X11.580 Y12.745 E0.4307
G1 X11.580 Y12.179 E0.0255
G1 X4.992 Y18.767 E0.4205
G1 X5.152 Y18.041 E0.0335
G1 X11.580 Y11.613 E0.4103
G1 X11.580 Y11.047 E0.0255
G1 X5.311 Y17.316 E0.4001
G1 X5.471 Y16.591 E0.0335
G1 X11.580 Y10.482 E0.3899
G1 X11.580 Y9.994 E0.0220
G1 X11.552 Y9.945 E0.0026
G1 X5.631 Y15.865 E0.3779
G1 X5.791 Y15.140 E0.0335
G1 X11.346 Y9.585 E0.3546
G1 X11.140 Y9.225 E0.0187
G1 X5.951 Y14.414 E0.3313
G1 X6.110 Y13.689 E0.0335
G1 X10.934 Y8.865 E0.3079
G1 X10.729 Y8.505 E0.0187
G1 X6.270 Y12.963 E0.2846
G1 X6.317 Y12.750 E0.0099
G1 X6.245 Y12.423 E0.0151
G1 X10.523 Y8.145 E0.2731
G1 X10.317 Y7.785 E0.0187
G1 X6.143 Y11.959 E0.2665
G1 X6.041 Y11.496 E0.0214
G1 X10.112 Y7.425 E0.2599
G1 X9.906 Y7.065 E0.0187
G1 X5.939 Y11.032 E0.2532
G1 X5.837 Y10.568 E0.0214
G1 X9.700 Y6.705 E0.2466
G1 X9.495 Y6.345 E0.0187
G1 X5.734 Y10.105 E0.2400
G1 X5.632 Y9.641 E0.0214
G1 X9.289 Y5.985 E0.2334
G1 X9.083 Y5.625 E0.0187
G1 X5.530 Y9.178 E0.2268
G1 X5.428 Y8.714 E0.0214
G1 X8.877 Y5.265 E0.2202
G1 X8.672 Y4.905 E0.0187
G1 X5.326 Y8.250 E0.2136
G1 X5.224 Y7.787 E0.0214
G1 X8.466 Y4.545 E0.2069
G1 X8.440 Y4.500 E0.0023
G1 X9.101 Y3.344 E0.0601
G1 X5.122 Y7.323 E0.2540
G1 X5.020 Y6.860 E0.0214
G1 X9.855 Y2.024 E0.3086
G1 X10.609 Y0.705 E0.0686
G1 X4.918 Y6.396 E0.3633
G1 X4.816 Y5.932 E0.0214
G1 X11.363 Y-0.615 E0.4180
G1 X11.580 Y-0.994 E0.0197
G1 X11.580 Y-1.398 E0.0182
G1 X4.713 Y5.469 E0.4383
G1 X4.611 Y5.005 E0.0214
G1 X11.580 Y-1.963 E0.4448
G1 X11.580 Y-2.529 E0.0255
G1 X4.509 Y4.542 E0.4513
G1 X4.407 Y4.078 E0.0214
G1 X11.580 Y-3.095 E0.4579
G1 X11.580 Y-3.660 E0.0255
G1 X4.305 Y3.615 E0.4644
G1 X4.203 Y3.151 E0.0214
G1 X11.580 Y-4.226 E0.4709
G1 X11.580 Y-4.792 E0.0255
G1 X4.101 Y2.687 E0.4774
G1 X3.999 Y2.224 E0.0214
G1 X11.580 Y-5.357 E0.4839
G1 X11.580 Y-5.369 E0.0005
G1 X11.303 Y-5.646 E0.0177
G1 X3.897 Y1.760 E0.4728
G1 X3.795 Y1.297 E0.0214
G1 X11.020 Y-5.929 E0.4612
G1 X10.737 Y-6.212 E0.0181
G1 X3.692 Y0.833 E0.4497
G1 X3.590 Y0.369 E0.0214
G1 X10.454 Y-6.495 E0.4381
G1 X10.172 Y-6.777 E0.0181
G1 X3.488 Y-0.094 E0.4266
G1 X3.386 Y-0.558 E0.0214
G1 X9.889 Y-7.060 E0.4151
G1 X9.606 Y-7.343 E0.0181
G1 X3.284 Y-1.021 E0.4035
G1 X3.182 Y-1.485 E0.0214
G1 X9.323 Y-7.626 E0.3920
G1 X9.170 Y-7.779 E0.0098
G1 X9.118 Y-7.986 E0.0096
G1 X3.080 Y-1.948 E0.3854
G1 X2.978 Y-2.412 E0.0214
G1 X9.004 Y-8.438 E0.3847
G1 X8.890 Y-8.890 E0.0210
G1 X2.876 Y-2.876 E0.3839
G1 X2.774 Y-3.339 E0.0214
G1 X8.776 Y-9.342 E0.3832
G1 X8.663 Y-9.794 E0.0210
G1 X2.671 Y-3.803 E0.3824
G1 X2.569 Y-4.266 E0.0214
G1 X8.549 Y-10.246 E0.3817
G1 X8.435 Y-10.698 E0.0210
G1 X2.467 Y-4.730 E0.3810
G1 X2.365 Y-5.194 E0.0214
G1 X8.322 Y-11.150 E0.3802
G1 X8.208 Y-11.602 E0.0210
G1 X2.263 Y-5.657 E0.3795
