; G-Code generated by Simplify3D(R) Version 3.0.2
; May 14, 2016 at 10:46:33 PM
; Settings Summary
;   processName,Process1
;   applyToModels,Pen_Mouting_Adapter
;   profileName,3d machtudong (modified)
;   profileVersion,2016-03-30 16:48:23
;   baseProfile,FlashForge Right 60-70 (modified)
;   printMaterial,
;   printQuality,
;   printExtruders,
;   extruderName,Right Extruder,Left Extruder
;   extruderToolheadNumber,0,1
;   extruderDiameter,0.4,0.4
;   extruderAutoWidth,0,0
;   extruderWidth,0.4,0.4
;   extrusionMultiplier,0.95,0.95
;   extruderUseRetract,1,1
;   extruderRetractionDistance,1,1
;   extruderExtraRestartDistance,0,0
;   extruderRetractionZLift,0,0
;   extruderRetractionSpeed,1200,1200
;   extruderUseCoasting,0,0
;   extruderCoastingDistance,0.2,0.2
;   extruderUseWipe,0,0
;   extruderWipeDistance,5,5
;   primaryExtruder,0
;   layerHeight,0.2857
;   topSolidLayers,3
;   bottomSolidLayers,3
;   perimeterOutlines,2
;   printPerimetersInsideOut,1
;   startPointOption,2
;   startPointOriginX,0
;   startPointOriginY,0
;   startPointOriginZ,300
;   sequentialIslands,0
;   spiralVaseMode,0
;   firstLayerHeightPercentage,90
;   firstLayerWidthPercentage,100
;   firstLayerUnderspeed,0.5
;   useRaft,0
;   raftExtruder,0
;   raftLayers,3
;   raftOffset,3
;   raftSeparationDistance,0.14
;   raftInfill,85
;   disableRaftBaseLayers,0
;   useSkirt,1
;   skirtExtruder,0
;   skirtLayers,1
;   skirtOutlines,2
;   skirtOffset,10
;   usePrimePillar,0
;   primePillarExtruder,999
;   primePillarWidth,12
;   primePillarLocation,7
;   primePillarSpeedMultiplier,1
;   useOozeShield,0
;   oozeShieldExtruder,999
;   oozeShieldOffset,2
;   oozeShieldOutlines,1
;   oozeShieldSidewallShape,1
;   oozeShieldSidewallAngle,30
;   oozeShieldSpeedMultiplier,1
;   infillExtruder,0
;   internalInfillPattern,Rectilinear
;   externalInfillPattern,Rectilinear
;   infillPercentage,3
;   outlineOverlapPercentage,20
;   infillExtrusionWidthPercentage,100
;   minInfillLength,5
;   infillLayerInterval,1
;   infillAngles,45,-45
;   overlapInfillAngles,0
;   generateSupport,0
;   supportExtruder,0
;   supportInfillPercentage,30
;   supportExtraInflation,0
;   denseSupportLayers,0
;   denseSupportInfillPercentage,70
;   supportLayerInterval,1
;   supportHorizontalPartOffset,0.3
;   supportUpperSeparationLayers,1
;   supportLowerSeparationLayers,1
;   supportType,0
;   supportGridSpacing,4
;   maxOverhangAngle,45
;   supportAngles,0
;   temperatureName,Right Extruder,Heated Build Platform
;   temperatureNumber,0,0
;   temperatureSetpointCount,1,1
;   temperatureSetpointLayers,1,1
;   temperatureSetpointTemperatures,223,110
;   temperatureStabilizeAtStartup,0,0
;   temperatureHeatedBed,0,1
;   temperatureRelayBetweenLayers,0,0
;   temperatureRelayBetweenLoops,0,0
;   fanLayers,1
;   fanSpeeds,0
;   blipFanToFullPower,0
;   adjustSpeedForCooling,1
;   minSpeedLayerTime,15
;   minCoolingSpeedSlowdown,20
;   increaseFanForCooling,0
;   minFanLayerTime,45
;   maxCoolingFanSpeed,100
;   increaseFanForBridging,1
;   bridgingFanSpeed,100
;   use5D,1
;   relativeEdistances,1
;   allowEaxisZeroing,0
;   independentExtruderAxes,0
;   includeM10123,0
;   stickySupport,1
;   applyToolheadOffsets,0
;   gcodeXoffset,0
;   gcodeYoffset,0
;   gcodeZoffset,0
;   overrideMachineDefinition,1
;   machineTypeOverride,0
;   strokeXoverride,220
;   strokeYoverride,140
;   strokeZoverride,150
;   originOffsetXoverride,110
;   originOffsetYoverride,70
;   originOffsetZoverride,0
;   homeXdirOverride,1
;   homeYdirOverride,1
;   homeZdirOverride,-1
;   flipXoverride,1
;   flipYoverride,-1
;   flipZoverride,1
;   toolheadOffsets,0,0|0,0|0,0|0,0|0,0|0,0
;   overrideFirmwareConfiguration,1
;   firmwareTypeOverride,MakerBot/Sailfish Firmware
;   GPXconfigOverride,r1d
;   baudRateOverride,115200
;   overridePrinterModels,0
;   printerModelsOverride
;   startingGcode,; **** Replicator 1 dual right extruder start.gcode ****,M73 P0 ; enable build progress,G162 X Y F3000 ; home XY maximum,G161 Z F1200 ; home Z minimum,G92 Z-5 ; set Z to -5,G1 Z0 ; move Z to 0,G161 Z F100 ; home Z slowly,M132 X Y Z A B ; recall home offsets,M135 T0 ; load right extruder offsets,G1 X125 Y-70 Z30 F9000 ; move to wait position off table,G130 X20 Y20 Z20 A20 B20 ; lower stepper Vrefs while heating,M126 S[fan_speed_pwm],M140 S[bed0_temperature] T0,M134 T0 ; stabilize bed temperature,M104 S[extruder0_temperature] T0,M133 T0 ; stabilize extruder temperature,G130 X127 Y127 Z40 A127 B127 ; default stepper Vrefs,G92 A0 B0 ; zero extruders,G1 Z0.4 ; position nozzle,G1 E25 F300 ; purge nozzle,G1 X115 Y-70 Z0.15 F1200 ; slow wipe,G1 X110 Y-70 Z0.5 F1200 ; lift,G92 A0 B0 ; zero extruders,M73 P1 ;@body (notify GPX body has started),; **** end of start.gcode ****
;   layerChangeGcode,
;   retractionGcode,
;   toolChangeGcode,
;   endingGcode,(******* End.gcode*******),M109 S0 T0 ( Cool down the build platform ),M104 S0 T0 ( Cool down the Right Extruder ),M104 S0 T1 ( Cool down the Left Extruder ),M73 P100 ( End  build progress ),G0 Z150 ( Send Z axis to bottom of machine ),M18 ( Disable steppers ),G162 X Y F2500 ( Home XY endstops ),M18 ( Disable stepper motors ),M70 P5 ( We <3 Making Things!),M72 P1  ( Play Ta-Da song ),(*********end End.gcode*******)
;   createX3G,1
;   celebration,1
;   celebrationSong,Funky Town
;   createMB5G,0
;   postProcessing,
;   defaultSpeed,3600
;   outlineUnderspeed,0.5
;   solidInfillUnderspeed,0.8
;   supportUnderspeed,0.8
;   rapidXYspeed,4200
;   rapidZspeed,900
;   minBridgingArea,50
;   bridgingExtraInflation,0
;   bridgingExtrusionMultiplier,1
;   bridgingSpeedMultiplier,0.8
;   filamentDiameter,1.75
;   filamentPricePerKg,46
;   filamentDensity,1.25
;   useMinPrintHeight,0
;   minPrintHeight,0
;   useMaxPrintHeight,0
;   maxPrintHeight,0
;   useDiaphragm,0
;   diaphragmLayerInterval,20
;   robustSlicing,1
;   mergeAllIntoSolid,0
;   onlyRetractWhenCrossingOutline,1
;   retractBetweenLayers,1
;   useRetractionMinTravel,0
;   retractionMinTravel,3
;   retractWhileWiping,0
;   onlyWipeOutlines,1
;   avoidCrossingOutline,0
;   maxMovementDetourFactor,3
;   toolChangeRetractionDistance,12
;   toolChangeExtraRestartDistance,-0.5
;   toolChangeRetractionSpeed,600
;   allowThinWallGapFill,1
;   thinWallAllowedOverlapPercentage,10
;   horizontalSizeCompensation,0
G90
M83
; **** Replicator 1 dual right extruder start.gcode ****
M73 P0 ; enable build progress
G162 X Y F3000 ; home XY maximum
G161 Z F1200 ; home Z minimum
G92 Z-5 ; set Z to -5
G1 Z0 ; move Z to 0
G161 Z F100 ; home Z slowly
M132 X Y Z A B ; recall home offsets
M135 T0 ; load right extruder offsets
G1 X125 Y-70 Z30 F9000 ; move to wait position off table
G130 X20 Y20 Z20 A20 B20 ; lower stepper Vrefs while heating
M127
M140 S110 T0
M134 T0 ; stabilize bed temperature
M104 S223 T0
M133 T0 ; stabilize extruder temperature
G130 X127 Y127 Z40 A127 B127 ; default stepper Vrefs
G92 A0 B0 ; zero extruders
G1 Z0.4 ; position nozzle
G1 E25 F300 ; purge nozzle
G1 X115 Y-70 Z0.15 F1200 ; slow wipe
G1 X110 Y-70 Z0.5 F1200 ; lift
G92 A0 B0 ; zero extruders
M73 P1 ;@body (notify GPX body has started)
; **** end of start.gcode ****
G1 E-1.0000 F1200
G1 Z0.257 F900
; layer 1, Z = 0.25713
M135 T0
; tool H0.286 W0.400
; skirt
G1 X36.001 Y-29.761 F4200
G1 E1.0000 F360
G1 X36.001 Y29.761 E2.6867 F1800
G1 X35.910 Y29.982 E0.0108
G1 X29.883 Y36.009 E0.3847
G1 X29.663 Y36.100 E0.0108
G1 X-29.663 Y36.100 E2.6778
G1 X-29.883 Y36.009 E0.0108
G1 X-35.910 Y29.982 E0.3847
G1 X-36.001 Y29.761 E0.0108
G1 X-36.001 Y-29.761 E2.6867
G1 X-35.910 Y-29.982 E0.0108
G1 X-29.883 Y-36.009 E0.3847
G1 X-29.663 Y-36.100 E0.0108
G1 X29.663 Y-36.100 E2.6778
G1 X29.883 Y-36.009 E0.0108
G1 X35.910 Y-29.982 E0.3847
G1 X36.001 Y-29.761 E0.0108
G1 X35.601 Y-29.682 F4200
G1 X35.601 Y29.682 E2.6795 F1800
G1 X35.571 Y29.755 E0.0036
G1 X29.657 Y35.670 E0.3775
G1 X29.583 Y35.700 E0.0036
G1 X-29.583 Y35.700 E2.6706
G1 X-29.657 Y35.670 E0.0036
G1 X-35.571 Y29.755 E0.3775
G1 X-35.601 Y29.682 E0.0036
G1 X-35.601 Y-29.682 E2.6795
G1 X-35.571 Y-29.755 E0.0036
G1 X-29.657 Y-35.670 E0.3775
G1 X-29.583 Y-35.700 E0.0036
G1 X29.583 Y-35.700 E2.6706
G1 X29.657 Y-35.670 E0.0036
G1 X35.571 Y-29.755 E0.3775
G1 X35.601 Y-29.682 E0.0036
G1 E-1.0000 F1200
; inner perimeter
G1 X24.801 Y-24.900 F4200
G1 E1.0000 F1200
G1 X24.801 Y24.900 E2.2478 F1350
G1 X-24.801 Y24.900 E2.2389
G1 X-24.801 Y-24.900 E2.2478
G1 X24.801 Y-24.900 E2.2389
; outer perimeter
G1 X25.201 Y-25.300 F4200
G1 X25.201 Y25.300 E2.2839 F900
G1 X-25.201 Y25.300 E2.2750
G1 X-25.201 Y-25.300 E2.2839
G1 X25.201 Y-25.300 E2.2750
; inner perimeter
G1 X18.124 Y-8.374 F4200
G1 X12.816 Y-12.447 E0.3020 F1350
G1 X6.634 Y-15.008 E0.3020
G1 X0.000 Y-15.881 E0.3020
G1 X-6.634 Y-15.008 E0.3020
G1 X-12.517 Y-12.571 E0.2874
G1 X-12.851 Y-12.162 E0.0238
G1 X-13.056 Y-11.777 E0.0197
G1 X-13.182 Y-11.360 E0.0197
G1 X-13.224 Y-10.926 E0.0197
G1 X-13.182 Y-10.492 E0.0197
G1 X-13.055 Y-10.075 E0.0197
G1 X-12.849 Y-9.690 E0.0197
G1 X-12.573 Y-9.353 E0.0197
G1 X-12.236 Y-9.076 E0.0197
G1 X-11.852 Y-8.870 E0.0197
G1 X-11.435 Y-8.743 E0.0197
G1 X-10.910 Y-8.690 E0.0238
G1 X-5.537 Y-10.916 E0.2625
G1 X0.000 Y-11.645 E0.2521
G1 X5.537 Y-10.916 E0.2521
G1 X10.697 Y-8.778 E0.2521
G1 X15.128 Y-5.378 E0.2521
G1 X18.528 Y-0.947 E0.2521
G1 X19.068 Y0.354 E0.0636
G1 X19.455 Y0.705 E0.0236
G1 X19.843 Y0.932 E0.0203
G1 X20.268 Y1.076 E0.0203
G1 X20.715 Y1.130 E0.0203
G1 X21.162 Y1.092 E0.0203
G1 X21.593 Y0.963 E0.0203
G1 X21.988 Y0.750 E0.0203
G1 X22.332 Y0.460 E0.0203
G1 X22.609 Y0.106 E0.0203
G1 X22.809 Y-0.296 E0.0203
G1 X22.922 Y-0.731 E0.0203
G1 X22.948 Y-1.253 E0.0236
G1 X22.197 Y-3.066 E0.0886
G1 X18.124 Y-8.374 E0.3020
; outer perimeter
G1 X17.839 Y-8.089 F4200
G1 X12.614 Y-12.098 E0.2973 F900
G1 X6.529 Y-14.618 E0.2973
G1 X0.000 Y-15.478 E0.2973
G1 X-6.529 Y-14.618 E0.2973
G1 X-12.271 Y-12.240 E0.2805
G1 X-12.517 Y-11.939 E0.0175
G1 X-12.685 Y-11.624 E0.0161
G1 X-12.788 Y-11.282 E0.0161
G1 X-12.823 Y-10.926 E0.0161
G1 X-12.787 Y-10.571 E0.0161
G1 X-12.684 Y-10.229 E0.0161
G1 X-12.515 Y-9.914 E0.0161
G1 X-12.289 Y-9.637 E0.0161
G1 X-12.013 Y-9.410 E0.0161
G1 X-11.698 Y-9.242 E0.0161
G1 X-11.356 Y-9.137 E0.0161
G1 X-10.970 Y-9.099 E0.0175
G1 X-5.642 Y-11.306 E0.2603
G1 X0.000 Y-12.048 E0.2568
G1 X5.642 Y-11.306 E0.2568
G1 X10.899 Y-9.128 E0.2569
G1 X15.414 Y-5.664 E0.2568
G1 X18.878 Y-1.149 E0.2568
G1 X19.403 Y0.118 E0.0619
G1 X19.693 Y0.381 E0.0177
G1 X20.009 Y0.566 E0.0166
G1 X20.357 Y0.684 E0.0166
G1 X20.722 Y0.728 E0.0166
G1 X21.087 Y0.697 E0.0166
G1 X21.439 Y0.592 E0.0166
G1 X21.762 Y0.417 E0.0166
G1 X22.042 Y0.181 E0.0166
G1 X22.269 Y-0.108 E0.0166
G1 X22.432 Y-0.437 E0.0166
G1 X22.524 Y-0.792 E0.0166
G1 X22.544 Y-1.183 E0.0177
G1 X21.848 Y-2.864 E0.0821
G1 X17.839 Y-8.089 E0.2973
G1 E-1.0000 F1200
; inner perimeter
G1 X16.323 Y-1.892 F4200
G1 E1.0000 F1200
G1 X2.123 Y-1.892 E0.6409 F1350
G1 X2.123 Y4.308 E0.2798
G1 X16.323 Y4.308 E0.6409
G1 X16.323 Y-1.892 E0.2798
; outer perimeter
G1 X15.923 Y-1.492 F4200
G1 X2.523 Y-1.492 E0.6048 F900
G1 X2.523 Y3.908 E0.2437
G1 X15.923 Y3.908 E0.6048
G1 X15.923 Y-1.492 E0.2437
G1 E-1.0000 F1200
; inner perimeter
; outer perimeter
G1 X15.386 Y12.239 F4200
G1 E1.0000 F1200
G1 X-13.844 Y12.239 E1.3193 F900
G1 X-11.295 Y14.093 E0.1423
G1 X-9.077 Y15.347 E0.1150
G1 X-6.729 Y16.340 E0.1150
G1 X-4.284 Y17.059 E0.1150
G1 X-1.773 Y17.493 E0.1150
G1 X0.771 Y17.639 E0.1150
G1 X3.315 Y17.493 E0.1150
G1 X5.826 Y17.059 E0.1150
G1 X8.271 Y16.340 E0.1150
G1 X10.618 Y15.347 E0.1150
G1 X12.837 Y14.093 E0.1150
G1 X15.386 Y12.239 E0.1423
; inner perimeter
G1 X16.616 Y11.839 F4200
G1 X0.706 Y11.839 E0.7181 F1350
G1 X1.489 Y11.239 E0.0445
G1 X1.823 Y10.803 E0.0248
G1 X2.033 Y10.295 E0.0248
G1 X2.105 Y9.750 E0.0248
G1 X2.033 Y9.205 E0.0248
G1 X1.823 Y8.697 E0.0248
G1 X1.489 Y8.261 E0.0248
G1 X1.053 Y7.927 E0.0248
G1 X0.545 Y7.717 E0.0248
G1 X0.000 Y7.645 E0.0248
G1 X-0.545 Y7.717 E0.0248
G1 X-1.053 Y7.927 E0.0248
G1 X-1.489 Y8.261 E0.0248
G1 X-1.823 Y8.697 E0.0248
G1 X-2.033 Y9.205 E0.0248
G1 X-2.105 Y9.750 E0.0248
G1 X-2.033 Y10.295 E0.0248
G1 X-1.823 Y10.803 E0.0248
G1 X-1.489 Y11.239 E0.0248
G1 X-0.706 Y11.839 E0.0445
G1 X-15.074 Y11.839 E0.6485
G1 X-11.512 Y14.430 E0.1988
G1 X-9.254 Y15.707 E0.1171
G1 X-6.864 Y16.717 E0.1171
G1 X-4.375 Y17.449 E0.1171
G1 X-1.819 Y17.892 E0.1171
G1 X0.771 Y18.040 E0.1171
G1 X3.361 Y17.892 E0.1171
G1 X5.917 Y17.449 E0.1171
G1 X8.406 Y16.717 E0.1171
G1 X10.795 Y15.707 E0.1171
G1 X13.054 Y14.430 E0.1171
G1 X16.616 Y11.839 E0.1988
; outer perimeter
G1 X1.203 Y8.547 F4200
G1 X0.851 Y8.276 E0.0201 F900
G1 X0.440 Y8.106 E0.0201
G1 X0.000 Y8.048 E0.0201
G1 X-0.440 Y8.106 E0.0201
G1 X-0.851 Y8.276 E0.0201
G1 X-1.203 Y8.547 E0.0201
G1 X-1.474 Y8.899 E0.0201
G1 X-1.644 Y9.310 E0.0201
G1 X-1.702 Y9.750 E0.0201
G1 X-1.644 Y10.190 E0.0201
G1 X-1.474 Y10.601 E0.0201
G1 X-1.203 Y10.953 E0.0201
G1 X-0.851 Y11.224 E0.0201
G1 X-0.440 Y11.394 E0.0201
G1 X0.000 Y11.452 E0.0201
G1 X0.440 Y11.394 E0.0201
G1 X0.851 Y11.224 E0.0201
G1 X1.203 Y10.953 E0.0201
G1 X1.474 Y10.601 E0.0201
G1 X1.644 Y10.190 E0.0201
G1 X1.702 Y9.750 E0.0201
G1 X1.644 Y9.310 E0.0201
G1 X1.474 Y8.899 E0.0201
G1 X1.203 Y8.547 E0.0201
; inner perimeter
G1 X-2.677 Y-1.892 F4200
G1 X-16.877 Y-1.892 E0.6409 F1350
G1 X-16.877 Y4.308 E0.2798
G1 X-2.677 Y4.308 E0.6409
G1 X-2.677 Y-1.892 E0.2798
; outer perimeter
G1 X-3.077 Y-1.492 F4200
G1 X-16.477 Y-1.492 E0.6048 F900
G1 X-16.477 Y3.908 E0.2437
G1 X-3.077 Y3.908 E0.6048
G1 X-3.077 Y-1.492 E0.2437
G1 E-1.0000 F1200
; gap fill
G1 X0.116 Y11.763 F4200
G1 E1.0000 F1200
G1 X-0.035 Y11.915 E0.0097 F1800
; solid layer
G1 X-1.902 Y11.519 F4200
G1 X-1.775 Y11.391 E0.0081 F1440
G1 X-2.020 Y11.071 E0.0182
G1 X-2.468 Y11.519 E0.0286
G1 X-3.033 Y11.519 E0.0255
G1 X-2.213 Y10.698 E0.0524
G1 X-2.345 Y10.378 E0.0156
G1 X-2.358 Y10.278 E0.0046
G1 X-3.599 Y11.519 E0.0792
G1 X-4.165 Y11.519 E0.0255
G1 X-2.424 Y9.778 E0.1111
G1 X-2.428 Y9.750 E0.0013
G1 X-2.347 Y9.135 E0.0280
G1 X-4.731 Y11.519 E0.1521
G1 X-5.296 Y11.519 E0.0255
G1 X1.803 Y4.419 E0.4532
G1 X1.803 Y3.854 E0.0255
G1 X-5.862 Y11.519 E0.4893
G1 X-6.428 Y11.519 E0.0255
G1 X1.803 Y3.288 E0.5254
G1 X1.803 Y2.722 E0.0255
G1 X-6.993 Y11.519 E0.5615
G1 X-7.559 Y11.519 E0.0255
G1 X1.803 Y2.157 E0.5976
G1 X1.803 Y1.591 E0.0255
G1 X-8.125 Y11.519 E0.6337
G1 X-8.690 Y11.519 E0.0255
G1 X1.803 Y1.025 E0.6698
G1 X1.803 Y0.460 E0.0255
G1 X-2.357 Y4.620 E0.2655
G1 X-2.357 Y4.628 E0.0004
G1 X-2.365 Y4.628 E0.0004
G1 X-9.256 Y11.519 E0.4399
G1 X-9.822 Y11.519 E0.0255
G1 X-2.931 Y4.628 E0.4399
G1 X-3.496 Y4.628 E0.0255
G1 X-10.387 Y11.519 E0.4399
G1 X-10.953 Y11.519 E0.0255
G1 X-4.062 Y4.628 E0.4399
G1 X-4.628 Y4.628 E0.0255
G1 X-11.519 Y11.519 E0.4399
G1 X-12.084 Y11.519 E0.0255
G1 X-5.193 Y4.628 E0.4399
G1 X-5.759 Y4.628 E0.0255
G1 X-12.650 Y11.519 E0.4399
G1 X-13.216 Y11.519 E0.0255
G1 X-6.325 Y4.628 E0.4399
G1 X-6.890 Y4.628 E0.0255
G1 X-13.781 Y11.519 E0.4399
G1 X-14.347 Y11.519 E0.0255
G1 X-7.456 Y4.628 E0.4399
G1 X-8.022 Y4.628 E0.0255
G1 X-14.913 Y11.519 E0.4399
G1 X-15.479 Y11.519 E0.0255
G1 X-8.588 Y4.628 E0.4399
G1 X-9.153 Y4.628 E0.0255
G1 X-16.044 Y11.519 E0.4399
G1 X-2.357 Y4.054 F4200
G1 X1.803 Y-0.106 E0.2655 F1440
G1 X1.803 Y-0.672 E0.0255
G1 X-2.357 Y3.488 E0.2655
G1 X-2.357 Y2.923 E0.0255
G1 X1.803 Y-1.237 E0.2655
G1 X1.803 Y-1.803 E0.0255
G1 X-2.357 Y2.357 E0.2655
G1 X-0.615 Y7.403 F4200
G1 X2.160 Y4.628 E0.1772 F1440
G1 X2.726 Y4.628 E0.0255
G1 X0.028 Y7.326 E0.1722
G1 X0.528 Y7.392 E0.0228
G1 X3.292 Y4.628 E0.1764
G1 X3.858 Y4.628 E0.0255
G1 X0.948 Y7.537 E0.1857
G1 X1.214 Y7.647 E0.0130
G1 X1.321 Y7.730 E0.0061
G1 X4.423 Y4.628 E0.1980
G1 X4.989 Y4.628 E0.0255
G1 X1.641 Y7.975 E0.2137
G1 X1.717 Y8.033 E0.0043
G1 X1.905 Y8.278 E0.0139
G1 X5.555 Y4.628 E0.2330
G1 X6.120 Y4.628 E0.0255
G1 X2.135 Y8.613 E0.2544
G1 X2.300 Y9.013 E0.0195
G1 X6.686 Y4.628 E0.2799
G1 X7.252 Y4.628 E0.0255
G1 X2.393 Y9.486 E0.3101
G1 X2.428 Y9.750 E0.0120
G1 X2.387 Y10.058 E0.0140
G1 X7.817 Y4.628 E0.3466
G1 X8.383 Y4.628 E0.0255
G1 X2.142 Y10.869 E0.3984
