; G-Code generated by Simplify3D(R) Version 3.0.2
; May 14, 2016 at 11:11:37 PM
; Settings Summary
;   processName,Process1
;   applyToModels,Pen_Mouting_Servo
;   profileName,3d machtudong (modified)
;   profileVersion,2016-03-30 16:48:23
;   baseProfile,FlashForge Right 60-70 (modified)
;   printMaterial,
;   printQuality,
;   printExtruders,
;   extruderName,Right Extruder,Left Extruder
;   extruderToolheadNumber,0,1
;   extruderDiameter,0.4,0.4
;   extruderAutoWidth,0,0
;   extruderWidth,0.4,0.4
;   extrusionMultiplier,0.95,0.95
;   extruderUseRetract,1,1
;   extruderRetractionDistance,1,1
;   extruderExtraRestartDistance,0,0
;   extruderRetractionZLift,0,0
;   extruderRetractionSpeed,1200,1200
;   extruderUseCoasting,0,0
;   extruderCoastingDistance,0.2,0.2
;   extruderUseWipe,0,0
;   extruderWipeDistance,5,5
;   primaryExtruder,0
;   layerHeight,0.2857
;   topSolidLayers,3
;   bottomSolidLayers,3
;   perimeterOutlines,2
;   printPerimetersInsideOut,1
;   startPointOption,2
;   startPointOriginX,0
;   startPointOriginY,0
;   startPointOriginZ,300
;   sequentialIslands,0
;   spiralVaseMode,0
;   firstLayerHeightPercentage,90
;   firstLayerWidthPercentage,100
;   firstLayerUnderspeed,0.5
;   useRaft,0
;   raftExtruder,0
;   raftLayers,3
;   raftOffset,3
;   raftSeparationDistance,0.14
;   raftInfill,85
;   disableRaftBaseLayers,0
;   useSkirt,1
;   skirtExtruder,0
;   skirtLayers,1
;   skirtOutlines,2
;   skirtOffset,10
;   usePrimePillar,0
;   primePillarExtruder,999
;   primePillarWidth,12
;   primePillarLocation,7
;   primePillarSpeedMultiplier,1
;   useOozeShield,0
;   oozeShieldExtruder,999
;   oozeShieldOffset,2
;   oozeShieldOutlines,1
;   oozeShieldSidewallShape,1
;   oozeShieldSidewallAngle,30
;   oozeShieldSpeedMultiplier,1
;   infillExtruder,0
;   internalInfillPattern,Rectilinear
;   externalInfillPattern,Rectilinear
;   infillPercentage,3
;   outlineOverlapPercentage,20
;   infillExtrusionWidthPercentage,100
;   minInfillLength,5
;   infillLayerInterval,1
;   infillAngles,45,-45
;   overlapInfillAngles,0
;   generateSupport,0
;   supportExtruder,0
;   supportInfillPercentage,30
;   supportExtraInflation,0
;   denseSupportLayers,0
;   denseSupportInfillPercentage,70
;   supportLayerInterval,1
;   supportHorizontalPartOffset,0.3
;   supportUpperSeparationLayers,1
;   supportLowerSeparationLayers,1
;   supportType,0
;   supportGridSpacing,4
;   maxOverhangAngle,45
;   supportAngles,0
;   temperatureName,Right Extruder,Heated Build Platform
;   temperatureNumber,0,0
;   temperatureSetpointCount,1,1
;   temperatureSetpointLayers,1,1
;   temperatureSetpointTemperatures,223,110
;   temperatureStabilizeAtStartup,0,0
;   temperatureHeatedBed,0,1
;   temperatureRelayBetweenLayers,0,0
;   temperatureRelayBetweenLoops,0,0
;   fanLayers,1
;   fanSpeeds,0
;   blipFanToFullPower,0
;   adjustSpeedForCooling,1
;   minSpeedLayerTime,15
;   minCoolingSpeedSlowdown,20
;   increaseFanForCooling,0
;   minFanLayerTime,45
;   maxCoolingFanSpeed,100
;   increaseFanForBridging,1
;   bridgingFanSpeed,100
;   use5D,1
;   relativeEdistances,1
;   allowEaxisZeroing,0
;   independentExtruderAxes,0
;   includeM10123,0
;   stickySupport,1
;   applyToolheadOffsets,0
;   gcodeXoffset,0
;   gcodeYoffset,0
;   gcodeZoffset,0
;   overrideMachineDefinition,1
;   machineTypeOverride,0
;   strokeXoverride,220
;   strokeYoverride,140
;   strokeZoverride,150
;   originOffsetXoverride,110
;   originOffsetYoverride,70
;   originOffsetZoverride,0
;   homeXdirOverride,1
;   homeYdirOverride,1
;   homeZdirOverride,-1
;   flipXoverride,1
;   flipYoverride,-1
;   flipZoverride,1
;   toolheadOffsets,0,0|0,0|0,0|0,0|0,0|0,0
;   overrideFirmwareConfiguration,1
;   firmwareTypeOverride,MakerBot/Sailfish Firmware
;   GPXconfigOverride,r1d
;   baudRateOverride,115200
;   overridePrinterModels,0
;   printerModelsOverride
;   startingGcode,; **** Replicator 1 dual right extruder start.gcode ****,M73 P0 ; enable build progress,G162 X Y F3000 ; home XY maximum,G161 Z F1200 ; home Z minimum,G92 Z-5 ; set Z to -5,G1 Z0 ; move Z to 0,G161 Z F100 ; home Z slowly,M132 X Y Z A B ; recall home offsets,M135 T0 ; load right extruder offsets,G1 X125 Y-70 Z30 F9000 ; move to wait position off table,G130 X20 Y20 Z20 A20 B20 ; lower stepper Vrefs while heating,M126 S[fan_speed_pwm],M140 S[bed0_temperature] T0,M134 T0 ; stabilize bed temperature,M104 S[extruder0_temperature] T0,M133 T0 ; stabilize extruder temperature,G130 X127 Y127 Z40 A127 B127 ; default stepper Vrefs,G92 A0 B0 ; zero extruders,G1 Z0.4 ; position nozzle,G1 E25 F300 ; purge nozzle,G1 X115 Y-70 Z0.15 F1200 ; slow wipe,G1 X110 Y-70 Z0.5 F1200 ; lift,G92 A0 B0 ; zero extruders,M73 P1 ;@body (notify GPX body has started),; **** end of start.gcode ****
;   layerChangeGcode,
;   retractionGcode,
;   toolChangeGcode,
;   endingGcode,(******* End.gcode*******),M109 S0 T0 ( Cool down the build platform ),M104 S0 T0 ( Cool down the Right Extruder ),M104 S0 T1 ( Cool down the Left Extruder ),M73 P100 ( End  build progress ),G0 Z150 ( Send Z axis to bottom of machine ),M18 ( Disable steppers ),G162 X Y F2500 ( Home XY endstops ),M18 ( Disable stepper motors ),M70 P5 ( We <3 Making Things!),M72 P1  ( Play Ta-Da song ),(*********end End.gcode*******)
;   createX3G,1
;   celebration,1
;   celebrationSong,Funky Town
;   createMB5G,0
;   postProcessing,
;   defaultSpeed,3600
;   outlineUnderspeed,0.5
;   solidInfillUnderspeed,0.8
;   supportUnderspeed,0.8
;   rapidXYspeed,4200
;   rapidZspeed,900
;   minBridgingArea,50
;   bridgingExtraInflation,0
;   bridgingExtrusionMultiplier,1
;   bridgingSpeedMultiplier,0.8
;   filamentDiameter,1.75
;   filamentPricePerKg,46
;   filamentDensity,1.25
;   useMinPrintHeight,0
;   minPrintHeight,0
;   useMaxPrintHeight,0
;   maxPrintHeight,0
;   useDiaphragm,0
;   diaphragmLayerInterval,20
;   robustSlicing,1
;   mergeAllIntoSolid,0
;   onlyRetractWhenCrossingOutline,1
;   retractBetweenLayers,1
;   useRetractionMinTravel,0
;   retractionMinTravel,3
;   retractWhileWiping,0
;   onlyWipeOutlines,1
;   avoidCrossingOutline,0
;   maxMovementDetourFactor,3
;   toolChangeRetractionDistance,12
;   toolChangeExtraRestartDistance,-0.5
;   toolChangeRetractionSpeed,600
;   allowThinWallGapFill,1
;   thinWallAllowedOverlapPercentage,10
;   horizontalSizeCompensation,0
G90
M83
; **** Replicator 1 dual right extruder start.gcode ****
M73 P0 ; enable build progress
G162 X Y F3000 ; home XY maximum
G161 Z F1200 ; home Z minimum
G92 Z-5 ; set Z to -5
G1 Z0 ; move Z to 0
G161 Z F100 ; home Z slowly
M132 X Y Z A B ; recall home offsets
M135 T0 ; load right extruder offsets
G1 X125 Y-70 Z30 F9000 ; move to wait position off table
G130 X20 Y20 Z20 A20 B20 ; lower stepper Vrefs while heating
M127
M140 S110 T0
M134 T0 ; stabilize bed temperature
M104 S223 T0
M133 T0 ; stabilize extruder temperature
G130 X127 Y127 Z40 A127 B127 ; default stepper Vrefs
G92 A0 B0 ; zero extruders
G1 Z0.4 ; position nozzle
G1 E25 F300 ; purge nozzle
G1 X115 Y-70 Z0.15 F1200 ; slow wipe
G1 X110 Y-70 Z0.5 F1200 ; lift
G92 A0 B0 ; zero extruders
M73 P1 ;@body (notify GPX body has started)
; **** end of start.gcode ****
G1 E-1.0000 F1200
G1 Z0.257 F900
; layer 1, Z = 0.25713
M135 T0
; tool H0.286 W0.400
; skirt
G1 X3.529 Y30.300 F4200
G1 E1.0000 F360
G1 X-3.529 Y30.300 E0.3185 F1800
G1 X-4.567 Y31.117 E0.0596
G1 X-4.836 Y31.176 E0.0125
G1 X-38.383 Y23.071 E1.5578
G1 X-40.230 Y23.028 E0.0834
G1 X-40.272 Y23.024 E0.0019
G1 X-41.704 Y22.787 E0.0655
G1 X-41.745 Y22.777 E0.0019
G1 X-45.285 Y21.665 E0.1675
G1 X-45.324 Y21.649 E0.0019
G1 X-46.634 Y21.024 E0.0655
G1 X-46.671 Y21.003 E0.0019
G1 X-49.763 Y18.951 E0.1675
G1 X-49.796 Y18.925 E0.0019
G1 X-50.881 Y17.961 E0.0655
G1 X-50.910 Y17.931 E0.0019
G1 X-53.311 Y15.101 E0.1675
G1 X-53.336 Y15.067 E0.0019
G1 X-54.110 Y13.839 E0.0655
G1 X-54.130 Y13.802 E0.0019
G1 X-55.650 Y10.417 E0.1675
G1 X-55.665 Y10.378 E0.0019
G1 X-56.068 Y8.983 E0.0655
G1 X-56.077 Y8.942 E0.0019
G1 X-56.597 Y5.268 E0.1675
G1 X-56.600 Y5.226 E0.0019
G1 X-56.600 Y3.774 E0.0655
G1 X-56.597 Y3.732 E0.0019
G1 X-56.077 Y0.058 E0.1675
G1 X-56.068 Y0.017 E0.0019
G1 X-55.665 Y-1.378 E0.0655
G1 X-55.650 Y-1.417 E0.0019
G1 X-54.130 Y-4.802 E0.1675
G1 X-54.110 Y-4.840 E0.0019
G1 X-53.336 Y-6.067 E0.0655
G1 X-53.311 Y-6.101 E0.0019
G1 X-50.910 Y-8.931 E0.1675
G1 X-50.881 Y-8.961 E0.0019
G1 X-49.796 Y-9.926 E0.0655
G1 X-49.763 Y-9.951 E0.0019
G1 X-46.671 Y-12.003 E0.1675
G1 X-46.634 Y-12.024 E0.0019
G1 X-45.324 Y-12.649 E0.0655
G1 X-45.285 Y-12.665 E0.0019
G1 X-41.745 Y-13.777 E0.1675
G1 X-41.704 Y-13.787 E0.0019
G1 X-40.272 Y-14.024 E0.0655
G1 X-40.230 Y-14.028 E0.0019
G1 X-37.223 Y-14.098 E0.1358
G1 X-37.219 Y-14.098 E0.0002
G1 X-37.101 Y-14.099 E0.0054
G1 X-37.097 Y-14.099 E0.0002
G1 X-31.104 Y-14.100 E0.2705
G1 X-31.052 Y-14.096 E0.0024
G1 X-29.282 Y-13.785 E0.0811
G1 X-29.232 Y-13.772 E0.0024
G1 X-28.119 Y-13.368 E0.0534
G1 X-26.045 Y-25.220 E0.5431
G1 X-25.939 Y-25.404 E0.0096
G1 X-20.198 Y-30.227 E0.3385
G1 X-19.999 Y-30.300 E0.0096
G1 X19.945 Y-30.300 E1.8029
G1 X20.141 Y-30.229 E0.0094
G1 X25.843 Y-25.529 E0.3335
G1 X25.950 Y-25.350 E0.0094
G1 X28.269 Y-13.423 E0.5484
G1 X29.232 Y-13.771 E0.0462
G1 X29.282 Y-13.785 E0.0024
G1 X31.050 Y-14.095 E0.0810
G1 X31.102 Y-14.100 E0.0024
G1 X36.928 Y-14.100 E0.2629
G1 X36.931 Y-14.100 E0.0001
G1 X37.044 Y-14.099 E0.0051
G1 X37.047 Y-14.099 E0.0001
G1 X40.220 Y-14.029 E0.1432
G1 X40.262 Y-14.025 E0.0019
G1 X41.701 Y-13.788 E0.0658
G1 X41.742 Y-13.778 E0.0019
G1 X45.285 Y-12.665 E0.1676
G1 X45.324 Y-12.649 E0.0019
G1 X46.634 Y-12.024 E0.0655
G1 X46.671 Y-12.003 E0.0019
G1 X49.763 Y-9.951 E0.1675
G1 X49.796 Y-9.926 E0.0019
G1 X50.881 Y-8.961 E0.0655
G1 X50.910 Y-8.931 E0.0019
G1 X53.311 Y-6.101 E0.1675
G1 X53.336 Y-6.067 E0.0019
G1 X54.110 Y-4.839 E0.0655
G1 X54.130 Y-4.802 E0.0019
G1 X55.650 Y-1.417 E0.1675
G1 X55.665 Y-1.378 E0.0019
G1 X56.068 Y0.017 E0.0655
G1 X56.077 Y0.058 E0.0019
G1 X56.597 Y3.732 E0.1675
G1 X56.600 Y3.774 E0.0019
G1 X56.600 Y5.226 E0.0655
G1 X56.597 Y5.268 E0.0019
G1 X56.077 Y8.942 E0.1675
G1 X56.068 Y8.983 E0.0019
G1 X55.665 Y10.378 E0.0655
G1 X55.650 Y10.417 E0.0019
G1 X54.130 Y13.802 E0.1675
G1 X54.110 Y13.839 E0.0019
G1 X53.336 Y15.067 E0.0655
G1 X53.311 Y15.101 E0.0019
G1 X50.910 Y17.931 E0.1675
G1 X50.881 Y17.961 E0.0019
G1 X49.796 Y18.925 E0.0655
G1 X49.763 Y18.951 E0.0019
G1 X46.671 Y21.003 E0.1675
G1 X46.634 Y21.024 E0.0019
G1 X45.324 Y21.649 E0.0655
G1 X45.285 Y21.665 E0.0019
G1 X41.745 Y22.777 E0.1675
G1 X41.704 Y22.787 E0.0019
G1 X40.272 Y23.024 E0.0655
G1 X40.230 Y23.028 E0.0019
G1 X38.383 Y23.071 E0.0834
G1 X4.836 Y31.176 E1.5578
G1 X4.567 Y31.117 E0.0125
G1 X3.529 Y30.300 E0.0596
G1 X3.667 Y29.900 F4200
G1 X-3.667 Y29.900 E0.3310 F1800
G1 X-4.742 Y30.746 E0.0617
G1 X-4.832 Y30.766 E0.0042
G1 X-38.331 Y22.672 E1.5556
G1 X-40.206 Y22.628 E0.0847
G1 X-40.221 Y22.627 E0.0006
G1 X-41.625 Y22.395 E0.0642
G1 X-41.638 Y22.392 E0.0006
G1 X-45.152 Y21.287 E0.1662
G1 X-45.165 Y21.282 E0.0006
G1 X-46.449 Y20.669 E0.0642
G1 X-46.461 Y20.662 E0.0006
G1 X-49.530 Y18.626 E0.1662
G1 X-49.541 Y18.617 E0.0006
G1 X-50.605 Y17.672 E0.0642
G1 X-50.615 Y17.661 E0.0006
G1 X-52.997 Y14.853 E0.1662
G1 X-53.005 Y14.842 E0.0006
G1 X-53.764 Y13.638 E0.0642
G1 X-53.771 Y13.626 E0.0006
G1 X-55.280 Y10.266 E0.1662
G1 X-55.284 Y10.253 E0.0006
G1 X-55.680 Y8.886 E0.0642
G1 X-55.683 Y8.872 E0.0006
G1 X-56.199 Y5.226 E0.1662
G1 X-56.200 Y5.212 E0.0006
G1 X-56.200 Y3.788 E0.0642
G1 X-56.199 Y3.774 E0.0006
G1 X-55.683 Y0.128 E0.1662
G1 X-55.680 Y0.114 E0.0006
G1 X-55.284 Y-1.253 E0.0642
G1 X-55.280 Y-1.266 E0.0006
G1 X-53.771 Y-4.626 E0.1662
G1 X-53.764 Y-4.638 E0.0006
G1 X-53.005 Y-5.842 E0.0642
G1 X-52.997 Y-5.853 E0.0006
G1 X-50.614 Y-8.662 E0.1662
G1 X-50.605 Y-8.672 E0.0006
G1 X-49.541 Y-9.617 E0.0642
G1 X-49.530 Y-9.626 E0.0006
G1 X-46.461 Y-11.662 E0.1662
G1 X-46.449 Y-11.669 E0.0006
G1 X-45.165 Y-12.282 E0.0642
G1 X-45.152 Y-12.287 E0.0006
G1 X-41.638 Y-13.392 E0.1662
G1 X-41.625 Y-13.395 E0.0006
G1 X-40.221 Y-13.627 E0.0642
G1 X-40.207 Y-13.628 E0.0006
G1 X-37.215 Y-13.698 E0.1351
G1 X-37.213 Y-13.698 E0.0001
G1 X-37.097 Y-13.699 E0.0052
G1 X-37.096 Y-13.699 E0.0001
G1 X-31.121 Y-13.700 E0.2697
G1 X-31.104 Y-13.699 E0.0008
G1 X-29.369 Y-13.394 E0.0795
G1 X-29.352 Y-13.390 E0.0008
G1 X-27.807 Y-12.830 E0.0742
G1 X-25.663 Y-25.082 E0.5614
G1 X-25.628 Y-25.143 E0.0032
G1 X-19.995 Y-29.876 E0.3321
G1 X-19.929 Y-29.900 E0.0032
G1 X19.875 Y-29.900 E1.7966
G1 X19.941 Y-29.876 E0.0031
G1 X25.535 Y-25.265 E0.3272
G1 X25.571 Y-25.205 E0.0031
G1 X27.966 Y-12.887 E0.5664
G1 X29.351 Y-13.389 E0.0665
G1 X29.368 Y-13.394 E0.0008
G1 X31.102 Y-13.698 E0.0795
G1 X31.120 Y-13.700 E0.0008
G1 X36.927 Y-13.700 E0.2621
G1 X36.928 Y-13.700 E0.0000
G1 X37.039 Y-13.699 E0.0050
G1 X37.040 Y-13.699 E0.0000
G1 X40.197 Y-13.630 E0.1425
G1 X40.211 Y-13.628 E0.0006
G1 X41.622 Y-13.396 E0.0645
G1 X41.635 Y-13.393 E0.0006
G1 X45.152 Y-12.287 E0.1664
G1 X45.165 Y-12.282 E0.0006
G1 X46.449 Y-11.669 E0.0642
G1 X46.461 Y-11.662 E0.0006
G1 X49.530 Y-9.626 E0.1662
G1 X49.541 Y-9.617 E0.0006
G1 X50.605 Y-8.672 E0.0642
G1 X50.615 Y-8.662 E0.0006
G1 X52.997 Y-5.853 E0.1662
G1 X53.005 Y-5.842 E0.0006
G1 X53.764 Y-4.638 E0.0642
G1 X53.771 Y-4.626 E0.0006
G1 X55.280 Y-1.266 E0.1662
G1 X55.284 Y-1.253 E0.0006
G1 X55.680 Y0.114 E0.0642
G1 X55.683 Y0.128 E0.0006
G1 X56.199 Y3.774 E0.1662
G1 X56.200 Y3.788 E0.0006
G1 X56.200 Y5.212 E0.0642
G1 X56.199 Y5.226 E0.0006
G1 X55.683 Y8.872 E0.1662
G1 X55.680 Y8.886 E0.0006
G1 X55.284 Y10.253 E0.0642
G1 X55.280 Y10.266 E0.0006
G1 X53.771 Y13.626 E0.1662
G1 X53.764 Y13.638 E0.0006
G1 X53.005 Y14.842 E0.0642
G1 X52.997 Y14.853 E0.0006
G1 X50.615 Y17.661 E0.1662
G1 X50.605 Y17.672 E0.0006
G1 X49.541 Y18.617 E0.0642
G1 X49.530 Y18.626 E0.0006
G1 X46.461 Y20.662 E0.1662
G1 X46.449 Y20.669 E0.0006
G1 X45.165 Y21.282 E0.0642
G1 X45.152 Y21.287 E0.0006
G1 X41.638 Y22.392 E0.1662
G1 X41.625 Y22.395 E0.0006
G1 X40.221 Y22.627 E0.0642
G1 X40.206 Y22.628 E0.0006
G1 X38.331 Y22.672 E0.0847
G1 X4.832 Y30.766 E1.5556
G1 X4.742 Y30.746 E0.0042
G1 X3.667 Y29.900 E0.0617
G1 E-1.0000 F1200
; inner perimeter
G1 X3.400 Y19.100 F4200
G1 E1.0000 F1200
G1 X-3.400 Y19.100 E0.3069 F1350
G1 X-3.400 Y13.100 E0.2708
G1 X-7.800 Y13.100 E0.1986
G1 X-7.800 Y18.938 E0.2635
G1 X-36.922 Y11.902 E1.3523
G1 X-39.160 Y11.850 E0.1010
G1 X-41.153 Y11.223 E0.0943
G1 X-42.894 Y10.068 E0.0943
G1 X-44.245 Y8.475 E0.0943
G1 X-45.101 Y6.569 E0.0943
G1 X-45.394 Y4.500 E0.0943
G1 X-45.101 Y2.431 E0.0943
G1 X-44.245 Y0.525 E0.0943
G1 X-42.894 Y-1.068 E0.0943
G1 X-41.153 Y-2.223 E0.0943
G1 X-39.160 Y-2.850 E0.0943
G1 X-37.029 Y-2.899 E0.0962
G1 X-32.105 Y-2.900 E0.2222
G1 X-15.400 Y3.156 E0.8020
G1 X-15.400 Y-0.300 E0.1560
G1 X-19.036 Y-0.300 E0.1641
G1 X-15.746 Y-19.100 E0.8615
G1 X15.755 Y-19.100 E1.4219
G1 X19.022 Y-2.300 E0.7725
G1 X15.400 Y-2.300 E0.1635
G1 X15.400 Y3.156 E0.2463
G1 X32.105 Y-2.900 E0.8020
G1 X36.865 Y-2.900 E0.2148
G1 X39.160 Y-2.850 E0.1036
G1 X41.153 Y-2.223 E0.0943
G1 X42.894 Y-1.068 E0.0943
G1 X44.245 Y0.525 E0.0943
G1 X45.101 Y2.431 E0.0943
G1 X45.394 Y4.500 E0.0943
G1 X45.101 Y6.569 E0.0943
G1 X44.245 Y8.475 E0.0943
G1 X42.894 Y10.068 E0.0943
G1 X41.153 Y11.223 E0.0943
G1 X39.160 Y11.850 E0.0943
G1 X36.922 Y11.902 E0.1010
G1 X7.800 Y18.938 E1.3523
G1 X7.800 Y12.100 E0.3086
G1 X3.400 Y12.100 E0.1986
G1 X3.400 Y19.100 E0.3160
; outer perimeter
G1 X3.800 Y19.500 F4200
G1 X-3.800 Y19.500 E0.3430 F900
G1 X-3.800 Y13.500 E0.2708
G1 X-7.400 Y13.500 E0.1625
G1 X-7.400 Y19.446 E0.2684
G1 X-36.974 Y12.301 E1.3733
G1 X-39.226 Y12.248 E0.1017
G1 X-41.327 Y11.588 E0.0994
G1 X-43.162 Y10.370 E0.0994
G1 X-44.587 Y8.690 E0.0994
G1 X-45.489 Y6.681 E0.0994
G1 X-45.798 Y4.500 E0.0994
G1 X-45.489 Y2.319 E0.0994
G1 X-44.587 Y0.310 E0.0994
G1 X-43.162 Y-1.370 E0.0994
G1 X-41.327 Y-2.588 E0.0994
G1 X-39.226 Y-3.248 E0.0994
G1 X-37.034 Y-3.299 E0.0990
G1 X-32.035 Y-3.300 E0.2256
G1 X-15.800 Y2.585 E0.7795
G1 X-15.800 Y0.100 E0.1122
G1 X-19.512 Y0.100 E0.1675
G1 X-16.082 Y-19.500 E0.8981
