; G-Code generated by Simplify3D(R) Version 3.0.2
; May 14, 2016 at 10:41:11 PM
; Settings Summary
;   processName,Process1
;   applyToModels,Pen_Linear
;   profileName,3d machtudong (modified)
;   profileVersion,2016-03-30 16:48:23
;   baseProfile,FlashForge Right 60-70 (modified)
;   printMaterial,
;   printQuality,
;   printExtruders,
;   extruderName,Right Extruder,Left Extruder
;   extruderToolheadNumber,0,1
;   extruderDiameter,0.4,0.4
;   extruderAutoWidth,0,0
;   extruderWidth,0.4,0.4
;   extrusionMultiplier,0.95,0.95
;   extruderUseRetract,1,1
;   extruderRetractionDistance,1,1
;   extruderExtraRestartDistance,0,0
;   extruderRetractionZLift,0,0
;   extruderRetractionSpeed,1200,1200
;   extruderUseCoasting,0,0
;   extruderCoastingDistance,0.2,0.2
;   extruderUseWipe,0,0
;   extruderWipeDistance,5,5
;   primaryExtruder,0
;   layerHeight,0.2857
;   topSolidLayers,3
;   bottomSolidLayers,3
;   perimeterOutlines,2
;   printPerimetersInsideOut,1
;   startPointOption,2
;   startPointOriginX,0
;   startPointOriginY,0
;   startPointOriginZ,300
;   sequentialIslands,0
;   spiralVaseMode,0
;   firstLayerHeightPercentage,90
;   firstLayerWidthPercentage,100
;   firstLayerUnderspeed,0.5
;   useRaft,0
;   raftExtruder,0
;   raftLayers,3
;   raftOffset,3
;   raftSeparationDistance,0.14
;   raftInfill,85
;   disableRaftBaseLayers,0
;   useSkirt,1
;   skirtExtruder,0
;   skirtLayers,1
;   skirtOutlines,2
;   skirtOffset,10
;   usePrimePillar,0
;   primePillarExtruder,999
;   primePillarWidth,12
;   primePillarLocation,7
;   primePillarSpeedMultiplier,1
;   useOozeShield,0
;   oozeShieldExtruder,999
;   oozeShieldOffset,2
;   oozeShieldOutlines,1
;   oozeShieldSidewallShape,1
;   oozeShieldSidewallAngle,30
;   oozeShieldSpeedMultiplier,1
;   infillExtruder,0
;   internalInfillPattern,Rectilinear
;   externalInfillPattern,Rectilinear
;   infillPercentage,3
;   outlineOverlapPercentage,20
;   infillExtrusionWidthPercentage,100
;   minInfillLength,5
;   infillLayerInterval,1
;   infillAngles,45,-45
;   overlapInfillAngles,0
;   generateSupport,0
;   supportExtruder,0
;   supportInfillPercentage,30
;   supportExtraInflation,0
;   denseSupportLayers,0
;   denseSupportInfillPercentage,70
;   supportLayerInterval,1
;   supportHorizontalPartOffset,0.3
;   supportUpperSeparationLayers,1
;   supportLowerSeparationLayers,1
;   supportType,0
;   supportGridSpacing,4
;   maxOverhangAngle,45
;   supportAngles,0
;   temperatureName,Right Extruder,Heated Build Platform
;   temperatureNumber,0,0
;   temperatureSetpointCount,1,1
;   temperatureSetpointLayers,1,1
;   temperatureSetpointTemperatures,223,110
;   temperatureStabilizeAtStartup,0,0
;   temperatureHeatedBed,0,1
;   temperatureRelayBetweenLayers,0,0
;   temperatureRelayBetweenLoops,0,0
;   fanLayers,1
;   fanSpeeds,0
;   blipFanToFullPower,0
;   adjustSpeedForCooling,1
;   minSpeedLayerTime,15
;   minCoolingSpeedSlowdown,20
;   increaseFanForCooling,0
;   minFanLayerTime,45
;   maxCoolingFanSpeed,100
;   increaseFanForBridging,1
;   bridgingFanSpeed,100
;   use5D,1
;   relativeEdistances,1
;   allowEaxisZeroing,0
;   independentExtruderAxes,0
;   includeM10123,0
;   stickySupport,1
;   applyToolheadOffsets,0
;   gcodeXoffset,0
;   gcodeYoffset,0
;   gcodeZoffset,0
;   overrideMachineDefinition,1
;   machineTypeOverride,0
;   strokeXoverride,220
;   strokeYoverride,140
;   strokeZoverride,150
;   originOffsetXoverride,110
;   originOffsetYoverride,70
;   originOffsetZoverride,0
;   homeXdirOverride,1
;   homeYdirOverride,1
;   homeZdirOverride,-1
;   flipXoverride,1
;   flipYoverride,-1
;   flipZoverride,1
;   toolheadOffsets,0,0|0,0|0,0|0,0|0,0|0,0
;   overrideFirmwareConfiguration,1
;   firmwareTypeOverride,MakerBot/Sailfish Firmware
;   GPXconfigOverride,r1d
;   baudRateOverride,115200
;   overridePrinterModels,0
;   printerModelsOverride
;   startingGcode,; **** Replicator 1 dual right extruder start.gcode ****,M73 P0 ; enable build progress,G162 X Y F3000 ; home XY maximum,G161 Z F1200 ; home Z minimum,G92 Z-5 ; set Z to -5,G1 Z0 ; move Z to 0,G161 Z F100 ; home Z slowly,M132 X Y Z A B ; recall home offsets,M135 T0 ; load right extruder offsets,G1 X125 Y-70 Z30 F9000 ; move to wait position off table,G130 X20 Y20 Z20 A20 B20 ; lower stepper Vrefs while heating,M126 S[fan_speed_pwm],M140 S[bed0_temperature] T0,M134 T0 ; stabilize bed temperature,M104 S[extruder0_temperature] T0,M133 T0 ; stabilize extruder temperature,G130 X127 Y127 Z40 A127 B127 ; default stepper Vrefs,G92 A0 B0 ; zero extruders,G1 Z0.4 ; position nozzle,G1 E25 F300 ; purge nozzle,G1 X115 Y-70 Z0.15 F1200 ; slow wipe,G1 X110 Y-70 Z0.5 F1200 ; lift,G92 A0 B0 ; zero extruders,M73 P1 ;@body (notify GPX body has started),; **** end of start.gcode ****
;   layerChangeGcode,
;   retractionGcode,
;   toolChangeGcode,
;   endingGcode,(******* End.gcode*******),M109 S0 T0 ( Cool down the build platform ),M104 S0 T0 ( Cool down the Right Extruder ),M104 S0 T1 ( Cool down the Left Extruder ),M73 P100 ( End  build progress ),G0 Z150 ( Send Z axis to bottom of machine ),M18 ( Disable steppers ),G162 X Y F2500 ( Home XY endstops ),M18 ( Disable stepper motors ),M70 P5 ( We <3 Making Things!),M72 P1  ( Play Ta-Da song ),(*********end End.gcode*******)
;   createX3G,1
;   celebration,1
;   celebrationSong,Funky Town
;   createMB5G,0
;   postProcessing,
;   defaultSpeed,3600
;   outlineUnderspeed,0.5
;   solidInfillUnderspeed,0.8
;   supportUnderspeed,0.8
;   rapidXYspeed,4200
;   rapidZspeed,900
;   minBridgingArea,50
;   bridgingExtraInflation,0
;   bridgingExtrusionMultiplier,1
;   bridgingSpeedMultiplier,0.8
;   filamentDiameter,1.75
;   filamentPricePerKg,46
;   filamentDensity,1.25
;   useMinPrintHeight,0
;   minPrintHeight,0
;   useMaxPrintHeight,0
;   maxPrintHeight,0
;   useDiaphragm,0
;   diaphragmLayerInterval,20
;   robustSlicing,1
;   mergeAllIntoSolid,0
;   onlyRetractWhenCrossingOutline,1
;   retractBetweenLayers,1
;   useRetractionMinTravel,0
;   retractionMinTravel,3
;   retractWhileWiping,0
;   onlyWipeOutlines,1
;   avoidCrossingOutline,0
;   maxMovementDetourFactor,3
;   toolChangeRetractionDistance,12
;   toolChangeExtraRestartDistance,-0.5
;   toolChangeRetractionSpeed,600
;   allowThinWallGapFill,1
;   thinWallAllowedOverlapPercentage,10
;   horizontalSizeCompensation,0
G90
M83
; **** Replicator 1 dual right extruder start.gcode ****
M73 P0 ; enable build progress
G162 X Y F3000 ; home XY maximum
G161 Z F1200 ; home Z minimum
G92 Z-5 ; set Z to -5
G1 Z0 ; move Z to 0
G161 Z F100 ; home Z slowly
M132 X Y Z A B ; recall home offsets
M135 T0 ; load right extruder offsets
G1 X125 Y-70 Z30 F9000 ; move to wait position off table
G130 X20 Y20 Z20 A20 B20 ; lower stepper Vrefs while heating
M127
M140 S110 T0
M134 T0 ; stabilize bed temperature
M104 S223 T0
M133 T0 ; stabilize extruder temperature
G130 X127 Y127 Z40 A127 B127 ; default stepper Vrefs
G92 A0 B0 ; zero extruders
G1 Z0.4 ; position nozzle
G1 E25 F300 ; purge nozzle
G1 X115 Y-70 Z0.15 F1200 ; slow wipe
G1 X110 Y-70 Z0.5 F1200 ; lift
G92 A0 B0 ; zero extruders
M73 P1 ;@body (notify GPX body has started)
; **** end of start.gcode ****
G1 E-1.0000 F1200
G1 Z0.257 F900
; layer 1, Z = 0.25713
M135 T0
; tool H0.286 W0.400
; skirt
G1 X4.415 Y-12.351 F4200
G1 E1.0000 F360
G1 X4.452 Y-12.339 E0.0018 F720
G1 X5.695 Y-11.817 E0.0609
G1 X5.730 Y-11.799 E0.0018
G1 X7.458 Y-10.790 E0.0903
G1 X7.491 Y-10.768 E0.0018
G1 X8.558 Y-9.941 E0.0609
G1 X8.587 Y-9.915 E0.0018
G1 X9.997 Y-8.492 E0.0904
G1 X10.023 Y-8.462 E0.0018
G1 X10.839 Y-7.387 E0.0609
G1 X10.861 Y-7.355 E0.0018
G1 X11.854 Y-5.615 E0.0904
G1 X11.871 Y-5.580 E0.0018
G1 X12.382 Y-4.330 E0.0609
G1 X12.394 Y-4.293 E0.0018
G1 X12.904 Y-2.356 E0.0904
G1 X12.911 Y-2.318 E0.0018
G1 X13.081 Y-0.978 E0.0609
G1 X13.083 Y-0.939 E0.0018
G1 X13.074 Y1.064 E0.0904
G1 X13.071 Y1.103 E0.0018
G1 X12.888 Y2.441 E0.0609
G1 X12.880 Y2.479 E0.0018
G1 X12.353 Y4.412 E0.0904
G1 X12.340 Y4.449 E0.0018
G1 X11.816 Y5.696 E0.0610
G1 X11.799 Y5.731 E0.0018
G1 X10.788 Y7.462 E0.0905
G1 X10.766 Y7.494 E0.0018
G1 X9.938 Y8.561 E0.0609
G1 X9.912 Y8.591 E0.0018
G1 X8.489 Y10.000 E0.0904
G1 X8.459 Y10.025 E0.0018
G1 X7.384 Y10.842 E0.0609
G1 X7.351 Y10.863 E0.0018
G1 X5.611 Y11.856 E0.0904
G1 X5.576 Y11.873 E0.0018
G1 X4.326 Y12.383 E0.0609
G1 X4.289 Y12.396 E0.0018
G1 X2.352 Y12.904 E0.0904
G1 X2.313 Y12.912 E0.0018
G1 X0.974 Y13.081 E0.0609
G1 X0.935 Y13.083 E0.0018
G1 X-1.068 Y13.073 E0.0904
G1 X-1.107 Y13.070 E0.0018
G1 X-2.445 Y12.887 E0.0609
G1 X-2.484 Y12.880 E0.0018
G1 X-4.415 Y12.351 E0.0904
G1 X-4.452 Y12.339 E0.0018
G1 X-5.695 Y11.817 E0.0609
G1 X-5.730 Y11.799 E0.0018
G1 X-7.458 Y10.790 E0.0903
G1 X-7.491 Y10.768 E0.0018
G1 X-8.558 Y9.941 E0.0609
G1 X-8.587 Y9.915 E0.0018
G1 X-9.997 Y8.492 E0.0904
G1 X-10.023 Y8.462 E0.0018
G1 X-10.839 Y7.387 E0.0609
G1 X-10.861 Y7.355 E0.0018
G1 X-11.854 Y5.615 E0.0904
G1 X-11.871 Y5.580 E0.0018
G1 X-12.382 Y4.330 E0.0609
G1 X-12.394 Y4.293 E0.0018
G1 X-12.904 Y2.356 E0.0904
G1 X-12.911 Y2.318 E0.0018
G1 X-13.081 Y0.978 E0.0609
G1 X-13.083 Y0.939 E0.0018
G1 X-13.074 Y-1.064 E0.0904
G1 X-13.071 Y-1.103 E0.0018
G1 X-12.888 Y-2.441 E0.0609
G1 X-12.880 Y-2.479 E0.0018
G1 X-12.353 Y-4.410 E0.0904
G1 X-12.340 Y-4.448 E0.0018
G1 X-11.818 Y-5.693 E0.0609
G1 X-11.800 Y-5.728 E0.0018
G1 X-10.789 Y-7.460 E0.0905
G1 X-10.767 Y-7.492 E0.0018
G1 X-9.939 Y-8.561 E0.0610
G1 X-9.913 Y-8.590 E0.0018
G1 X-8.489 Y-10.000 E0.0904
G1 X-8.459 Y-10.025 E0.0018
G1 X-7.384 Y-10.842 E0.0609
G1 X-7.351 Y-10.863 E0.0018
G1 X-5.611 Y-11.856 E0.0904
G1 X-5.576 Y-11.873 E0.0018
G1 X-4.326 Y-12.383 E0.0609
G1 X-4.289 Y-12.396 E0.0018
G1 X-2.352 Y-12.904 E0.0904
G1 X-2.313 Y-12.912 E0.0018
G1 X-0.974 Y-13.081 E0.0609
G1 X-0.935 Y-13.083 E0.0018
G1 X1.068 Y-13.073 E0.0904
G1 X1.107 Y-13.070 E0.0018
G1 X2.445 Y-12.887 E0.0609
G1 X2.484 Y-12.880 E0.0018
G1 X4.415 Y-12.351 E0.0904
G1 X4.297 Y-11.969 F4200
G1 X4.309 Y-11.965 E0.0006 F720
G1 X5.528 Y-11.453 E0.0597
G1 X5.540 Y-11.447 E0.0006
G1 X7.245 Y-10.451 E0.0891
G1 X7.256 Y-10.444 E0.0006
G1 X8.303 Y-9.633 E0.0598
G1 X8.312 Y-9.624 E0.0006
G1 X9.703 Y-8.220 E0.0892
G1 X9.712 Y-8.210 E0.0006
G1 X10.513 Y-7.156 E0.0598
G1 X10.520 Y-7.145 E0.0006
G1 X11.500 Y-5.428 E0.0892
G1 X11.506 Y-5.417 E0.0006
G1 X12.007 Y-4.191 E0.0597
G1 X12.011 Y-4.179 E0.0006
G1 X12.513 Y-2.267 E0.0892
G1 X12.516 Y-2.254 E0.0006
G1 X12.682 Y-0.941 E0.0598
G1 X12.683 Y-0.928 E0.0006
G1 X12.674 Y1.049 E0.0892
G1 X12.673 Y1.062 E0.0006
G1 X12.494 Y2.374 E0.0598
G1 X12.491 Y2.387 E0.0006
G1 X11.970 Y4.294 E0.0893
G1 X11.966 Y4.307 E0.0006
G1 X11.453 Y5.529 E0.0598
G1 X11.447 Y5.540 E0.0006
G1 X10.449 Y7.249 E0.0893
G1 X10.442 Y7.259 E0.0006
G1 X9.630 Y8.306 E0.0598
G1 X9.621 Y8.316 E0.0006
G1 X8.217 Y9.706 E0.0892
G1 X8.207 Y9.715 E0.0006
G1 X7.152 Y10.515 E0.0598
G1 X7.141 Y10.522 E0.0006
G1 X5.425 Y11.502 E0.0892
G1 X5.413 Y11.508 E0.0006
G1 X4.187 Y12.008 E0.0598
G1 X4.175 Y12.012 E0.0006
G1 X2.263 Y12.514 E0.0892
G1 X2.250 Y12.516 E0.0006
G1 X0.937 Y12.683 E0.0598
G1 X0.924 Y12.683 E0.0006
G1 X-1.053 Y12.673 E0.0892
G1 X-1.066 Y12.672 E0.0006
G1 X-2.378 Y12.493 E0.0598
G1 X-2.391 Y12.490 E0.0006
G1 X-4.297 Y11.969 E0.0892
G1 X-4.309 Y11.965 E0.0006
G1 X-5.528 Y11.453 E0.0597
G1 X-5.540 Y11.447 E0.0006
G1 X-7.245 Y10.451 E0.0891
G1 X-7.256 Y10.444 E0.0006
G1 X-8.303 Y9.633 E0.0598
G1 X-8.312 Y9.624 E0.0006
G1 X-9.703 Y8.220 E0.0892
G1 X-9.712 Y8.210 E0.0006
G1 X-10.513 Y7.156 E0.0598
G1 X-10.520 Y7.145 E0.0006
G1 X-11.500 Y5.428 E0.0892
G1 X-11.506 Y5.417 E0.0006
G1 X-12.007 Y4.191 E0.0597
G1 X-12.011 Y4.179 E0.0006
G1 X-12.513 Y2.267 E0.0892
G1 X-12.516 Y2.254 E0.0006
G1 X-12.682 Y0.941 E0.0598
G1 X-12.683 Y0.928 E0.0006
G1 X-12.674 Y-1.049 E0.0892
G1 X-12.673 Y-1.062 E0.0006
G1 X-12.494 Y-2.374 E0.0598
G1 X-12.491 Y-2.387 E0.0006
G1 X-11.971 Y-4.292 E0.0892
G1 X-11.966 Y-4.305 E0.0006
G1 X-11.454 Y-5.526 E0.0598
G1 X-11.448 Y-5.537 E0.0006
G1 X-10.450 Y-7.247 E0.0893
G1 X-10.443 Y-7.257 E0.0006
G1 X-9.631 Y-8.305 E0.0598
G1 X-9.622 Y-8.315 E0.0006
G1 X-8.217 Y-9.706 E0.0893
G1 X-8.207 Y-9.715 E0.0006
G1 X-7.152 Y-10.515 E0.0598
G1 X-7.141 Y-10.522 E0.0006
G1 X-5.425 Y-11.502 E0.0892
G1 X-5.413 Y-11.508 E0.0006
G1 X-4.187 Y-12.008 E0.0598
G1 X-4.175 Y-12.012 E0.0006
G1 X-2.263 Y-12.514 E0.0892
G1 X-2.250 Y-12.516 E0.0006
G1 X-0.937 Y-12.683 E0.0598
G1 X-0.924 Y-12.683 E0.0006
G1 X1.053 Y-12.673 E0.0892
G1 X1.066 Y-12.672 E0.0006
G1 X2.378 Y-12.493 E0.0598
G1 X2.391 Y-12.490 E0.0006
G1 X4.297 Y-11.969 E0.0892
G1 E-1.0000 F1200
; inner perimeter
G1 X0.734 Y-1.747 F4200
G1 E1.0000 F1200
G1 X1.161 Y-1.498 E0.0223 F540
G1 X1.509 Y-1.146 E0.0223
G1 X1.754 Y-0.717 E0.0223
G1 X1.880 Y-0.238 E0.0223
G1 X1.877 Y0.256 E0.0223
G1 X1.747 Y0.733 E0.0223
G1 X1.497 Y1.161 E0.0224
G1 X1.146 Y1.509 E0.0223
G1 X0.716 Y1.754 E0.0223
G1 X0.238 Y1.880 E0.0223
G1 X-0.257 Y1.877 E0.0223
G1 X-0.734 Y1.747 E0.0223
G1 X-1.161 Y1.498 E0.0223
G1 X-1.509 Y1.146 E0.0223
G1 X-1.754 Y0.717 E0.0223
G1 X-1.880 Y0.238 E0.0223
G1 X-1.877 Y-0.256 E0.0223
G1 X-1.747 Y-0.733 E0.0223
G1 X-1.497 Y-1.161 E0.0224
G1 X-1.146 Y-1.509 E0.0223
G1 X-0.716 Y-1.754 E0.0223
G1 X-0.238 Y-1.880 E0.0223
G1 X0.257 Y-1.877 E0.0223
G1 X0.734 Y-1.747 E0.0223
; outer perimeter
G1 X0.890 Y-2.119 F4200
G1 X1.408 Y-1.817 E0.0270 F360
G1 X1.830 Y-1.390 E0.0271
G1 X2.127 Y-0.869 E0.0271
G1 X2.280 Y-0.289 E0.0271
G1 X2.277 Y0.311 E0.0271
G1 X2.119 Y0.890 E0.0271
G1 X1.816 Y1.408 E0.0271
G1 X1.390 Y1.830 E0.0271
G1 X0.869 Y2.128 E0.0271
G1 X0.288 Y2.280 E0.0271
G1 X-0.312 Y2.277 E0.0271
G1 X-0.890 Y2.119 E0.0271
G1 X-1.408 Y1.817 E0.0270
G1 X-1.830 Y1.390 E0.0271
G1 X-2.127 Y0.869 E0.0271
G1 X-2.280 Y0.289 E0.0271
G1 X-2.277 Y-0.311 E0.0271
G1 X-2.119 Y-0.889 E0.0270
G1 X-1.816 Y-1.408 E0.0272
G1 X-1.390 Y-1.830 E0.0271
G1 X-0.869 Y-2.128 E0.0271
G1 X-0.288 Y-2.280 E0.0271
G1 X0.312 Y-2.277 E0.0271
G1 X0.890 Y-2.119 E0.0271
; solid layer
G1 X1.558 Y0.139 F4200
G1 X0.138 Y1.559 E0.0906 F576
G1 X-0.213 Y1.557 E0.0158
G1 X-0.380 Y1.512 E0.0078
G1 X1.512 Y-0.380 E0.1208
G1 X1.455 Y-0.595 E0.0100
G1 X1.348 Y-0.782 E0.0098
G1 X-0.782 Y1.348 E0.1360
G1 X-0.963 Y1.243 E0.0094
G1 X-1.102 Y1.102 E0.0089
G1 X1.102 Y-1.102 E0.1407
G1 X0.963 Y-1.243 E0.0089
G1 X0.782 Y-1.348 E0.0094
G1 X-1.348 Y0.782 E0.1360
G1 X-1.455 Y0.595 E0.0098
G1 X-1.512 Y0.380 E0.0100
G1 X0.380 Y-1.512 E0.1208
G1 X0.213 Y-1.557 E0.0078
G1 X-0.138 Y-1.559 E0.0158
G1 X-1.558 Y-0.139 E0.0907
G1 E-1.0000 F1200
; layer 2, Z = 0.54283
; inner perimeter
G1 X-1.877 Y-0.256 F4200
G1 Z0.543 F900
G1 E1.0000 F1200
G1 X-1.748 Y-0.731 E0.0222 F540
G1 X-1.496 Y-1.162 E0.0225
G1 X-1.145 Y-1.510 E0.0223
G1 X-0.715 Y-1.754 E0.0223
G1 X-0.236 Y-1.880 E0.0223
G1 X0.258 Y-1.877 E0.0223
G1 X0.735 Y-1.746 E0.0223
G1 X1.161 Y-1.498 E0.0222
G1 X1.509 Y-1.146 E0.0223
G1 X1.754 Y-0.717 E0.0223
G1 X1.880 Y-0.238 E0.0223
G1 X1.877 Y0.256 E0.0223
G1 X1.747 Y0.733 E0.0223
G1 X1.496 Y1.162 E0.0224
G1 X1.145 Y1.510 E0.0223
G1 X0.715 Y1.754 E0.0223
G1 X0.236 Y1.880 E0.0223
G1 X-0.258 Y1.877 E0.0223
G1 X-0.735 Y1.746 E0.0223
G1 X-1.161 Y1.498 E0.0222
G1 X-1.509 Y1.146 E0.0223
G1 X-1.754 Y0.717 E0.0223
G1 X-1.880 Y0.238 E0.0223
G1 X-1.877 Y-0.256 E0.0223
; outer perimeter
G1 X-2.277 Y-0.311 F4200
G1 X-2.120 Y-0.887 E0.0270 F360
G1 X-1.815 Y-1.410 E0.0273
G1 X-1.388 Y-1.831 E0.0271
G1 X-0.867 Y-2.128 E0.0271
G1 X-0.287 Y-2.280 E0.0271
G1 X0.313 Y-2.276 E0.0271
G1 X0.892 Y-2.118 E0.0271
G1 X1.408 Y-1.817 E0.0270
G1 X1.830 Y-1.390 E0.0271
G1 X2.127 Y-0.869 E0.0271
G1 X2.280 Y-0.289 E0.0271
G1 X2.277 Y0.311 E0.0271
G1 X2.119 Y0.890 E0.0271
G1 X1.815 Y1.409 E0.0272
G1 X1.388 Y1.831 E0.0271
G1 X0.867 Y2.128 E0.0271
G1 X0.287 Y2.280 E0.0271
G1 X-0.313 Y2.276 E0.0271
G1 X-0.892 Y2.118 E0.0271
G1 X-1.408 Y1.817 E0.0270
G1 X-1.830 Y1.390 E0.0271
G1 X-2.127 Y0.869 E0.0271
G1 X-2.280 Y0.289 E0.0271
G1 X-2.277 Y-0.311 E0.0271
; solid layer
G1 X0.140 Y-1.557 F4200
G1 X1.559 Y-0.138 E0.0906 F576
G1 X1.558 Y0.213 E0.0158
G1 X1.512 Y0.380 E0.0078
G1 X-0.380 Y-1.511 E0.1208
G1 X-0.593 Y-1.456 E0.0099
G1 X-0.782 Y-1.348 E0.0098
