; G-Code generated by Simplify3D(R) Version 3.0.2
; May 14, 2016 at 10:38:37 PM
; Settings Summary
;   processName,Process1
;   applyToModels,Pen_Mouting_Adapter_Pen
;   profileName,3d machtudong (modified)
;   profileVersion,2016-03-30 16:48:23
;   baseProfile,FlashForge Right 60-70 (modified)
;   printMaterial,
;   printQuality,
;   printExtruders,
;   extruderName,Right Extruder,Left Extruder
;   extruderToolheadNumber,0,1
;   extruderDiameter,0.4,0.4
;   extruderAutoWidth,0,0
;   extruderWidth,0.4,0.4
;   extrusionMultiplier,0.95,0.95
;   extruderUseRetract,1,1
;   extruderRetractionDistance,1,1
;   extruderExtraRestartDistance,0,0
;   extruderRetractionZLift,0,0
;   extruderRetractionSpeed,1200,1200
;   extruderUseCoasting,0,0
;   extruderCoastingDistance,0.2,0.2
;   extruderUseWipe,0,0
;   extruderWipeDistance,5,5
;   primaryExtruder,0
;   layerHeight,0.2857
;   topSolidLayers,3
;   bottomSolidLayers,3
;   perimeterOutlines,2
;   printPerimetersInsideOut,1
;   startPointOption,2
;   startPointOriginX,0
;   startPointOriginY,0
;   startPointOriginZ,300
;   sequentialIslands,0
;   spiralVaseMode,0
;   firstLayerHeightPercentage,90
;   firstLayerWidthPercentage,100
;   firstLayerUnderspeed,0.5
;   useRaft,0
;   raftExtruder,0
;   raftLayers,3
;   raftOffset,3
;   raftSeparationDistance,0.14
;   raftInfill,85
;   disableRaftBaseLayers,0
;   useSkirt,1
;   skirtExtruder,0
;   skirtLayers,1
;   skirtOutlines,2
;   skirtOffset,10
;   usePrimePillar,0
;   primePillarExtruder,999
;   primePillarWidth,12
;   primePillarLocation,7
;   primePillarSpeedMultiplier,1
;   useOozeShield,0
;   oozeShieldExtruder,999
;   oozeShieldOffset,2
;   oozeShieldOutlines,1
;   oozeShieldSidewallShape,1
;   oozeShieldSidewallAngle,30
;   oozeShieldSpeedMultiplier,1
;   infillExtruder,0
;   internalInfillPattern,Rectilinear
;   externalInfillPattern,Rectilinear
;   infillPercentage,3
;   outlineOverlapPercentage,20
;   infillExtrusionWidthPercentage,100
;   minInfillLength,5
;   infillLayerInterval,1
;   infillAngles,45,-45
;   overlapInfillAngles,0
;   generateSupport,0
;   supportExtruder,0
;   supportInfillPercentage,30
;   supportExtraInflation,0
;   denseSupportLayers,0
;   denseSupportInfillPercentage,70
;   supportLayerInterval,1
;   supportHorizontalPartOffset,0.3
;   supportUpperSeparationLayers,1
;   supportLowerSeparationLayers,1
;   supportType,0
;   supportGridSpacing,4
;   maxOverhangAngle,45
;   supportAngles,0
;   temperatureName,Right Extruder,Heated Build Platform
;   temperatureNumber,0,0
;   temperatureSetpointCount,1,1
;   temperatureSetpointLayers,1,1
;   temperatureSetpointTemperatures,223,110
;   temperatureStabilizeAtStartup,0,0
;   temperatureHeatedBed,0,1
;   temperatureRelayBetweenLayers,0,0
;   temperatureRelayBetweenLoops,0,0
;   fanLayers,1
;   fanSpeeds,0
;   blipFanToFullPower,0
;   adjustSpeedForCooling,1
;   minSpeedLayerTime,15
;   minCoolingSpeedSlowdown,20
;   increaseFanForCooling,0
;   minFanLayerTime,45
;   maxCoolingFanSpeed,100
;   increaseFanForBridging,1
;   bridgingFanSpeed,100
;   use5D,1
;   relativeEdistances,1
;   allowEaxisZeroing,0
;   independentExtruderAxes,0
;   includeM10123,0
;   stickySupport,1
;   applyToolheadOffsets,0
;   gcodeXoffset,0
;   gcodeYoffset,0
;   gcodeZoffset,0
;   overrideMachineDefinition,1
;   machineTypeOverride,0
;   strokeXoverride,220
;   strokeYoverride,140
;   strokeZoverride,150
;   originOffsetXoverride,110
;   originOffsetYoverride,70
;   originOffsetZoverride,0
;   homeXdirOverride,1
;   homeYdirOverride,1
;   homeZdirOverride,-1
;   flipXoverride,1
;   flipYoverride,-1
;   flipZoverride,1
;   toolheadOffsets,0,0|0,0|0,0|0,0|0,0|0,0
;   overrideFirmwareConfiguration,1
;   firmwareTypeOverride,MakerBot/Sailfish Firmware
;   GPXconfigOverride,r1d
;   baudRateOverride,115200
;   overridePrinterModels,0
;   printerModelsOverride
;   startingGcode,; **** Replicator 1 dual right extruder start.gcode ****,M73 P0 ; enable build progress,G162 X Y F3000 ; home XY maximum,G161 Z F1200 ; home Z minimum,G92 Z-5 ; set Z to -5,G1 Z0 ; move Z to 0,G161 Z F100 ; home Z slowly,M132 X Y Z A B ; recall home offsets,M135 T0 ; load right extruder offsets,G1 X125 Y-70 Z30 F9000 ; move to wait position off table,G130 X20 Y20 Z20 A20 B20 ; lower stepper Vrefs while heating,M126 S[fan_speed_pwm],M140 S[bed0_temperature] T0,M134 T0 ; stabilize bed temperature,M104 S[extruder0_temperature] T0,M133 T0 ; stabilize extruder temperature,G130 X127 Y127 Z40 A127 B127 ; default stepper Vrefs,G92 A0 B0 ; zero extruders,G1 Z0.4 ; position nozzle,G1 E25 F300 ; purge nozzle,G1 X115 Y-70 Z0.15 F1200 ; slow wipe,G1 X110 Y-70 Z0.5 F1200 ; lift,G92 A0 B0 ; zero extruders,M73 P1 ;@body (notify GPX body has started),; **** end of start.gcode ****
;   layerChangeGcode,
;   retractionGcode,
;   toolChangeGcode,
;   endingGcode,(******* End.gcode*******),M109 S0 T0 ( Cool down the build platform ),M104 S0 T0 ( Cool down the Right Extruder ),M104 S0 T1 ( Cool down the Left Extruder ),M73 P100 ( End  build progress ),G0 Z150 ( Send Z axis to bottom of machine ),M18 ( Disable steppers ),G162 X Y F2500 ( Home XY endstops ),M18 ( Disable stepper motors ),M70 P5 ( We <3 Making Things!),M72 P1  ( Play Ta-Da song ),(*********end End.gcode*******)
;   createX3G,1
;   celebration,1
;   celebrationSong,Funky Town
;   createMB5G,0
;   postProcessing,
;   defaultSpeed,3600
;   outlineUnderspeed,0.5
;   solidInfillUnderspeed,0.8
;   supportUnderspeed,0.8
;   rapidXYspeed,4200
;   rapidZspeed,900
;   minBridgingArea,50
;   bridgingExtraInflation,0
;   bridgingExtrusionMultiplier,1
;   bridgingSpeedMultiplier,0.8
;   filamentDiameter,1.75
;   filamentPricePerKg,46
;   filamentDensity,1.25
;   useMinPrintHeight,0
;   minPrintHeight,0
;   useMaxPrintHeight,0
;   maxPrintHeight,0
;   useDiaphragm,0
;   diaphragmLayerInterval,20
;   robustSlicing,1
;   mergeAllIntoSolid,0
;   onlyRetractWhenCrossingOutline,1
;   retractBetweenLayers,1
;   useRetractionMinTravel,0
;   retractionMinTravel,3
;   retractWhileWiping,0
;   onlyWipeOutlines,1
;   avoidCrossingOutline,0
;   maxMovementDetourFactor,3
;   toolChangeRetractionDistance,12
;   toolChangeExtraRestartDistance,-0.5
;   toolChangeRetractionSpeed,600
;   allowThinWallGapFill,1
;   thinWallAllowedOverlapPercentage,10
;   horizontalSizeCompensation,0
G90
M83
; **** Replicator 1 dual right extruder start.gcode ****
M73 P0 ; enable build progress
G162 X Y F3000 ; home XY maximum
G161 Z F1200 ; home Z minimum
G92 Z-5 ; set Z to -5
G1 Z0 ; move Z to 0
G161 Z F100 ; home Z slowly
M132 X Y Z A B ; recall home offsets
M135 T0 ; load right extruder offsets
G1 X125 Y-70 Z30 F9000 ; move to wait position off table
G130 X20 Y20 Z20 A20 B20 ; lower stepper Vrefs while heating
M127
M140 S110 T0
M134 T0 ; stabilize bed temperature
M104 S223 T0
M133 T0 ; stabilize extruder temperature
G130 X127 Y127 Z40 A127 B127 ; default stepper Vrefs
G92 A0 B0 ; zero extruders
G1 Z0.4 ; position nozzle
G1 E25 F300 ; purge nozzle
G1 X115 Y-70 Z0.15 F1200 ; slow wipe
G1 X110 Y-70 Z0.5 F1200 ; lift
G92 A0 B0 ; zero extruders
M73 P1 ;@body (notify GPX body has started)
; **** end of start.gcode ****
G1 E-1.0000 F1200
G1 Z0.257 F900
; layer 1, Z = 0.25713
M135 T0
; tool H0.286 W0.400
; skirt
G1 X-9.010 Y-5.103 F4200
G1 E1.0000 F360
G1 X-9.010 Y-9.200 E0.1849 F1800
G1 X-10.919 Y-11.109 E0.1218
G1 X-11.010 Y-11.329 E0.0108
G1 X-11.010 Y-23.852 E0.5652
G1 X-10.919 Y-24.073 E0.0108
G1 X-4.892 Y-30.099 E0.3847
G1 X-4.671 Y-30.191 E0.0108
G1 X0.668 Y-30.191 E0.2410
G1 X1.543 Y-30.344 E0.0401
G1 X1.560 Y-30.347 E0.0008
G1 X2.152 Y-30.415 E0.0269
G1 X2.169 Y-30.417 E0.0008
G1 X4.175 Y-30.533 E0.0907
G1 X4.187 Y-30.534 E0.0005
G1 X4.584 Y-30.541 E0.0179
G1 X4.596 Y-30.541 E0.0005
G1 X5.497 Y-30.524 E0.0407
G1 X5.509 Y-30.523 E0.0005
G1 X5.906 Y-30.500 E0.0179
G1 X5.917 Y-30.500 E0.0005
G1 X7.868 Y-30.311 E0.0885
G1 X7.882 Y-30.309 E0.0007
G1 X8.374 Y-30.238 E0.0224
G1 X8.388 Y-30.235 E0.0007
G1 X8.615 Y-30.191 E0.0105
G1 X13.852 Y-30.191 E0.2363
G1 X14.072 Y-30.099 E0.0108
G1 X20.099 Y-24.073 E0.3847
G1 X20.190 Y-23.852 E0.0108
G1 X20.190 Y-11.329 E0.5652
G1 X20.099 Y-11.109 E0.0108
G1 X18.190 Y-9.200 E0.1218
G1 X18.190 Y9.549 E0.8463
G1 X20.099 Y11.457 E0.1218
G1 X20.190 Y11.678 E0.0108
G1 X20.190 Y24.201 E0.5652
G1 X20.099 Y24.421 E0.0108
G1 X14.072 Y30.448 E0.3847
G1 X13.852 Y30.539 E0.0108
G1 X-4.671 Y30.539 E0.8361
G1 X-4.892 Y30.448 E0.0108
G1 X-10.919 Y24.421 E0.3847
G1 X-11.010 Y24.201 E0.0108
G1 X-11.010 Y21.164 E0.1371
G1 X-11.453 Y21.024 E0.0210
G1 X-11.496 Y21.006 E0.0021
G1 X-13.807 Y19.848 E0.1167
G1 X-13.848 Y19.823 E0.0021
G1 X-15.172 Y18.872 E0.0736
G1 X-15.208 Y18.841 E0.0021
G1 X-17.044 Y17.022 E0.1167
G1 X-17.075 Y16.986 E0.0021
G1 X-18.039 Y15.671 E0.0736
G1 X-18.064 Y15.630 E0.0021
G1 X-19.243 Y13.330 E0.1167
G1 X-19.262 Y13.287 E0.0021
G1 X-19.768 Y11.737 E0.0736
G1 X-19.780 Y11.691 E0.0021
G1 X-20.186 Y9.138 E0.1167
G1 X-20.190 Y9.091 E0.0021
G1 X-20.190 Y7.460 E0.0736
G1 X-20.186 Y7.413 E0.0021
G1 X-19.780 Y4.860 E0.1167
G1 X-19.768 Y4.814 E0.0021
G1 X-19.262 Y3.264 E0.0736
G1 X-19.243 Y3.220 E0.0021
G1 X-18.064 Y0.921 E0.1167
G1 X-18.039 Y0.880 E0.0021
G1 X-17.075 Y-0.435 E0.0736
G1 X-17.044 Y-0.471 E0.0021
G1 X-15.208 Y-2.291 E0.1167
G1 X-15.172 Y-2.321 E0.0021
G1 X-13.848 Y-3.272 E0.0736
G1 X-13.807 Y-3.297 E0.0021
G1 X-11.496 Y-4.455 E0.1167
G1 X-11.453 Y-4.473 E0.0021
G1 X-9.898 Y-4.966 E0.0736
G1 X-9.852 Y-4.976 E0.0021
G1 X-9.010 Y-5.103 E0.0384
G1 X-8.610 Y-4.758 F4200
G1 X-8.610 Y-9.366 E0.2080 F1800
G1 X-10.580 Y-11.335 E0.1257
G1 X-10.610 Y-11.409 E0.0036
G1 X-10.610 Y-23.773 E0.5581
G1 X-10.580 Y-23.846 E0.0036
G1 X-4.665 Y-29.760 E0.3775
G1 X-4.592 Y-29.791 E0.0036
G1 X0.703 Y-29.791 E0.2390
G1 X1.606 Y-29.949 E0.0414
G1 X1.612 Y-29.950 E0.0003
G1 X2.193 Y-30.017 E0.0264
G1 X2.198 Y-30.018 E0.0003
G1 X4.195 Y-30.134 E0.0903
G1 X4.198 Y-30.134 E0.0002
G1 X4.588 Y-30.141 E0.0176
G1 X4.592 Y-30.141 E0.0002
G1 X5.486 Y-30.124 E0.0404
G1 X5.490 Y-30.124 E0.0002
G1 X5.879 Y-30.101 E0.0176
G1 X5.883 Y-30.101 E0.0002
G1 X7.825 Y-29.913 E0.0881
G1 X7.829 Y-29.913 E0.0002
G1 X8.311 Y-29.842 E0.0220
G1 X8.316 Y-29.842 E0.0002
G1 X8.577 Y-29.791 E0.0120
G1 X13.772 Y-29.791 E0.2345
G1 X13.845 Y-29.760 E0.0036
G1 X19.760 Y-23.846 E0.3775
G1 X19.790 Y-23.773 E0.0036
G1 X19.790 Y-11.409 E0.5581
G1 X19.760 Y-11.335 E0.0036
G1 X17.790 Y-9.366 E0.1257
G1 X17.790 Y9.714 E0.8612
G1 X19.760 Y11.684 E0.1257
G1 X19.790 Y11.757 E0.0036
G1 X19.790 Y24.121 E0.5581
G1 X19.760 Y24.195 E0.0036
G1 X13.845 Y30.109 E0.3775
G1 X13.772 Y30.139 E0.0036
G1 X-4.592 Y30.139 E0.8289
G1 X-4.665 Y30.109 E0.0036
G1 X-10.580 Y24.195 E0.3775
G1 X-10.610 Y24.121 E0.0036
G1 X-10.610 Y20.871 E0.1467
G1 X-11.317 Y20.648 E0.0335
G1 X-11.331 Y20.642 E0.0007
G1 X-13.614 Y19.497 E0.1152
G1 X-13.627 Y19.489 E0.0007
G1 X-14.926 Y18.556 E0.0722
G1 X-14.938 Y18.546 E0.0007
G1 X-16.752 Y16.749 E0.1152
G1 X-16.762 Y16.737 E0.0007
G1 X-17.707 Y15.447 E0.0722
G1 X-17.715 Y15.434 E0.0007
G1 X-18.880 Y13.162 E0.1152
G1 X-18.886 Y13.147 E0.0007
G1 X-19.383 Y11.627 E0.0722
G1 X-19.387 Y11.612 E0.0007
G1 X-19.789 Y9.091 E0.1152
G1 X-19.790 Y9.075 E0.0007
G1 X-19.790 Y7.476 E0.0722
G1 X-19.789 Y7.460 E0.0007
G1 X-19.387 Y4.939 E0.1152
G1 X-19.383 Y4.923 E0.0007
G1 X-18.886 Y3.403 E0.0722
G1 X-18.880 Y3.389 E0.0007
G1 X-17.715 Y1.117 E0.1152
G1 X-17.707 Y1.104 E0.0007
G1 X-16.762 Y-0.186 E0.0722
G1 X-16.752 Y-0.198 E0.0007
G1 X-14.938 Y-1.995 E0.1152
G1 X-14.926 Y-2.006 E0.0007
G1 X-13.627 Y-2.938 E0.0722
G1 X-13.614 Y-2.946 E0.0007
G1 X-11.331 Y-4.091 E0.1152
G1 X-11.317 Y-4.097 E0.0007
G1 X-9.792 Y-4.580 E0.0722
G1 X-9.777 Y-4.583 E0.0007
G1 X-8.610 Y-4.758 E0.0533
G1 E-1.0000 F1200
; inner perimeter
G1 X-7.291 Y5.965 F4200
G1 E1.0000 F1200
G1 X-6.532 Y5.851 E0.0346 F1350
G1 X-6.237 Y5.897 E0.0135
G1 X-6.240 Y6.174 E0.0125
G1 X-6.699 Y6.235 E0.0209
G1 X-7.218 Y6.450 E0.0254
G1 X-7.665 Y6.792 E0.0254
G1 X-8.007 Y7.239 E0.0254
G1 X-8.222 Y7.759 E0.0254
G1 X-8.296 Y8.316 E0.0254
G1 X-8.222 Y8.874 E0.0254
G1 X-8.007 Y9.394 E0.0254
G1 X-7.665 Y9.840 E0.0254
G1 X-7.218 Y10.183 E0.0254
G1 X-6.727 Y10.386 E0.0240
G1 X-6.803 Y10.659 E0.0128
G1 X-7.291 Y10.586 E0.0223
G1 X-7.972 Y10.244 E0.0344
G1 X-8.514 Y9.707 E0.0344
G1 X-8.862 Y9.029 E0.0344
G1 X-8.982 Y8.275 E0.0344
G1 X-8.862 Y7.522 E0.0344
G1 X-8.514 Y6.843 E0.0344
G1 X-7.972 Y6.307 E0.0344
G1 X-7.291 Y5.965 E0.0344
G1 X-5.440 Y6.161 F4200
G1 X-4.144 Y6.354 E0.0591 F1350
G1 X-3.258 Y6.354 E0.0400
G1 X-2.381 Y6.222 E0.0400
G1 X-1.533 Y5.962 E0.0400
G1 X-0.734 Y5.578 E0.0400
G1 X-0.000 Y5.080 E0.0400
G1 X0.652 Y4.479 E0.0400
G1 X1.207 Y3.788 E0.0400
G1 X1.654 Y3.022 E0.0400
G1 X1.982 Y2.199 E0.0400
G1 X2.190 Y1.311 E0.0411
G1 X2.190 Y-16.191 E0.7900
G1 X0.190 Y-16.191 E0.0903
G1 X0.190 Y-18.991 E0.1264
G1 X1.648 Y-18.991 E0.0658
G1 X2.671 Y-19.191 E0.0470
G1 X3.144 Y-19.255 E0.0215
G1 X4.115 Y-19.330 E0.0440
G1 X4.590 Y-19.339 E0.0215
G1 X5.065 Y-19.330 E0.0215
G1 X6.037 Y-19.255 E0.0440
G1 X6.502 Y-19.192 E0.0212
G1 X7.532 Y-18.991 E0.0474
G1 X8.990 Y-18.991 E0.0658
G1 X8.990 Y-16.191 E0.1264
G1 X6.990 Y-16.191 E0.0903
G1 X6.990 Y-12.993 E0.1443
G1 X6.364 Y-13.808 E0.0464
G1 X5.927 Y-14.144 E0.0249
G1 X5.418 Y-14.355 E0.0249
G1 X4.872 Y-14.427 E0.0249
G1 X4.326 Y-14.355 E0.0249
G1 X3.817 Y-14.144 E0.0249
G1 X3.379 Y-13.808 E0.0249
G1 X3.044 Y-13.371 E0.0249
G1 X2.833 Y-12.862 E0.0249
G1 X2.761 Y-12.316 E0.0249
G1 X2.833 Y-11.770 E0.0249
G1 X3.044 Y-11.261 E0.0249
G1 X3.379 Y-10.824 E0.0249
G1 X3.817 Y-10.488 E0.0249
G1 X4.326 Y-10.277 E0.0249
G1 X4.872 Y-10.205 E0.0249
G1 X5.418 Y-10.277 E0.0249
G1 X5.927 Y-10.488 E0.0249
G1 X6.364 Y-10.824 E0.0249
G1 X6.990 Y-11.639 E0.0464
G1 X6.990 Y10.569 E1.0024
G1 X6.370 Y9.760 E0.0460
G1 X5.934 Y9.426 E0.0248
G1 X5.426 Y9.215 E0.0248
G1 X4.881 Y9.143 E0.0248
G1 X4.336 Y9.215 E0.0248
G1 X3.828 Y9.426 E0.0248
G1 X3.392 Y9.760 E0.0248
G1 X3.058 Y10.196 E0.0248
G1 X2.847 Y10.704 E0.0248
G1 X2.776 Y11.249 E0.0248
G1 X2.847 Y11.794 E0.0248
G1 X3.058 Y12.301 E0.0248
G1 X3.392 Y12.737 E0.0248
G1 X3.828 Y13.072 E0.0248
G1 X4.336 Y13.282 E0.0248
G1 X4.881 Y13.354 E0.0248
G1 X5.426 Y13.282 E0.0248
G1 X5.934 Y13.072 E0.0248
G1 X6.370 Y12.737 E0.0248
G1 X6.990 Y11.929 E0.0460
G1 X6.990 Y16.539 E0.2081
G1 X8.990 Y16.539 E0.0903
G1 X8.990 Y19.339 E0.1264
G1 X0.190 Y19.339 E0.3972
G1 X0.190 Y16.539 E0.1264
G1 X2.190 Y16.539 E0.0903
G1 X2.190 Y6.655 E0.4461
G1 X0.718 Y8.324 E0.1004
G1 X0.261 Y8.762 E0.0286
G1 X-0.224 Y9.153 E0.0281
G1 X-0.739 Y9.503 E0.0281
G1 X-1.283 Y9.807 E0.0281
G1 X-1.850 Y10.065 E0.0281
G1 X-2.437 Y10.274 E0.0281
G1 X-3.039 Y10.434 E0.0281
G1 X-3.653 Y10.541 E0.0281
G1 X-4.274 Y10.597 E0.0281
G1 X-4.897 Y10.601 E0.0281
G1 X-5.346 Y10.565 E0.0203
G1 X-5.385 Y10.316 E0.0114
G1 X-5.063 Y10.183 E0.0157
G1 X-4.617 Y9.840 E0.0254
G1 X-4.274 Y9.394 E0.0254
G1 X-4.059 Y8.874 E0.0254
G1 X-3.986 Y8.316 E0.0254
G1 X-4.059 Y7.759 E0.0254
G1 X-4.274 Y7.239 E0.0254
G1 X-4.617 Y6.792 E0.0254
G1 X-5.440 Y6.161 E0.0468
; outer perimeter
G1 X-7.413 Y5.579 F4200
G1 X-6.531 Y5.446 E0.0402 F900
G1 X-5.791 Y5.562 E0.0338
G1 X-4.933 Y5.832 E0.0406
G1 X-4.115 Y5.954 E0.0374
G1 X-3.288 Y5.954 E0.0373
G1 X-2.470 Y5.831 E0.0373
G1 X-1.679 Y5.588 E0.0373
G1 X-0.934 Y5.230 E0.0373
G1 X-0.249 Y4.766 E0.0373
G1 X0.359 Y4.205 E0.0373
G1 X0.877 Y3.561 E0.0373
G1 X1.293 Y2.847 E0.0373
G1 X1.599 Y2.078 E0.0373
G1 X1.790 Y1.265 E0.0377
G1 X1.790 Y-15.791 E0.7698
G1 X-0.210 Y-15.791 E0.0903
G1 X-0.210 Y-19.391 E0.1625
G1 X1.609 Y-19.391 E0.0821
G1 X2.605 Y-19.585 E0.0458
G1 X3.101 Y-19.653 E0.0226
G1 X4.095 Y-19.730 E0.0450
G1 X4.590 Y-19.739 E0.0223
G1 X5.085 Y-19.730 E0.0223
G1 X6.079 Y-19.653 E0.0450
G1 X6.567 Y-19.587 E0.0222
G1 X7.571 Y-19.391 E0.0461
G1 X9.390 Y-19.391 E0.0821
G1 X9.390 Y-15.791 E0.1625
G1 X7.390 Y-15.791 E0.0903
G1 X7.390 Y16.139 E1.4412
G1 X9.390 Y16.139 E0.0903
G1 X9.390 Y19.739 E0.1625
G1 X-0.210 Y19.739 E0.4333
G1 X-0.210 Y16.139 E0.1625
G1 X1.790 Y16.139 E0.0903
G1 X1.790 Y7.713 E0.3803
G1 X1.007 Y8.601 E0.0534
