; G-Code generated by Simplify3D(R) Version 3.0.2
; May 14, 2016 at 10:31:03 PM
; Settings Summary
;   processName,Process1
;   applyToModels,Pen_Mouting_Adapter_Pen_Hook
;   profileName,3d machtudong (modified)
;   profileVersion,2016-03-30 16:48:23
;   baseProfile,FlashForge Right 60-70 (modified)
;   printMaterial,
;   printQuality,
;   printExtruders,
;   extruderName,Right Extruder,Left Extruder
;   extruderToolheadNumber,0,1
;   extruderDiameter,0.4,0.4
;   extruderAutoWidth,0,0
;   extruderWidth,0.4,0.4
;   extrusionMultiplier,0.95,0.95
;   extruderUseRetract,1,1
;   extruderRetractionDistance,1,1
;   extruderExtraRestartDistance,0,0
;   extruderRetractionZLift,0,0
;   extruderRetractionSpeed,1200,1200
;   extruderUseCoasting,0,0
;   extruderCoastingDistance,0.2,0.2
;   extruderUseWipe,0,0
;   extruderWipeDistance,5,5
;   primaryExtruder,0
;   layerHeight,0.2857
;   topSolidLayers,3
;   bottomSolidLayers,3
;   perimeterOutlines,2
;   printPerimetersInsideOut,1
;   startPointOption,2
;   startPointOriginX,0
;   startPointOriginY,0
;   startPointOriginZ,300
;   sequentialIslands,0
;   spiralVaseMode,0
;   firstLayerHeightPercentage,90
;   firstLayerWidthPercentage,100
;   firstLayerUnderspeed,0.5
;   useRaft,0
;   raftExtruder,0
;   raftLayers,3
;   raftOffset,3
;   raftSeparationDistance,0.14
;   raftInfill,85
;   disableRaftBaseLayers,0
;   useSkirt,1
;   skirtExtruder,0
;   skirtLayers,1
;   skirtOutlines,2
;   skirtOffset,10
;   usePrimePillar,0
;   primePillarExtruder,999
;   primePillarWidth,12
;   primePillarLocation,7
;   primePillarSpeedMultiplier,1
;   useOozeShield,0
;   oozeShieldExtruder,999
;   oozeShieldOffset,2
;   oozeShieldOutlines,1
;   oozeShieldSidewallShape,1
;   oozeShieldSidewallAngle,30
;   oozeShieldSpeedMultiplier,1
;   infillExtruder,0
;   internalInfillPattern,Rectilinear
;   externalInfillPattern,Rectilinear
;   infillPercentage,24
;   outlineOverlapPercentage,20
;   infillExtrusionWidthPercentage,100
;   minInfillLength,5
;   infillLayerInterval,1
;   infillAngles,45,-45
;   overlapInfillAngles,0
;   generateSupport,0
;   supportExtruder,0
;   supportInfillPercentage,30
;   supportExtraInflation,0
;   denseSupportLayers,0
;   denseSupportInfillPercentage,70
;   supportLayerInterval,1
;   supportHorizontalPartOffset,0.3
;   supportUpperSeparationLayers,1
;   supportLowerSeparationLayers,1
;   supportType,0
;   supportGridSpacing,4
;   maxOverhangAngle,45
;   supportAngles,0
;   temperatureName,Right Extruder,Heated Build Platform
;   temperatureNumber,0,0
;   temperatureSetpointCount,1,1
;   temperatureSetpointLayers,1,1
;   temperatureSetpointTemperatures,223,110
;   temperatureStabilizeAtStartup,0,0
;   temperatureHeatedBed,0,1
;   temperatureRelayBetweenLayers,0,0
;   temperatureRelayBetweenLoops,0,0
;   fanLayers,1
;   fanSpeeds,0
;   blipFanToFullPower,0
;   adjustSpeedForCooling,1
;   minSpeedLayerTime,15
;   minCoolingSpeedSlowdown,20
;   increaseFanForCooling,0
;   minFanLayerTime,45
;   maxCoolingFanSpeed,100
;   increaseFanForBridging,1
;   bridgingFanSpeed,100
;   use5D,1
;   relativeEdistances,1
;   allowEaxisZeroing,0
;   independentExtruderAxes,0
;   includeM10123,0
;   stickySupport,1
;   applyToolheadOffsets,0
;   gcodeXoffset,0
;   gcodeYoffset,0
;   gcodeZoffset,0
;   overrideMachineDefinition,1
;   machineTypeOverride,0
;   strokeXoverride,220
;   strokeYoverride,140
;   strokeZoverride,150
;   originOffsetXoverride,110
;   originOffsetYoverride,70
;   originOffsetZoverride,0
;   homeXdirOverride,1
;   homeYdirOverride,1
;   homeZdirOverride,-1
;   flipXoverride,1
;   flipYoverride,-1
;   flipZoverride,1
;   toolheadOffsets,0,0|0,0|0,0|0,0|0,0|0,0
;   overrideFirmwareConfiguration,1
;   firmwareTypeOverride,MakerBot/Sailfish Firmware
;   GPXconfigOverride,r1d
;   baudRateOverride,115200
;   overridePrinterModels,0
;   printerModelsOverride
;   startingGcode,; **** Replicator 1 dual right extruder start.gcode ****,M73 P0 ; enable build progress,G162 X Y F3000 ; home XY maximum,G161 Z F1200 ; home Z minimum,G92 Z-5 ; set Z to -5,G1 Z0 ; move Z to 0,G161 Z F100 ; home Z slowly,M132 X Y Z A B ; recall home offsets,M135 T0 ; load right extruder offsets,G1 X125 Y-70 Z30 F9000 ; move to wait position off table,G130 X20 Y20 Z20 A20 B20 ; lower stepper Vrefs while heating,M126 S[fan_speed_pwm],M140 S[bed0_temperature] T0,M134 T0 ; stabilize bed temperature,M104 S[extruder0_temperature] T0,M133 T0 ; stabilize extruder temperature,G130 X127 Y127 Z40 A127 B127 ; default stepper Vrefs,G92 A0 B0 ; zero extruders,G1 Z0.4 ; position nozzle,G1 E25 F300 ; purge nozzle,G1 X115 Y-70 Z0.15 F1200 ; slow wipe,G1 X110 Y-70 Z0.5 F1200 ; lift,G92 A0 B0 ; zero extruders,M73 P1 ;@body (notify GPX body has started),; **** end of start.gcode ****
;   layerChangeGcode,
;   retractionGcode,
;   toolChangeGcode,
;   endingGcode,(******* End.gcode*******),M109 S0 T0 ( Cool down the build platform ),M104 S0 T0 ( Cool down the Right Extruder ),M104 S0 T1 ( Cool down the Left Extruder ),M73 P100 ( End  build progress ),G0 Z150 ( Send Z axis to bottom of machine ),M18 ( Disable steppers ),G162 X Y F2500 ( Home XY endstops ),M18 ( Disable stepper motors ),M70 P5 ( We <3 Making Things!),M72 P1  ( Play Ta-Da song ),(*********end End.gcode*******)
;   createX3G,1
;   celebration,1
;   celebrationSong,Funky Town
;   createMB5G,0
;   postProcessing,
;   defaultSpeed,3600
;   outlineUnderspeed,0.5
;   solidInfillUnderspeed,0.8
;   supportUnderspeed,0.8
;   rapidXYspeed,4200
;   rapidZspeed,900
;   minBridgingArea,50
;   bridgingExtraInflation,0
;   bridgingExtrusionMultiplier,1
;   bridgingSpeedMultiplier,0.8
;   filamentDiameter,1.75
;   filamentPricePerKg,46
;   filamentDensity,1.25
;   useMinPrintHeight,0
;   minPrintHeight,0
;   useMaxPrintHeight,0
;   maxPrintHeight,0
;   useDiaphragm,0
;   diaphragmLayerInterval,20
;   robustSlicing,1
;   mergeAllIntoSolid,0
;   onlyRetractWhenCrossingOutline,1
;   retractBetweenLayers,1
;   useRetractionMinTravel,0
;   retractionMinTravel,3
;   retractWhileWiping,0
;   onlyWipeOutlines,1
;   avoidCrossingOutline,0
;   maxMovementDetourFactor,3
;   toolChangeRetractionDistance,12
;   toolChangeExtraRestartDistance,-0.5
;   toolChangeRetractionSpeed,600
;   allowThinWallGapFill,1
;   thinWallAllowedOverlapPercentage,10
;   horizontalSizeCompensation,0
G90
M83
; **** Replicator 1 dual right extruder start.gcode ****
M73 P0 ; enable build progress
G162 X Y F3000 ; home XY maximum
G161 Z F1200 ; home Z minimum
G92 Z-5 ; set Z to -5
G1 Z0 ; move Z to 0
G161 Z F100 ; home Z slowly
M132 X Y Z A B ; recall home offsets
M135 T0 ; load right extruder offsets
G1 X125 Y-70 Z30 F9000 ; move to wait position off table
G130 X20 Y20 Z20 A20 B20 ; lower stepper Vrefs while heating
M127
M140 S110 T0
M134 T0 ; stabilize bed temperature
M104 S223 T0
M133 T0 ; stabilize extruder temperature
G130 X127 Y127 Z40 A127 B127 ; default stepper Vrefs
G92 A0 B0 ; zero extruders
G1 Z0.4 ; position nozzle
G1 E25 F300 ; purge nozzle
G1 X115 Y-70 Z0.15 F1200 ; slow wipe
G1 X110 Y-70 Z0.5 F1200 ; lift
G92 A0 B0 ; zero extruders
M73 P1 ;@body (notify GPX body has started)
; **** end of start.gcode ****
G1 E-1.0000 F1200
G1 Z0.257 F900
; layer 1, Z = 0.25713
M135 T0
; tool H0.286 W0.400
; skirt
G1 X11.543 Y0.350 F4200
G1 E1.0000 F360
G1 X11.600 Y0.488 E0.0068 F1800
G1 X11.600 Y17.511 E0.7684
G1 X11.509 Y17.732 E0.0108
G1 X5.482 Y23.759 E0.3847
G1 X5.261 Y23.850 E0.0108
G1 X-5.491 Y23.850 E0.4853
G1 X-5.576 Y23.838 E0.0039
G1 X-8.435 Y22.992 E0.1346
G1 X-8.513 Y22.956 E0.0039
G1 X-12.428 Y20.420 E0.2105
G1 X-12.450 Y20.404 E0.0012
G1 X-13.184 Y19.828 E0.0421
G1 X-13.204 Y19.810 E0.0012
G1 X-15.853 Y17.313 E0.1643
G1 X-15.872 Y17.293 E0.0012
G1 X-16.490 Y16.594 E0.0421
G1 X-16.507 Y16.573 E0.0012
G1 X-18.663 Y13.640 E0.1643
G1 X-18.678 Y13.617 E0.0012
G1 X-19.160 Y12.818 E0.0421
G1 X-19.173 Y12.794 E0.0012
G1 X-20.765 Y9.521 E0.1643
G1 X-20.776 Y9.496 E0.0012
G1 X-21.107 Y8.623 E0.0421
G1 X-21.115 Y8.597 E0.0012
G1 X-22.092 Y5.090 E0.1643
G1 X-22.098 Y5.064 E0.0012
G1 X-22.266 Y4.146 E0.0421
G1 X-22.270 Y4.119 E0.0012
G1 X-22.599 Y0.494 E0.1643
G1 X-22.600 Y0.467 E0.0012
G1 X-22.600 Y-0.467 E0.0421
G1 X-22.599 Y-0.494 E0.0012
G1 X-22.270 Y-4.119 E0.1643
G1 X-22.266 Y-4.146 E0.0012
G1 X-22.098 Y-5.064 E0.0421
G1 X-22.092 Y-5.090 E0.0012
G1 X-21.115 Y-8.597 E0.1643
G1 X-21.107 Y-8.623 E0.0012
G1 X-20.776 Y-9.496 E0.0421
G1 X-20.765 Y-9.521 E0.0012
G1 X-19.173 Y-12.794 E0.1643
G1 X-19.160 Y-12.818 E0.0012
G1 X-18.678 Y-13.617 E0.0421
G1 X-18.663 Y-13.640 E0.0012
G1 X-16.507 Y-16.573 E0.1643
G1 X-16.490 Y-16.594 E0.0012
G1 X-15.872 Y-17.293 E0.0421
G1 X-15.853 Y-17.313 E0.0012
G1 X-13.204 Y-19.810 E0.1643
G1 X-13.184 Y-19.828 E0.0012
G1 X-12.450 Y-20.404 E0.0421
G1 X-12.428 Y-20.420 E0.0012
G1 X-8.513 Y-22.956 E0.2105
G1 X-8.435 Y-22.992 E0.0039
G1 X-5.576 Y-23.838 E0.1346
G1 X-5.491 Y-23.850 E0.0039
G1 X16.261 Y-23.850 E0.9818
G1 X16.482 Y-23.759 E0.0108
G1 X22.509 Y-17.732 E0.3847
G1 X22.600 Y-17.511 E0.0108
G1 X22.600 Y-5.989 E0.5201
G1 X22.509 Y-5.768 E0.0108
G1 X16.482 Y0.259 E0.3847
G1 X16.261 Y0.350 E0.0108
G1 X11.543 Y0.350 E0.2130
G1 X11.170 Y0.495 F4200
G1 X11.200 Y0.568 E0.0036 F1800
G1 X11.200 Y17.432 E0.7612
G1 X11.170 Y17.505 E0.0036
G1 X5.255 Y23.420 E0.3775
G1 X5.182 Y23.450 E0.0036
G1 X-5.462 Y23.450 E0.4804
G1 X-5.490 Y23.446 E0.0013
G1 X-8.294 Y22.617 E0.1320
G1 X-8.320 Y22.605 E0.0013
G1 X-12.203 Y20.089 E0.2088
G1 X-12.210 Y20.084 E0.0004
G1 X-12.930 Y19.519 E0.0413
G1 X-12.937 Y19.513 E0.0004
G1 X-15.572 Y17.028 E0.1635
G1 X-15.578 Y17.021 E0.0004
G1 X-16.185 Y16.336 E0.0413
G1 X-16.190 Y16.329 E0.0004
G1 X-18.335 Y13.410 E0.1635
G1 X-18.340 Y13.403 E0.0004
G1 X-18.813 Y12.619 E0.0413
G1 X-18.818 Y12.611 E0.0004
G1 X-20.402 Y9.354 E0.1635
G1 X-20.405 Y9.346 E0.0004
G1 X-20.730 Y8.490 E0.0413
G1 X-20.732 Y8.481 E0.0004
G1 X-21.704 Y4.992 E0.1635
G1 X-21.706 Y4.983 E0.0004
G1 X-21.871 Y4.083 E0.0413
G1 X-21.872 Y4.074 E0.0004
G1 X-22.200 Y0.467 E0.1635
G1 X-22.200 Y0.458 E0.0004
G1 X-22.200 Y-0.458 E0.0413
G1 X-22.200 Y-0.467 E0.0004
G1 X-21.872 Y-4.074 E0.1635
G1 X-21.871 Y-4.083 E0.0004
G1 X-21.706 Y-4.983 E0.0413
G1 X-21.704 Y-4.992 E0.0004
G1 X-20.732 Y-8.481 E0.1635
G1 X-20.730 Y-8.490 E0.0004
G1 X-20.405 Y-9.346 E0.0413
G1 X-20.402 Y-9.354 E0.0004
G1 X-18.818 Y-12.611 E0.1635
G1 X-18.813 Y-12.619 E0.0004
G1 X-18.340 Y-13.403 E0.0413
G1 X-18.335 Y-13.410 E0.0004
G1 X-16.190 Y-16.329 E0.1635
G1 X-16.185 Y-16.336 E0.0004
G1 X-15.578 Y-17.021 E0.0413
G1 X-15.572 Y-17.028 E0.0004
G1 X-12.937 Y-19.513 E0.1635
G1 X-12.930 Y-19.519 E0.0004
G1 X-12.210 Y-20.084 E0.0413
G1 X-12.203 Y-20.089 E0.0004
G1 X-8.320 Y-22.605 E0.2088
G1 X-8.294 Y-22.617 E0.0013
G1 X-5.490 Y-23.446 E0.1320
G1 X-5.462 Y-23.450 E0.0013
G1 X16.182 Y-23.450 E0.9769
G1 X16.255 Y-23.420 E0.0036
G1 X22.170 Y-17.505 E0.3775
G1 X22.200 Y-17.432 E0.0036
G1 X22.200 Y-6.068 E0.5129
G1 X22.170 Y-5.995 E0.0036
G1 X16.255 Y-0.080 E0.3775
G1 X16.182 Y-0.050 E0.0036
G1 X10.625 Y-0.050 E0.2508
G1 X11.170 Y0.495 E0.0348
G1 E-1.0000 F1200
; inner perimeter
G1 X11.400 Y-10.850 F4200
G1 E1.0000 F1200
G1 X-2.851 Y-10.850 E0.6432 F1350
G1 X-4.460 Y-7.670 E0.1608
G1 X-5.412 Y-7.076 E0.0507
G1 X-6.405 Y-6.167 E0.0608
G1 X-7.214 Y-5.091 E0.0608
G1 X-7.812 Y-3.885 E0.0607
G1 X-8.179 Y-2.590 E0.0608
G1 X-8.303 Y-1.250 E0.0607
G1 X-8.179 Y0.090 E0.0608
G1 X-7.812 Y1.385 E0.0608
G1 X-7.214 Y2.591 E0.0607
G1 X-6.405 Y3.667 E0.0608
G1 X-5.412 Y4.576 E0.0608
G1 X-4.172 Y5.350 E0.0660
G1 X0.400 Y5.350 E0.2064
G1 X0.400 Y12.650 E0.3295
G1 X-3.823 Y12.650 E0.1906
G1 X-5.900 Y11.304 E0.1117
G1 X-7.791 Y9.521 E0.1173
G1 X-9.329 Y7.428 E0.1173
G1 X-10.466 Y5.091 E0.1173
G1 X-11.163 Y2.588 E0.1173
G1 X-11.398 Y0.000 E0.1173
G1 X-11.163 Y-2.588 E0.1173
G1 X-10.466 Y-5.091 E0.1173
G1 X-9.329 Y-7.428 E0.1173
G1 X-7.791 Y-9.521 E0.1173
G1 X-5.900 Y-11.304 E0.1173
G1 X-3.823 Y-12.650 E0.1117
G1 X11.400 Y-12.650 E0.6871
G1 X11.400 Y-10.850 E0.0812
; outer perimeter
G1 X11.800 Y-10.450 F4200
G1 X-2.605 Y-10.450 E0.6502 F900
G1 X-4.153 Y-7.390 E0.1548
G1 X-5.169 Y-6.756 E0.0541
G1 X-6.107 Y-5.897 E0.0574
G1 X-6.872 Y-4.880 E0.0574
G1 X-7.437 Y-3.740 E0.0574
G1 X-7.784 Y-2.517 E0.0574
G1 X-7.901 Y-1.250 E0.0574
G1 X-7.784 Y0.017 E0.0574
G1 X-7.437 Y1.240 E0.0574
G1 X-6.872 Y2.380 E0.0574
G1 X-6.107 Y3.397 E0.0574
G1 X-5.169 Y4.256 E0.0574
G1 X-4.057 Y4.950 E0.0592
G1 X0.800 Y4.950 E0.2192
G1 X0.800 Y13.050 E0.3656
G1 X-3.941 Y13.050 E0.2140
G1 X-6.148 Y11.620 E0.1187
G1 X-8.091 Y9.787 E0.1206
G1 X-9.673 Y7.635 E0.1206
G1 X-10.841 Y5.233 E0.1206
G1 X-11.558 Y2.660 E0.1206
G1 X-11.799 Y0.000 E0.1206
G1 X-11.558 Y-2.660 E0.1206
G1 X-10.841 Y-5.233 E0.1206
G1 X-9.673 Y-7.635 E0.1206
G1 X-8.091 Y-9.787 E0.1206
G1 X-6.148 Y-11.620 E0.1206
G1 X-3.941 Y-13.050 E0.1187
G1 X11.800 Y-13.050 E0.7105
G1 X11.800 Y-10.450 E0.1174
; solid layer
G1 X11.080 Y-11.646 F4200
G1 X10.604 Y-11.170 E0.0304 F1440
G1 X10.039 Y-11.170 E0.0255
G1 X11.080 Y-12.211 E0.0665
G1 X11.080 Y-12.330 E0.0054
G1 X10.633 Y-12.330 E0.0202
G1 X9.473 Y-11.170 E0.0740
G1 X8.907 Y-11.170 E0.0255
G1 X10.067 Y-12.330 E0.0740
G1 X9.502 Y-12.330 E0.0255
G1 X8.342 Y-11.170 E0.0740
G1 X7.776 Y-11.170 E0.0255
G1 X8.936 Y-12.330 E0.0740
G1 X8.370 Y-12.330 E0.0255
G1 X7.210 Y-11.170 E0.0740
G1 X6.645 Y-11.170 E0.0255
G1 X7.805 Y-12.330 E0.0740
G1 X7.239 Y-12.330 E0.0255
G1 X6.079 Y-11.170 E0.0740
G1 X5.513 Y-11.170 E0.0255
G1 X6.673 Y-12.330 E0.0740
G1 X6.107 Y-12.330 E0.0255
G1 X4.947 Y-11.170 E0.0740
G1 X4.382 Y-11.170 E0.0255
G1 X5.542 Y-12.330 E0.0740
G1 X4.976 Y-12.330 E0.0255
G1 X3.816 Y-11.170 E0.0740
G1 X3.250 Y-11.170 E0.0255
G1 X4.410 Y-12.330 E0.0740
G1 X3.845 Y-12.330 E0.0255
G1 X2.685 Y-11.170 E0.0740
G1 X2.119 Y-11.170 E0.0255
G1 X3.279 Y-12.330 E0.0740
G1 X2.713 Y-12.330 E0.0255
G1 X1.553 Y-11.170 E0.0740
G1 X0.988 Y-11.170 E0.0255
G1 X2.148 Y-12.330 E0.0740
G1 X1.582 Y-12.330 E0.0255
G1 X0.422 Y-11.170 E0.0740
G1 X-0.144 Y-11.170 E0.0255
G1 X1.016 Y-12.330 E0.0740
G1 X0.451 Y-12.330 E0.0255
G1 X-0.709 Y-11.170 E0.0740
G1 X-1.275 Y-11.170 E0.0255
G1 X-0.115 Y-12.330 E0.0740
G1 X-0.681 Y-12.330 E0.0255
G1 X-1.841 Y-11.170 E0.0740
G1 X-2.406 Y-11.170 E0.0255
G1 X-1.246 Y-12.330 E0.0740
G1 X-1.812 Y-12.330 E0.0255
G1 X-2.972 Y-11.170 E0.0740
G1 X-4.284 Y-8.727 F4200
G1 X-6.469 Y-6.542 E0.1395 F1440
G1 X-8.806 Y-7.598 F4200
G1 X-4.713 Y-11.692 E0.2613 F1440
G1 X-3.728 Y-12.330 E0.0530
G1 X-3.509 Y-12.330 E0.0099
G1 X-9.505 Y-6.334 E0.3827
G1 X-10.041 Y-5.233 E0.0553
G1 X-2.943 Y-12.330 E0.4530
G1 X-2.378 Y-12.330 E0.0255
G1 X-10.333 Y-4.375 E0.5078
G1 X-10.551 Y-3.591 E0.0367
G1 X-3.126 Y-11.017 E0.4740
G1 X-3.705 Y-9.872 E0.0579
G1 X-10.769 Y-2.807 E0.4510
G1 X-10.847 Y-2.530 E0.0130
G1 X-10.883 Y-2.128 E0.0182
G1 X-6.687 Y-6.324 E0.2679
G1 X-7.487 Y-5.259 E0.0601
G1 X-7.784 Y-4.661 E0.0301
G1 X-10.940 Y-1.506 E0.2014
G1 X-10.996 Y-0.883 E0.0282
G1 X-8.204 Y-3.676 E0.1782
G1 X-8.427 Y-2.886 E0.0370
G1 X-11.053 Y-0.261 E0.1676
G1 X-11.076 Y0.000 E0.0118
G1 X-11.049 Y0.301 E0.0136
G1 X-8.535 Y-2.213 E0.1605
G1 X-8.593 Y-1.590 E0.0283
G1 X-11.002 Y0.820 E0.1538
G1 X-10.955 Y1.338 E0.0235
G1 X-8.602 Y-1.014 E0.1502
G1 X-8.554 Y-0.497 E0.0235
G1 X-10.908 Y1.857 E0.1502
G1 X-10.861 Y2.375 E0.0235
G1 X-8.506 Y0.021 E0.1503
G1 X-8.495 Y0.149 E0.0058
G1 X-8.401 Y0.481 E0.0156
G1 X-10.760 Y2.840 E0.1506
G1 X-10.637 Y3.283 E0.0207
G1 X-8.276 Y0.922 E0.1507
G1 X-8.151 Y1.362 E0.0207
G1 X-10.514 Y3.725 E0.1508
G1 X-10.390 Y4.168 E0.0207
G1 X-7.983 Y1.760 E0.1537
G1 X-7.795 Y2.138 E0.0191
G1 X-10.267 Y4.610 E0.1578
G1 X-10.165 Y4.977 E0.0172
G1 X-10.133 Y5.042 E0.0033
G1 X-7.608 Y2.516 E0.1612
G1 X-7.487 Y2.760 E0.0122
G1 X-7.400 Y2.875 E0.0065
G1 X-9.948 Y5.423 E0.1626
G1 X-9.763 Y5.803 E0.0191
G1 X-7.158 Y3.198 E0.1663
G1 X-6.915 Y3.521 E0.0182
G1 X-9.578 Y6.184 E0.1700
G1 X-9.393 Y6.565 E0.0191
G1 X-6.672 Y3.844 E0.1737
G1 X-6.643 Y3.883 E0.0022
G1 X-6.383 Y4.120 E0.0159
G1 X-9.208 Y6.945 E0.1803
G1 X-9.054 Y7.261 E0.0159
G1 X-9.014 Y7.317 E0.0031
G1 X-6.088 Y4.391 E0.1867
