; G-Code generated by Simplify3D(R) Version 3.0.2
; May 14, 2016 at 12:28:51 PM
; Settings Summary
;   processName,Process1
;   applyToModels,StepperX_KDraw
;   profileName,3d machtudong (modified)
;   profileVersion,2016-03-30 16:48:23
;   baseProfile,FlashForge Right 60-70 (modified)
;   printMaterial,
;   printQuality,
;   printExtruders,
;   extruderName,Right Extruder,Left Extruder
;   extruderToolheadNumber,0,1
;   extruderDiameter,0.4,0.4
;   extruderAutoWidth,0,0
;   extruderWidth,0.4,0.4
;   extrusionMultiplier,0.95,0.95
;   extruderUseRetract,1,1
;   extruderRetractionDistance,1,1
;   extruderExtraRestartDistance,0,0
;   extruderRetractionZLift,0,0
;   extruderRetractionSpeed,1200,1200
;   extruderUseCoasting,0,0
;   extruderCoastingDistance,0.2,0.2
;   extruderUseWipe,0,0
;   extruderWipeDistance,5,5
;   primaryExtruder,0
;   layerHeight,0.2857
;   topSolidLayers,3
;   bottomSolidLayers,3
;   perimeterOutlines,2
;   printPerimetersInsideOut,1
;   startPointOption,2
;   startPointOriginX,0
;   startPointOriginY,0
;   startPointOriginZ,300
;   sequentialIslands,0
;   spiralVaseMode,0
;   firstLayerHeightPercentage,90
;   firstLayerWidthPercentage,100
;   firstLayerUnderspeed,0.5
;   useRaft,0
;   raftExtruder,0
;   raftLayers,3
;   raftOffset,3
;   raftSeparationDistance,0.14
;   raftInfill,85
;   disableRaftBaseLayers,0
;   useSkirt,1
;   skirtExtruder,0
;   skirtLayers,1
;   skirtOutlines,2
;   skirtOffset,10
;   usePrimePillar,0
;   primePillarExtruder,999
;   primePillarWidth,12
;   primePillarLocation,7
;   primePillarSpeedMultiplier,1
;   useOozeShield,0
;   oozeShieldExtruder,999
;   oozeShieldOffset,2
;   oozeShieldOutlines,1
;   oozeShieldSidewallShape,1
;   oozeShieldSidewallAngle,30
;   oozeShieldSpeedMultiplier,1
;   infillExtruder,0
;   internalInfillPattern,Rectilinear
;   externalInfillPattern,Rectilinear
;   infillPercentage,3
;   outlineOverlapPercentage,20
;   infillExtrusionWidthPercentage,100
;   minInfillLength,5
;   infillLayerInterval,1
;   infillAngles,45,-45
;   overlapInfillAngles,0
;   generateSupport,0
;   supportExtruder,0
;   supportInfillPercentage,30
;   supportExtraInflation,0
;   denseSupportLayers,0
;   denseSupportInfillPercentage,70
;   supportLayerInterval,1
;   supportHorizontalPartOffset,0.3
;   supportUpperSeparationLayers,1
;   supportLowerSeparationLayers,1
;   supportType,0
;   supportGridSpacing,4
;   maxOverhangAngle,45
;   supportAngles,0
;   temperatureName,Right Extruder,Heated Build Platform
;   temperatureNumber,0,0
;   temperatureSetpointCount,1,1
;   temperatureSetpointLayers,1,1
;   temperatureSetpointTemperatures,223,110
;   temperatureStabilizeAtStartup,0,0
;   temperatureHeatedBed,0,1
;   temperatureRelayBetweenLayers,0,0
;   temperatureRelayBetweenLoops,0,0
;   fanLayers,1
;   fanSpeeds,0
;   blipFanToFullPower,0
;   adjustSpeedForCooling,1
;   minSpeedLayerTime,15
;   minCoolingSpeedSlowdown,20
;   increaseFanForCooling,0
;   minFanLayerTime,45
;   maxCoolingFanSpeed,100
;   increaseFanForBridging,1
;   bridgingFanSpeed,100
;   use5D,1
;   relativeEdistances,1
;   allowEaxisZeroing,0
;   independentExtruderAxes,0
;   includeM10123,0
;   stickySupport,1
;   applyToolheadOffsets,0
;   gcodeXoffset,0
;   gcodeYoffset,0
;   gcodeZoffset,0
;   overrideMachineDefinition,1
;   machineTypeOverride,0
;   strokeXoverride,220
;   strokeYoverride,140
;   strokeZoverride,150
;   originOffsetXoverride,110
;   originOffsetYoverride,70
;   originOffsetZoverride,0
;   homeXdirOverride,1
;   homeYdirOverride,1
;   homeZdirOverride,-1
;   flipXoverride,1
;   flipYoverride,-1
;   flipZoverride,1
;   toolheadOffsets,0,0|0,0|0,0|0,0|0,0|0,0
;   overrideFirmwareConfiguration,1
;   firmwareTypeOverride,MakerBot/Sailfish Firmware
;   GPXconfigOverride,r1d
;   baudRateOverride,115200
;   overridePrinterModels,0
;   printerModelsOverride
;   startingGcode,; **** Replicator 1 dual right extruder start.gcode ****,M73 P0 ; enable build progress,G162 X Y F3000 ; home XY maximum,G161 Z F1200 ; home Z minimum,G92 Z-5 ; set Z to -5,G1 Z0 ; move Z to 0,G161 Z F100 ; home Z slowly,M132 X Y Z A B ; recall home offsets,M135 T0 ; load right extruder offsets,G1 X125 Y-70 Z30 F9000 ; move to wait position off table,G130 X20 Y20 Z20 A20 B20 ; lower stepper Vrefs while heating,M126 S[fan_speed_pwm],M140 S[bed0_temperature] T0,M134 T0 ; stabilize bed temperature,M104 S[extruder0_temperature] T0,M133 T0 ; stabilize extruder temperature,G130 X127 Y127 Z40 A127 B127 ; default stepper Vrefs,G92 A0 B0 ; zero extruders,G1 Z0.4 ; position nozzle,G1 E25 F300 ; purge nozzle,G1 X115 Y-70 Z0.15 F1200 ; slow wipe,G1 X110 Y-70 Z0.5 F1200 ; lift,G92 A0 B0 ; zero extruders,M73 P1 ;@body (notify GPX body has started),; **** end of start.gcode ****
;   layerChangeGcode,
;   retractionGcode,
;   toolChangeGcode,
;   endingGcode,(******* End.gcode*******),M109 S0 T0 ( Cool down the build platform ),M104 S0 T0 ( Cool down the Right Extruder ),M104 S0 T1 ( Cool down the Left Extruder ),M73 P100 ( End  build progress ),G0 Z150 ( Send Z axis to bottom of machine ),M18 ( Disable steppers ),G162 X Y F2500 ( Home XY endstops ),M18 ( Disable stepper motors ),M70 P5 ( We <3 Making Things!),M72 P1  ( Play Ta-Da song ),(*********end End.gcode*******)
;   createX3G,1
;   celebration,1
;   celebrationSong,Funky Town
;   createMB5G,0
;   postProcessing,
;   defaultSpeed,3600
;   outlineUnderspeed,0.5
;   solidInfillUnderspeed,0.8
;   supportUnderspeed,0.8
;   rapidXYspeed,4200
;   rapidZspeed,900
;   minBridgingArea,50
;   bridgingExtraInflation,0
;   bridgingExtrusionMultiplier,1
;   bridgingSpeedMultiplier,0.8
;   filamentDiameter,1.75
;   filamentPricePerKg,46
;   filamentDensity,1.25
;   useMinPrintHeight,0
;   minPrintHeight,0
;   useMaxPrintHeight,0
;   maxPrintHeight,0
;   useDiaphragm,0
;   diaphragmLayerInterval,20
;   robustSlicing,1
;   mergeAllIntoSolid,0
;   onlyRetractWhenCrossingOutline,1
;   retractBetweenLayers,1
;   useRetractionMinTravel,0
;   retractionMinTravel,3
;   retractWhileWiping,0
;   onlyWipeOutlines,1
;   avoidCrossingOutline,0
;   maxMovementDetourFactor,3
;   toolChangeRetractionDistance,12
;   toolChangeExtraRestartDistance,-0.5
;   toolChangeRetractionSpeed,600
;   allowThinWallGapFill,1
;   thinWallAllowedOverlapPercentage,10
;   horizontalSizeCompensation,0
G90
M83
; **** Replicator 1 dual right extruder start.gcode ****
M73 P0 ; enable build progress
G162 X Y F3000 ; home XY maximum
G161 Z F1200 ; home Z minimum
G92 Z-5 ; set Z to -5
G1 Z0 ; move Z to 0
G161 Z F100 ; home Z slowly
M132 X Y Z A B ; recall home offsets
M135 T0 ; load right extruder offsets
G1 X125 Y-70 Z30 F9000 ; move to wait position off table
G130 X20 Y20 Z20 A20 B20 ; lower stepper Vrefs while heating
M127
M140 S110 T0
M134 T0 ; stabilize bed temperature
M104 S223 T0
M133 T0 ; stabilize extruder temperature
G130 X127 Y127 Z40 A127 B127 ; default stepper Vrefs
G92 A0 B0 ; zero extruders
G1 Z0.4 ; position nozzle
G1 E25 F300 ; purge nozzle
G1 X115 Y-70 Z0.15 F1200 ; slow wipe
G1 X110 Y-70 Z0.5 F1200 ; lift
G92 A0 B0 ; zero extruders
M73 P1 ;@body (notify GPX body has started)
; **** end of start.gcode ****
G1 E-1.0000 F1200
G1 Z0.257 F900
; layer 1, Z = 0.25713
M135 T0
; tool H0.286 W0.400
; skirt
G1 X26.600 Y-48.707 F4200
G1 E1.0000 F360
G1 X26.600 Y48.707 E4.3969 F1800
G1 X26.509 Y48.927 E0.0108
G1 X20.482 Y54.954 E0.3847
G1 X20.261 Y55.045 E0.0108
G1 X-20.261 Y55.045 E1.8291
G1 X-20.482 Y54.954 E0.0108
G1 X-26.509 Y48.927 E0.3847
G1 X-26.600 Y48.707 E0.0108
G1 X-26.600 Y-48.707 E4.3969
G1 X-26.509 Y-48.927 E0.0108
G1 X-20.482 Y-54.954 E0.3847
G1 X-20.261 Y-55.045 E0.0108
G1 X20.261 Y-55.045 E1.8291
G1 X20.482 Y-54.954 E0.0108
G1 X26.509 Y-48.927 E0.3847
G1 X26.600 Y-48.707 E0.0108
G1 X26.200 Y-48.627 F4200
G1 X26.200 Y48.627 E4.3897 F1800
G1 X26.170 Y48.701 E0.0036
G1 X20.255 Y54.615 E0.3775
G1 X20.182 Y54.645 E0.0036
G1 X-20.182 Y54.645 E1.8219
G1 X-20.255 Y54.615 E0.0036
G1 X-26.170 Y48.701 E0.3775
G1 X-26.200 Y48.627 E0.0036
G1 X-26.200 Y-48.627 E4.3897
G1 X-26.170 Y-48.701 E0.0036
G1 X-20.255 Y-54.615 E0.3775
G1 X-20.182 Y-54.645 E0.0036
G1 X20.182 Y-54.645 E1.8219
G1 X20.255 Y-54.615 E0.0036
G1 X26.170 Y-48.701 E0.3775
G1 X26.200 Y-48.627 E0.0036
G1 E-1.0000 F1200
; inner perimeter
G1 X15.400 Y-43.845 F4200
G1 E1.0000 F1200
G1 X15.400 Y43.845 E3.9581 F1350
G1 X-15.400 Y43.845 E1.3902
G1 X-15.400 Y-43.845 E3.9581
G1 X15.400 Y-43.845 E1.3902
; outer perimeter
G1 X15.800 Y-44.245 F4200
G1 X15.800 Y44.245 E3.9942 F900
G1 X-15.800 Y44.245 E1.4263
G1 X-15.800 Y-44.245 E3.9942
G1 X15.800 Y-44.245 E1.4263
; solid layer
G1 X-15.080 Y-43.186 F4200
G1 X-14.740 Y-43.525 E0.0217 F1440
G1 X-14.175 Y-43.525 E0.0255
G1 X-15.080 Y-42.620 E0.0578
G1 X-15.080 Y-42.054 E0.0255
G1 X-13.609 Y-43.525 E0.0939
G1 X-13.043 Y-43.525 E0.0255
G1 X-15.080 Y-41.489 E0.1300
G1 X-15.080 Y-40.923 E0.0255
G1 X-12.477 Y-43.525 E0.1661
G1 X-11.912 Y-43.525 E0.0255
G1 X-15.080 Y-40.357 E0.2022
G1 X-15.080 Y-39.791 E0.0255
G1 X-11.346 Y-43.525 E0.2383
G1 X-10.780 Y-43.525 E0.0255
G1 X-15.080 Y-39.226 E0.2745
G1 X-15.080 Y-38.660 E0.0255
G1 X-10.215 Y-43.525 E0.3106
G1 X-9.649 Y-43.525 E0.0255
G1 X-15.080 Y-38.094 E0.3467
G1 X-15.080 Y-37.529 E0.0255
G1 X-9.083 Y-43.525 E0.3828
G1 X-8.518 Y-43.525 E0.0255
G1 X-15.080 Y-36.963 E0.4189
G1 X-15.080 Y-36.397 E0.0255
G1 X-7.952 Y-43.525 E0.4550
G1 X-7.386 Y-43.525 E0.0255
G1 X-15.080 Y-35.832 E0.4911
G1 X-15.080 Y-35.266 E0.0255
G1 X-6.821 Y-43.525 E0.5272
G1 X-6.255 Y-43.525 E0.0255
G1 X-15.080 Y-34.700 E0.5633
G1 X-15.080 Y-34.135 E0.0255
G1 X-5.689 Y-43.525 E0.5994
G1 X-5.124 Y-43.525 E0.0255
G1 X-15.080 Y-33.569 E0.6355
G1 X-15.080 Y-33.003 E0.0255
G1 X-4.558 Y-43.525 E0.6717
G1 X-3.992 Y-43.525 E0.0255
G1 X-15.080 Y-32.438 E0.7078
G1 X-15.080 Y-31.872 E0.0255
G1 X-3.427 Y-43.525 E0.7439
G1 X-2.861 Y-43.525 E0.0255
G1 X-15.080 Y-31.306 E0.7800
G1 X-15.080 Y-30.740 E0.0255
G1 X-2.295 Y-43.525 E0.8161
G1 X-1.729 Y-43.525 E0.0255
G1 X-15.080 Y-30.175 E0.8522
G1 X-15.080 Y-29.609 E0.0255
G1 X-1.164 Y-43.525 E0.8883
G1 X-0.598 Y-43.525 E0.0255
G1 X-15.080 Y-29.043 E0.9244
G1 X-15.080 Y-28.478 E0.0255
G1 X-0.032 Y-43.525 E0.9605
G1 X0.533 Y-43.525 E0.0255
G1 X-15.080 Y-27.912 E0.9966
G1 X-15.080 Y-27.346 E0.0255
G1 X1.099 Y-43.525 E1.0327
G1 X1.665 Y-43.525 E0.0255
G1 X-15.080 Y-26.781 E1.0689
G1 X-15.080 Y-26.215 E0.0255
G1 X2.230 Y-43.525 E1.1050
G1 X2.796 Y-43.525 E0.0255
G1 X-15.080 Y-25.649 E1.1411
G1 X-15.080 Y-25.084 E0.0255
G1 X3.362 Y-43.525 E1.1772
G1 X3.927 Y-43.525 E0.0255
G1 X-15.080 Y-24.518 E1.2133
G1 X-15.080 Y-23.952 E0.0255
G1 X4.493 Y-43.525 E1.2494
G1 X5.059 Y-43.525 E0.0255
G1 X-15.080 Y-23.387 E1.2855
G1 X-15.080 Y-22.821 E0.0255
G1 X5.624 Y-43.525 E1.3216
G1 X6.190 Y-43.525 E0.0255
G1 X-15.080 Y-22.255 E1.3577
G1 X-15.080 Y-21.690 E0.0255
G1 X6.756 Y-43.525 E1.3938
G1 X7.322 Y-43.525 E0.0255
G1 X-15.080 Y-21.124 E1.4299
G1 X-15.080 Y-20.558 E0.0255
G1 X7.887 Y-43.525 E1.4661
G1 X8.453 Y-43.525 E0.0255
G1 X-15.080 Y-19.992 E1.5022
G1 X-15.080 Y-19.427 E0.0255
G1 X9.019 Y-43.525 E1.5383
G1 X9.584 Y-43.525 E0.0255
G1 X-15.080 Y-18.861 E1.5744
G1 X-15.080 Y-18.295 E0.0255
G1 X10.150 Y-43.525 E1.6105
G1 X10.716 Y-43.525 E0.0255
G1 X-15.080 Y-17.730 E1.6466
G1 X-15.080 Y-17.164 E0.0255
G1 X11.281 Y-43.525 E1.6827
G1 X11.847 Y-43.525 E0.0255
G1 X-15.080 Y-16.598 E1.7188
G1 X-15.080 Y-16.033 E0.0255
G1 X12.413 Y-43.525 E1.7549
G1 X12.978 Y-43.525 E0.0255
G1 X-15.080 Y-15.467 E1.7910
G1 X-15.080 Y-14.901 E0.0255
G1 X13.544 Y-43.525 E1.8271
G1 X14.110 Y-43.525 E0.0255
G1 X-15.080 Y-14.336 E1.8633
G1 X-15.080 Y-13.770 E0.0255
G1 X14.675 Y-43.525 E1.8994
G1 X15.080 Y-43.525 E0.0183
G1 X15.080 Y-43.364 E0.0073
G1 X-15.080 Y-13.204 E1.9252
G1 X-15.080 Y-12.639 E0.0255
G1 X15.080 Y-42.799 E1.9252
G1 X15.080 Y-42.233 E0.0255
G1 X-15.080 Y-12.073 E1.9252
G1 X-15.080 Y-11.507 E0.0255
G1 X15.080 Y-41.667 E1.9252
G1 X15.080 Y-41.101 E0.0255
G1 X-15.080 Y-10.941 E1.9252
G1 X-15.080 Y-10.376 E0.0255
G1 X15.080 Y-40.536 E1.9252
G1 X15.080 Y-39.970 E0.0255
G1 X-15.080 Y-9.810 E1.9252
G1 X-15.080 Y-9.244 E0.0255
G1 X15.080 Y-39.404 E1.9252
G1 X15.080 Y-38.839 E0.0255
G1 X-15.080 Y-8.679 E1.9252
G1 X-15.080 Y-8.113 E0.0255
G1 X15.080 Y-38.273 E1.9252
G1 X15.080 Y-37.707 E0.0255
G1 X-15.080 Y-7.547 E1.9252
G1 X-15.080 Y-6.982 E0.0255
G1 X15.080 Y-37.142 E1.9252
G1 X15.080 Y-36.576 E0.0255
G1 X-15.080 Y-6.416 E1.9252
G1 X-15.080 Y-5.850 E0.0255
G1 X15.080 Y-36.010 E1.9252
G1 X15.080 Y-35.445 E0.0255
G1 X-15.080 Y-5.285 E1.9252
G1 X-15.080 Y-4.719 E0.0255
G1 X15.080 Y-34.879 E1.9252
G1 X15.080 Y-34.313 E0.0255
G1 X-15.080 Y-4.153 E1.9252
G1 X-15.080 Y-3.588 E0.0255
G1 X15.080 Y-33.748 E1.9252
G1 X15.080 Y-33.182 E0.0255
G1 X-15.080 Y-3.022 E1.9252
G1 X-15.080 Y-2.456 E0.0255
G1 X15.080 Y-32.616 E1.9252
G1 X15.080 Y-32.051 E0.0255
G1 X-15.080 Y-1.891 E1.9252
G1 X-15.080 Y-1.325 E0.0255
G1 X15.080 Y-31.485 E1.9252
G1 X15.080 Y-30.919 E0.0255
G1 X-15.080 Y-0.759 E1.9252
G1 X-15.080 Y-0.193 E0.0255
G1 X15.080 Y-30.353 E1.9252
G1 X15.080 Y-29.788 E0.0255
G1 X-15.080 Y0.372 E1.9252
G1 X-15.080 Y0.938 E0.0255
G1 X15.080 Y-29.222 E1.9252
G1 X15.080 Y-28.656 E0.0255
G1 X-15.080 Y1.504 E1.9252
G1 X-15.080 Y2.069 E0.0255
G1 X15.080 Y-28.091 E1.9252
G1 X15.080 Y-27.525 E0.0255
G1 X-15.080 Y2.635 E1.9252
G1 X-15.080 Y3.201 E0.0255
G1 X15.080 Y-26.959 E1.9252
G1 X15.080 Y-26.394 E0.0255
G1 X-15.080 Y3.766 E1.9252
G1 X-15.080 Y4.332 E0.0255
G1 X15.080 Y-25.828 E1.9252
G1 X15.080 Y-25.262 E0.0255
G1 X-15.080 Y4.898 E1.9252
G1 X-15.080 Y5.463 E0.0255
G1 X15.080 Y-24.697 E1.9252
G1 X15.080 Y-24.131 E0.0255
G1 X-15.080 Y6.029 E1.9252
G1 X-15.080 Y6.595 E0.0255
G1 X15.080 Y-23.565 E1.9252
G1 X15.080 Y-23.000 E0.0255
G1 X-15.080 Y7.160 E1.9252
G1 X-15.080 Y7.726 E0.0255
G1 X15.080 Y-22.434 E1.9252
G1 X15.080 Y-21.868 E0.0255
G1 X-15.080 Y8.292 E1.9252
G1 X-15.080 Y8.857 E0.0255
G1 X15.080 Y-21.303 E1.9252
G1 X15.080 Y-20.737 E0.0255
G1 X-15.080 Y9.423 E1.9252
G1 X-15.080 Y9.989 E0.0255
G1 X15.080 Y-20.171 E1.9252
G1 X15.080 Y-19.605 E0.0255
G1 X-15.080 Y10.555 E1.9252
G1 X-15.080 Y11.120 E0.0255
G1 X15.080 Y-19.040 E1.9252
G1 X15.080 Y-18.474 E0.0255
G1 X-15.080 Y11.686 E1.9252
G1 X-15.080 Y12.252 E0.0255
G1 X15.080 Y-17.908 E1.9252
G1 X15.080 Y-17.343 E0.0255
G1 X-15.080 Y12.817 E1.9252
G1 X-15.080 Y13.383 E0.0255
G1 X15.080 Y-16.777 E1.9252
G1 X15.080 Y-16.211 E0.0255
G1 X-15.080 Y13.949 E1.9252
G1 X-15.080 Y14.514 E0.0255
G1 X15.080 Y-15.646 E1.9252
G1 X15.080 Y-15.080 E0.0255
G1 X-15.080 Y15.080 E1.9252
G1 X-15.080 Y15.646 E0.0255
G1 X15.080 Y-14.514 E1.9252
G1 X15.080 Y-13.949 E0.0255
G1 X-15.080 Y16.211 E1.9252
G1 X-15.080 Y16.777 E0.0255
G1 X15.080 Y-13.383 E1.9252
G1 X15.080 Y-12.817 E0.0255
G1 X-15.080 Y17.343 E1.9252
G1 X-15.080 Y17.908 E0.0255
G1 X15.080 Y-12.252 E1.9252
G1 X15.080 Y-11.686 E0.0255
G1 X-15.080 Y18.474 E1.9252
G1 X-15.080 Y19.040 E0.0255
G1 X15.080 Y-11.120 E1.9252
G1 X15.080 Y-10.554 E0.0255
G1 X-15.080 Y19.606 E1.9252
G1 X-15.080 Y20.171 E0.0255
G1 X15.080 Y-9.989 E1.9252
G1 X15.080 Y-9.423 E0.0255
G1 X-15.080 Y20.737 E1.9252
G1 X-15.080 Y21.303 E0.0255
G1 X15.080 Y-8.857 E1.9252
G1 X15.080 Y-8.292 E0.0255
G1 X-15.080 Y21.868 E1.9252
G1 X-15.080 Y22.434 E0.0255
G1 X15.080 Y-7.726 E1.9252
G1 X15.080 Y-7.160 E0.0255
G1 X-15.080 Y23.000 E1.9252
G1 X-15.080 Y23.565 E0.0255
G1 X15.080 Y-6.595 E1.9252
G1 X15.080 Y-6.029 E0.0255
G1 X-15.080 Y24.131 E1.9252
G1 X-15.080 Y24.697 E0.0255
G1 X15.080 Y-5.463 E1.9252
G1 X15.080 Y-4.898 E0.0255
G1 X-15.080 Y25.262 E1.9252
G1 X-15.080 Y25.828 E0.0255
G1 X15.080 Y-4.332 E1.9252
G1 X15.080 Y-3.766 E0.0255
G1 X-15.080 Y26.394 E1.9252
G1 X-15.080 Y26.959 E0.0255
G1 X15.080 Y-3.201 E1.9252
G1 X15.080 Y-2.635 E0.0255
G1 X-15.080 Y27.525 E1.9252
G1 X-15.080 Y28.091 E0.0255
G1 X15.080 Y-2.069 E1.9252
G1 X15.080 Y-1.504 E0.0255
G1 X-15.080 Y28.656 E1.9252
G1 X-15.080 Y29.222 E0.0255
G1 X15.080 Y-0.938 E1.9252
G1 X15.080 Y-0.372 E0.0255
G1 X-15.080 Y29.788 E1.9252
G1 X-15.080 Y30.354 E0.0255
G1 X15.080 Y0.194 E1.9252
G1 X15.080 Y0.759 E0.0255
