; G-Code generated by Simplify3D(R) Version 3.0.2
; May 14, 2016 at 7:19:19 PM
; Settings Summary
;   processName,Process1
;   applyToModels,StepperY_KDraw
;   profileName,3d machtudong (modified)
;   profileVersion,2016-03-30 16:48:23
;   baseProfile,FlashForge Right 60-70 (modified)
;   printMaterial,
;   printQuality,
;   printExtruders,
;   extruderName,Right Extruder,Left Extruder
;   extruderToolheadNumber,0,1
;   extruderDiameter,0.4,0.4
;   extruderAutoWidth,0,0
;   extruderWidth,0.4,0.4
;   extrusionMultiplier,0.95,0.95
;   extruderUseRetract,1,1
;   extruderRetractionDistance,1,1
;   extruderExtraRestartDistance,0,0
;   extruderRetractionZLift,0,0
;   extruderRetractionSpeed,1200,1200
;   extruderUseCoasting,0,0
;   extruderCoastingDistance,0.2,0.2
;   extruderUseWipe,0,0
;   extruderWipeDistance,5,5
;   primaryExtruder,0
;   layerHeight,0.2857
;   topSolidLayers,3
;   bottomSolidLayers,3
;   perimeterOutlines,2
;   printPerimetersInsideOut,1
;   startPointOption,2
;   startPointOriginX,0
;   startPointOriginY,0
;   startPointOriginZ,300
;   sequentialIslands,0
;   spiralVaseMode,0
;   firstLayerHeightPercentage,90
;   firstLayerWidthPercentage,100
;   firstLayerUnderspeed,0.5
;   useRaft,0
;   raftExtruder,0
;   raftLayers,3
;   raftOffset,3
;   raftSeparationDistance,0.14
;   raftInfill,85
;   disableRaftBaseLayers,0
;   useSkirt,1
;   skirtExtruder,0
;   skirtLayers,1
;   skirtOutlines,2
;   skirtOffset,10
;   usePrimePillar,0
;   primePillarExtruder,999
;   primePillarWidth,12
;   primePillarLocation,7
;   primePillarSpeedMultiplier,1
;   useOozeShield,0
;   oozeShieldExtruder,999
;   oozeShieldOffset,2
;   oozeShieldOutlines,1
;   oozeShieldSidewallShape,1
;   oozeShieldSidewallAngle,30
;   oozeShieldSpeedMultiplier,1
;   infillExtruder,0
;   internalInfillPattern,Rectilinear
;   externalInfillPattern,Rectilinear
;   infillPercentage,3
;   outlineOverlapPercentage,20
;   infillExtrusionWidthPercentage,100
;   minInfillLength,5
;   infillLayerInterval,1
;   infillAngles,45,-45
;   overlapInfillAngles,0
;   generateSupport,0
;   supportExtruder,0
;   supportInfillPercentage,30
;   supportExtraInflation,0
;   denseSupportLayers,0
;   denseSupportInfillPercentage,70
;   supportLayerInterval,1
;   supportHorizontalPartOffset,0.3
;   supportUpperSeparationLayers,1
;   supportLowerSeparationLayers,1
;   supportType,0
;   supportGridSpacing,4
;   maxOverhangAngle,45
;   supportAngles,0
;   temperatureName,Right Extruder,Heated Build Platform
;   temperatureNumber,0,0
;   temperatureSetpointCount,1,1
;   temperatureSetpointLayers,1,1
;   temperatureSetpointTemperatures,223,110
;   temperatureStabilizeAtStartup,0,0
;   temperatureHeatedBed,0,1
;   temperatureRelayBetweenLayers,0,0
;   temperatureRelayBetweenLoops,0,0
;   fanLayers,1
;   fanSpeeds,0
;   blipFanToFullPower,0
;   adjustSpeedForCooling,1
;   minSpeedLayerTime,15
;   minCoolingSpeedSlowdown,20
;   increaseFanForCooling,0
;   minFanLayerTime,45
;   maxCoolingFanSpeed,100
;   increaseFanForBridging,1
;   bridgingFanSpeed,100
;   use5D,1
;   relativeEdistances,1
;   allowEaxisZeroing,0
;   independentExtruderAxes,0
;   includeM10123,0
;   stickySupport,1
;   applyToolheadOffsets,0
;   gcodeXoffset,0
;   gcodeYoffset,0
;   gcodeZoffset,0
;   overrideMachineDefinition,1
;   machineTypeOverride,0
;   strokeXoverride,220
;   strokeYoverride,140
;   strokeZoverride,150
;   originOffsetXoverride,110
;   originOffsetYoverride,70
;   originOffsetZoverride,0
;   homeXdirOverride,1
;   homeYdirOverride,1
;   homeZdirOverride,-1
;   flipXoverride,1
;   flipYoverride,-1
;   flipZoverride,1
;   toolheadOffsets,0,0|0,0|0,0|0,0|0,0|0,0
;   overrideFirmwareConfiguration,1
;   firmwareTypeOverride,MakerBot/Sailfish Firmware
;   GPXconfigOverride,r1d
;   baudRateOverride,115200
;   overridePrinterModels,0
;   printerModelsOverride
;   startingGcode,; **** Replicator 1 dual right extruder start.gcode ****,M73 P0 ; enable build progress,G162 X Y F3000 ; home XY maximum,G161 Z F1200 ; home Z minimum,G92 Z-5 ; set Z to -5,G1 Z0 ; move Z to 0,G161 Z F100 ; home Z slowly,M132 X Y Z A B ; recall home offsets,M135 T0 ; load right extruder offsets,G1 X125 Y-70 Z30 F9000 ; move to wait position off table,G130 X20 Y20 Z20 A20 B20 ; lower stepper Vrefs while heating,M126 S[fan_speed_pwm],M140 S[bed0_temperature] T0,M134 T0 ; stabilize bed temperature,M104 S[extruder0_temperature] T0,M133 T0 ; stabilize extruder temperature,G130 X127 Y127 Z40 A127 B127 ; default stepper Vrefs,G92 A0 B0 ; zero extruders,G1 Z0.4 ; position nozzle,G1 E25 F300 ; purge nozzle,G1 X115 Y-70 Z0.15 F1200 ; slow wipe,G1 X110 Y-70 Z0.5 F1200 ; lift,G92 A0 B0 ; zero extruders,M73 P1 ;@body (notify GPX body has started),; **** end of start.gcode ****
;   layerChangeGcode,
;   retractionGcode,
;   toolChangeGcode,
;   endingGcode,(******* End.gcode*******),M109 S0 T0 ( Cool down the build platform ),M104 S0 T0 ( Cool down the Right Extruder ),M104 S0 T1 ( Cool down the Left Extruder ),M73 P100 ( End  build progress ),G0 Z150 ( Send Z axis to bottom of machine ),M18 ( Disable steppers ),G162 X Y F2500 ( Home XY endstops ),M18 ( Disable stepper motors ),M70 P5 ( We <3 Making Things!),M72 P1  ( Play Ta-Da song ),(*********end End.gcode*******)
;   createX3G,1
;   celebration,1
;   celebrationSong,Funky Town
;   createMB5G,0
;   postProcessing,
;   defaultSpeed,3600
;   outlineUnderspeed,0.5
;   solidInfillUnderspeed,0.8
;   supportUnderspeed,0.8
;   rapidXYspeed,4200
;   rapidZspeed,900
;   minBridgingArea,50
;   bridgingExtraInflation,0
;   bridgingExtrusionMultiplier,1
;   bridgingSpeedMultiplier,0.8
;   filamentDiameter,1.75
;   filamentPricePerKg,46
;   filamentDensity,1.25
;   useMinPrintHeight,0
;   minPrintHeight,0
;   useMaxPrintHeight,0
;   maxPrintHeight,0
;   useDiaphragm,0
;   diaphragmLayerInterval,20
;   robustSlicing,1
;   mergeAllIntoSolid,0
;   onlyRetractWhenCrossingOutline,1
;   retractBetweenLayers,1
;   useRetractionMinTravel,0
;   retractionMinTravel,3
;   retractWhileWiping,0
;   onlyWipeOutlines,1
;   avoidCrossingOutline,0
;   maxMovementDetourFactor,3
;   toolChangeRetractionDistance,12
;   toolChangeExtraRestartDistance,-0.5
;   toolChangeRetractionSpeed,600
;   allowThinWallGapFill,1
;   thinWallAllowedOverlapPercentage,10
;   horizontalSizeCompensation,0
G90
M83
; **** Replicator 1 dual right extruder start.gcode ****
M73 P0 ; enable build progress
G162 X Y F3000 ; home XY maximum
G161 Z F1200 ; home Z minimum
G92 Z-5 ; set Z to -5
G1 Z0 ; move Z to 0
G161 Z F100 ; home Z slowly
M132 X Y Z A B ; recall home offsets
M135 T0 ; load right extruder offsets
G1 X125 Y-70 Z30 F9000 ; move to wait position off table
G130 X20 Y20 Z20 A20 B20 ; lower stepper Vrefs while heating
M127
M140 S110 T0
M134 T0 ; stabilize bed temperature
M104 S223 T0
M133 T0 ; stabilize extruder temperature
G130 X127 Y127 Z40 A127 B127 ; default stepper Vrefs
G92 A0 B0 ; zero extruders
G1 Z0.4 ; position nozzle
G1 E25 F300 ; purge nozzle
G1 X115 Y-70 Z0.15 F1200 ; slow wipe
G1 X110 Y-70 Z0.5 F1200 ; lift
G92 A0 B0 ; zero extruders
M73 P1 ;@body (notify GPX body has started)
; **** end of start.gcode ****
G1 E-1.0000 F1200
G1 Z0.257 F900
; layer 1, Z = 0.25713
M135 T0
; tool H0.286 W0.400
; skirt
G1 X36.780 Y13.543 F4200
G1 E1.0000 F360
G1 X43.084 Y36.060 E1.0554 F1800
G1 X43.032 Y36.337 E0.0127
G1 X36.859 Y44.475 E0.4610
G1 X36.607 Y44.600 E0.0127
G1 X28.891 Y44.600 E0.3483
G1 X28.547 Y44.944 E0.0219
G1 X28.449 Y45.009 E0.0053
G1 X24.664 Y46.577 E0.1849
G1 X24.548 Y46.600 E0.0053
G1 X-37.341 Y46.600 E2.7935
G1 X-60.439 Y56.417 E1.1328
G1 X-60.740 Y56.389 E0.0136
G1 X-69.957 Y50.292 E0.4988
G1 X-70.100 Y50.026 E0.0136
G1 X-70.100 Y-50.026 E4.5160
G1 X-69.957 Y-50.292 E0.0136
G1 X-60.740 Y-56.389 E0.4988
G1 X-60.439 Y-56.417 E0.0136
G1 X-37.341 Y-46.600 E1.1328
G1 X24.548 Y-46.600 E2.7935
G1 X24.664 Y-46.577 E0.0053
G1 X28.449 Y-45.009 E0.1849
G1 X28.547 Y-44.944 E0.0053
G1 X28.891 Y-44.600 E0.0219
G1 X36.607 Y-44.600 E0.3483
G1 X36.721 Y-44.543 E0.0057
G1 X63.761 Y-44.543 E1.2205
G1 X63.982 Y-44.452 E0.0108
G1 X70.009 Y-38.425 E0.3847
G1 X70.100 Y-38.205 E0.0108
G1 X70.100 Y7.205 E2.0496
G1 X70.009 Y7.425 E0.0108
G1 X63.982 Y13.452 E0.3847
G1 X63.761 Y13.543 E0.0108
G1 X36.780 Y13.543 E1.2179
G1 X36.252 Y13.143 F4200
G1 X42.674 Y36.077 E1.0750 F1800
G1 X42.656 Y36.170 E0.0042
G1 X36.597 Y44.158 E0.4526
G1 X36.513 Y44.200 E0.0042
G1 X28.725 Y44.200 E0.3515
G1 X28.292 Y44.633 E0.0276
G1 X28.259 Y44.655 E0.0018
G1 X24.547 Y46.192 E0.1813
G1 X24.509 Y46.200 E0.0018
G1 X-37.422 Y46.200 E2.7954
G1 X-60.503 Y56.009 E1.1320
G1 X-60.603 Y56.000 E0.0045
G1 X-69.652 Y50.014 E0.4897
G1 X-69.700 Y49.925 E0.0045
G1 X-69.700 Y-49.925 E4.5069
G1 X-69.652 Y-50.014 E0.0045
G1 X-60.603 Y-56.000 E0.4897
G1 X-60.503 Y-56.009 E0.0045
G1 X-37.422 Y-46.200 E1.1320
G1 X24.509 Y-46.200 E2.7954
G1 X24.547 Y-46.192 E0.0018
G1 X28.259 Y-44.655 E0.1813
G1 X28.292 Y-44.633 E0.0018
G1 X28.725 Y-44.200 E0.0276
G1 X36.513 Y-44.200 E0.3515
G1 X36.597 Y-44.158 E0.0042
G1 X36.609 Y-44.143 E0.0008
G1 X63.682 Y-44.143 E1.2220
G1 X63.755 Y-44.113 E0.0036
G1 X69.670 Y-38.199 E0.3775
G1 X69.700 Y-38.125 E0.0036
G1 X69.700 Y7.125 E2.0425
G1 X69.670 Y7.199 E0.0036
G1 X63.755 Y13.113 E0.3775
G1 X63.682 Y13.143 E0.0036
G1 X36.252 Y13.143 E1.2381
G1 E-1.0000 F1200
; inner perimeter
G1 X35.100 Y2.343 F4200
G1 E1.0000 F1200
G1 X35.100 Y-33.343 E1.6108 F1350
G1 X58.900 Y-33.343 E1.0742
G1 X58.900 Y2.343 E1.6108
G1 X35.100 Y2.343 E1.0742
; outer perimeter
G1 X34.700 Y2.743 F4200
G1 X34.700 Y-33.743 E1.6469 F900
G1 X59.300 Y-33.743 E1.1104
G1 X59.300 Y2.743 E1.6469
G1 X34.700 Y2.743 E1.1104
; inner perimeter
G1 X46.458 Y-13.466 F4200
G1 X47.003 Y-13.395 E0.0248 F1350
G1 X47.548 Y-13.468 E0.0248
G1 X48.055 Y-13.679 E0.0248
G1 X48.490 Y-14.014 E0.0248
G1 X48.823 Y-14.448 E0.0247
G1 X49.034 Y-14.958 E0.0249
G1 X49.105 Y-15.503 E0.0248
G1 X49.033 Y-16.045 E0.0247
G1 X48.821 Y-16.555 E0.0249
G1 X48.489 Y-16.989 E0.0247
G1 X48.053 Y-17.323 E0.0248
G1 X47.545 Y-17.533 E0.0248
G1 X47.000 Y-17.605 E0.0248
G1 X46.458 Y-17.534 E0.0247
G1 X45.947 Y-17.323 E0.0249
G1 X45.509 Y-16.986 E0.0250
G1 X45.175 Y-16.550 E0.0248
G1 X44.966 Y-16.042 E0.0248
G1 X44.895 Y-15.500 E0.0247
G1 X44.968 Y-14.952 E0.0249
G1 X45.177 Y-14.447 E0.0247
G1 X45.514 Y-14.009 E0.0249
G1 X45.950 Y-13.675 E0.0248
G1 X46.458 Y-13.466 E0.0248
; outer perimeter
G1 X46.562 Y-13.856 F4200
G1 X47.003 Y-13.799 E0.0200 F900
G1 X47.443 Y-13.857 E0.0200
G1 X47.853 Y-14.028 E0.0200
G1 X48.205 Y-14.299 E0.0200
G1 X48.474 Y-14.649 E0.0199
G1 X48.644 Y-15.062 E0.0202
G1 X48.701 Y-15.503 E0.0200
G1 X48.644 Y-15.941 E0.0199
G1 X48.472 Y-16.353 E0.0202
G1 X48.203 Y-16.703 E0.0199
G1 X47.851 Y-16.974 E0.0201
G1 X47.440 Y-17.144 E0.0201
G1 X47.000 Y-17.202 E0.0201
G1 X46.562 Y-17.144 E0.0199
G1 X46.149 Y-16.974 E0.0202
G1 X45.795 Y-16.701 E0.0202
G1 X45.525 Y-16.348 E0.0200
G1 X45.356 Y-15.938 E0.0200
G1 X45.298 Y-15.500 E0.0199
G1 X45.357 Y-15.057 E0.0202
G1 X45.526 Y-14.649 E0.0199
G1 X45.799 Y-14.295 E0.0202
G1 X46.152 Y-14.025 E0.0200
G1 X46.562 Y-13.856 E0.0200
G1 E-1.0000 F1200
; solid layer
G1 X49.425 Y-15.484 F4200
G1 E1.0000 F1200
G1 X58.580 Y-24.639 E0.5844 F1440
G1 X58.580 Y-25.205 E0.0255
G1 X49.364 Y-15.988 E0.5883
G1 X49.345 Y-16.129 E0.0064
G1 X49.226 Y-16.416 E0.0140
G1 X58.580 Y-25.770 E0.5971
G1 X58.580 Y-26.336 E0.0255
G1 X49.040 Y-16.796 E0.6090
G1 X48.794 Y-17.116 E0.0182
G1 X58.580 Y-26.902 E0.6246
G1 X58.580 Y-27.467 E0.0255
G1 X48.498 Y-17.385 E0.6436
G1 X48.214 Y-17.603 E0.0161
G1 X48.168 Y-17.621 E0.0022
G1 X58.580 Y-28.033 E0.6646
G1 X58.580 Y-28.599 E0.0255
G1 X47.769 Y-17.787 E0.6901
G1 X47.628 Y-17.845 E0.0068
G1 X47.304 Y-17.888 E0.0148
G1 X58.580 Y-29.164 E0.7198
G1 X58.580 Y-29.730 E0.0255
G1 X46.744 Y-17.894 E0.7555
G1 X35.420 Y-32.592 F4200
G1 X35.852 Y-33.023 E0.0276 F1440
G1 X36.418 Y-33.023 E0.0255
G1 X35.420 Y-32.026 E0.0637
G1 X35.420 Y-31.460 E0.0255
G1 X36.983 Y-33.023 E0.0998
G1 X37.549 Y-33.023 E0.0255
G1 X35.420 Y-30.894 E0.1359
G1 X35.420 Y-30.329 E0.0255
G1 X38.115 Y-33.023 E0.1720
G1 X38.680 Y-33.023 E0.0255
G1 X35.420 Y-29.763 E0.2081
G1 X35.420 Y-29.197 E0.0255
G1 X39.246 Y-33.023 E0.2442
G1 X39.812 Y-33.023 E0.0255
G1 X35.420 Y-28.632 E0.2803
G1 X35.420 Y-28.066 E0.0255
G1 X40.377 Y-33.023 E0.3164
G1 X40.943 Y-33.023 E0.0255
G1 X35.420 Y-27.500 E0.3525
G1 X35.420 Y-26.935 E0.0255
G1 X41.509 Y-33.023 E0.3887
G1 X42.074 Y-33.023 E0.0255
G1 X35.420 Y-26.369 E0.4248
G1 X35.420 Y-25.803 E0.0255
G1 X42.640 Y-33.023 E0.4609
G1 X43.206 Y-33.023 E0.0255
G1 X35.420 Y-25.238 E0.4970
G1 X35.420 Y-24.672 E0.0255
G1 X43.771 Y-33.023 E0.5331
G1 X44.337 Y-33.023 E0.0255
G1 X35.420 Y-24.106 E0.5692
G1 X35.420 Y-23.541 E0.0255
G1 X44.903 Y-33.023 E0.6053
G1 X45.468 Y-33.023 E0.0255
G1 X35.420 Y-22.975 E0.6414
G1 X35.420 Y-22.409 E0.0255
G1 X46.034 Y-33.023 E0.6775
G1 X46.600 Y-33.023 E0.0255
G1 X35.420 Y-21.844 E0.7136
G1 X35.420 Y-21.278 E0.0255
G1 X47.166 Y-33.023 E0.7497
G1 X47.731 Y-33.023 E0.0255
G1 X35.420 Y-20.712 E0.7859
G1 X35.420 Y-20.146 E0.0255
G1 X48.297 Y-33.023 E0.8220
G1 X48.863 Y-33.023 E0.0255
G1 X35.420 Y-19.581 E0.8581
G1 X35.420 Y-19.015 E0.0255
G1 X49.428 Y-33.023 E0.8942
G1 X49.994 Y-33.023 E0.0255
G1 X35.420 Y-18.449 E0.9303
G1 X35.420 Y-17.884 E0.0255
G1 X50.560 Y-33.023 E0.9664
G1 X51.125 Y-33.023 E0.0255
G1 X35.420 Y-17.318 E1.0025
G1 X35.420 Y-16.752 E0.0255
G1 X51.691 Y-33.023 E1.0386
G1 X52.257 Y-33.023 E0.0255
G1 X35.420 Y-16.187 E1.0747
G1 X35.420 Y-15.621 E0.0255
G1 X52.822 Y-33.023 E1.1108
G1 X53.388 Y-33.023 E0.0255
G1 X35.420 Y-15.055 E1.1470
G1 X35.420 Y-14.490 E0.0255
G1 X53.954 Y-33.023 E1.1831
G1 X54.519 Y-33.023 E0.0255
G1 X35.420 Y-13.924 E1.2192
G1 X35.420 Y-13.358 E0.0255
G1 X55.085 Y-33.023 E1.2553
G1 X55.651 Y-33.023 E0.0255
G1 X35.420 Y-12.793 E1.2914
G1 X35.420 Y-12.227 E0.0255
G1 X56.217 Y-33.023 E1.3275
G1 X56.782 Y-33.023 E0.0255
G1 X35.420 Y-11.661 E1.3636
G1 X35.420 Y-11.095 E0.0255
G1 X57.348 Y-33.023 E1.3997
G1 X57.914 Y-33.023 E0.0255
G1 X35.420 Y-10.530 E1.4358
G1 X35.420 Y-9.964 E0.0255
G1 X58.479 Y-33.023 E1.4719
G1 X58.580 Y-33.023 E0.0045
G1 X58.580 Y-32.558 E0.0210
G1 X35.420 Y-9.398 E1.4784
G1 X35.420 Y-8.833 E0.0255
G1 X58.580 Y-31.993 E1.4784
G1 X58.580 Y-31.427 E0.0255
G1 X35.420 Y-8.267 E1.4784
G1 X35.420 Y-7.701 E0.0255
G1 X58.580 Y-30.861 E1.4784
G1 X58.580 Y-30.296 E0.0255
G1 X45.958 Y-17.674 E0.8057
G1 X45.786 Y-17.603 E0.0084
G1 X45.281 Y-17.214 E0.0288
G1 X44.896 Y-16.710 E0.0286
G1 X44.826 Y-16.542 E0.0082
G1 X35.420 Y-7.136 E0.6004
G1 X35.420 Y-6.570 E0.0255
G1 X44.606 Y-15.756 E0.5863
G1 X44.572 Y-15.499 E0.0117
G1 X44.612 Y-15.197 E0.0138
G1 X35.420 Y-6.004 E0.5868
G1 X35.420 Y-5.439 E0.0255
G1 X44.713 Y-14.731 E0.5932
G1 X44.879 Y-14.331 E0.0195
G1 X35.420 Y-4.873 E0.6038
G1 X35.420 Y-4.307 E0.0255
G1 X45.115 Y-14.003 E0.6189
G1 X45.286 Y-13.781 E0.0126
G1 X45.384 Y-13.706 E0.0056
G1 X35.420 Y-3.742 E0.6360
G1 X35.420 Y-3.176 E0.0255
G1 X45.705 Y-13.461 E0.6565
G1 X45.789 Y-13.396 E0.0048
G1 X46.084 Y-13.274 E0.0144
G1 X35.420 Y-2.610 E0.6807
G1 X35.420 Y-2.045 E0.0255
G1 X46.512 Y-13.136 E0.7080
G1 X47.004 Y-13.072 E0.0224
G1 X47.015 Y-13.074 E0.0005
G1 X35.420 Y-1.479 E0.7401
G1 X35.420 Y-0.913 E0.0255
G1 X47.685 Y-13.178 E0.7829
G1 X48.217 Y-13.400 E0.0260
G1 X48.719 Y-13.786 E0.0286
G1 X49.103 Y-14.287 E0.0285
G1 X49.320 Y-14.814 E0.0257
G1 X58.580 Y-24.073 E0.5911
G1 X58.580 Y-23.507 E0.0255
G1 X35.420 Y-0.347 E1.4784
G1 X35.420 Y0.218 E0.0255
G1 X58.580 Y-22.942 E1.4784
G1 X58.580 Y-22.376 E0.0255
G1 X35.420 Y0.784 E1.4784
G1 X35.420 Y1.350 E0.0255
G1 X58.580 Y-21.810 E1.4784
G1 X58.580 Y-21.245 E0.0255
G1 X35.420 Y1.915 E1.4784
G1 X35.420 Y2.023 E0.0049
G1 X35.878 Y2.023 E0.0207
G1 X58.580 Y-20.679 E1.4492
G1 X58.580 Y-20.113 E0.0255
G1 X36.443 Y2.023 E1.4130
G1 X37.009 Y2.023 E0.0255
G1 X58.580 Y-19.548 E1.3769
G1 X58.580 Y-18.982 E0.0255
G1 X37.575 Y2.023 E1.3408
G1 X38.140 Y2.023 E0.0255
G1 X58.580 Y-18.416 E1.3047
G1 X58.580 Y-17.851 E0.0255
G1 X38.706 Y2.023 E1.2686
