; G-Code generated by Simplify3D(R) Version 3.0.2
; May 14, 2016 at 11:21:13 AM
; Settings Summary
;   processName,Process1
;   applyToModels,StepperX_AdapterToKdraw
;   profileName,3d machtudong (modified)
;   profileVersion,2016-03-30 16:48:23
;   baseProfile,FlashForge Right 60-70 (modified)
;   printMaterial,
;   printQuality,
;   printExtruders,
;   extruderName,Right Extruder,Left Extruder
;   extruderToolheadNumber,0,1
;   extruderDiameter,0.4,0.4
;   extruderAutoWidth,0,0
;   extruderWidth,0.4,0.4
;   extrusionMultiplier,0.95,0.95
;   extruderUseRetract,1,1
;   extruderRetractionDistance,1,1
;   extruderExtraRestartDistance,0,0
;   extruderRetractionZLift,0,0
;   extruderRetractionSpeed,1200,1200
;   extruderUseCoasting,0,0
;   extruderCoastingDistance,0.2,0.2
;   extruderUseWipe,0,0
;   extruderWipeDistance,5,5
;   primaryExtruder,0
;   layerHeight,0.2857
;   topSolidLayers,3
;   bottomSolidLayers,3
;   perimeterOutlines,2
;   printPerimetersInsideOut,1
;   startPointOption,2
;   startPointOriginX,0
;   startPointOriginY,0
;   startPointOriginZ,300
;   sequentialIslands,0
;   spiralVaseMode,0
;   firstLayerHeightPercentage,90
;   firstLayerWidthPercentage,100
;   firstLayerUnderspeed,0.5
;   useRaft,0
;   raftExtruder,0
;   raftLayers,3
;   raftOffset,3
;   raftSeparationDistance,0.14
;   raftInfill,85
;   disableRaftBaseLayers,0
;   useSkirt,1
;   skirtExtruder,0
;   skirtLayers,1
;   skirtOutlines,2
;   skirtOffset,10
;   usePrimePillar,0
;   primePillarExtruder,999
;   primePillarWidth,12
;   primePillarLocation,7
;   primePillarSpeedMultiplier,1
;   useOozeShield,0
;   oozeShieldExtruder,999
;   oozeShieldOffset,2
;   oozeShieldOutlines,1
;   oozeShieldSidewallShape,1
;   oozeShieldSidewallAngle,30
;   oozeShieldSpeedMultiplier,1
;   infillExtruder,0
;   internalInfillPattern,Rectilinear
;   externalInfillPattern,Rectilinear
;   infillPercentage,3
;   outlineOverlapPercentage,20
;   infillExtrusionWidthPercentage,100
;   minInfillLength,5
;   infillLayerInterval,1
;   infillAngles,45,-45
;   overlapInfillAngles,0
;   generateSupport,0
;   supportExtruder,0
;   supportInfillPercentage,30
;   supportExtraInflation,0
;   denseSupportLayers,0
;   denseSupportInfillPercentage,70
;   supportLayerInterval,1
;   supportHorizontalPartOffset,0.3
;   supportUpperSeparationLayers,1
;   supportLowerSeparationLayers,1
;   supportType,0
;   supportGridSpacing,4
;   maxOverhangAngle,45
;   supportAngles,0
;   temperatureName,Right Extruder,Heated Build Platform
;   temperatureNumber,0,0
;   temperatureSetpointCount,1,1
;   temperatureSetpointLayers,1,1
;   temperatureSetpointTemperatures,223,110
;   temperatureStabilizeAtStartup,0,0
;   temperatureHeatedBed,0,1
;   temperatureRelayBetweenLayers,0,0
;   temperatureRelayBetweenLoops,0,0
;   fanLayers,1
;   fanSpeeds,0
;   blipFanToFullPower,0
;   adjustSpeedForCooling,1
;   minSpeedLayerTime,15
;   minCoolingSpeedSlowdown,20
;   increaseFanForCooling,0
;   minFanLayerTime,45
;   maxCoolingFanSpeed,100
;   increaseFanForBridging,1
;   bridgingFanSpeed,100
;   use5D,1
;   relativeEdistances,1
;   allowEaxisZeroing,0
;   independentExtruderAxes,0
;   includeM10123,0
;   stickySupport,1
;   applyToolheadOffsets,0
;   gcodeXoffset,0
;   gcodeYoffset,0
;   gcodeZoffset,0
;   overrideMachineDefinition,1
;   machineTypeOverride,0
;   strokeXoverride,220
;   strokeYoverride,140
;   strokeZoverride,150
;   originOffsetXoverride,110
;   originOffsetYoverride,70
;   originOffsetZoverride,0
;   homeXdirOverride,1
;   homeYdirOverride,1
;   homeZdirOverride,-1
;   flipXoverride,1
;   flipYoverride,-1
;   flipZoverride,1
;   toolheadOffsets,0,0|0,0|0,0|0,0|0,0|0,0
;   overrideFirmwareConfiguration,1
;   firmwareTypeOverride,MakerBot/Sailfish Firmware
;   GPXconfigOverride,r1d
;   baudRateOverride,115200
;   overridePrinterModels,0
;   printerModelsOverride
;   startingGcode,; **** Replicator 1 dual right extruder start.gcode ****,M73 P0 ; enable build progress,G162 X Y F3000 ; home XY maximum,G161 Z F1200 ; home Z minimum,G92 Z-5 ; set Z to -5,G1 Z0 ; move Z to 0,G161 Z F100 ; home Z slowly,M132 X Y Z A B ; recall home offsets,M135 T0 ; load right extruder offsets,G1 X125 Y-70 Z30 F9000 ; move to wait position off table,G130 X20 Y20 Z20 A20 B20 ; lower stepper Vrefs while heating,M126 S[fan_speed_pwm],M140 S[bed0_temperature] T0,M134 T0 ; stabilize bed temperature,M104 S[extruder0_temperature] T0,M133 T0 ; stabilize extruder temperature,G130 X127 Y127 Z40 A127 B127 ; default stepper Vrefs,G92 A0 B0 ; zero extruders,G1 Z0.4 ; position nozzle,G1 E25 F300 ; purge nozzle,G1 X115 Y-70 Z0.15 F1200 ; slow wipe,G1 X110 Y-70 Z0.5 F1200 ; lift,G92 A0 B0 ; zero extruders,M73 P1 ;@body (notify GPX body has started),; **** end of start.gcode ****
;   layerChangeGcode,
;   retractionGcode,
;   toolChangeGcode,
;   endingGcode,(******* End.gcode*******),M109 S0 T0 ( Cool down the build platform ),M104 S0 T0 ( Cool down the Right Extruder ),M104 S0 T1 ( Cool down the Left Extruder ),M73 P100 ( End  build progress ),G0 Z150 ( Send Z axis to bottom of machine ),M18 ( Disable steppers ),G162 X Y F2500 ( Home XY endstops ),M18 ( Disable stepper motors ),M70 P5 ( We <3 Making Things!),M72 P1  ( Play Ta-Da song ),(*********end End.gcode*******)
;   createX3G,1
;   celebration,1
;   celebrationSong,Funky Town
;   createMB5G,0
;   postProcessing,
;   defaultSpeed,3600
;   outlineUnderspeed,0.5
;   solidInfillUnderspeed,0.8
;   supportUnderspeed,0.8
;   rapidXYspeed,4200
;   rapidZspeed,900
;   minBridgingArea,50
;   bridgingExtraInflation,0
;   bridgingExtrusionMultiplier,1
;   bridgingSpeedMultiplier,0.8
;   filamentDiameter,1.75
;   filamentPricePerKg,46
;   filamentDensity,1.25
;   useMinPrintHeight,0
;   minPrintHeight,0
;   useMaxPrintHeight,0
;   maxPrintHeight,0
;   useDiaphragm,0
;   diaphragmLayerInterval,20
;   robustSlicing,1
;   mergeAllIntoSolid,0
;   onlyRetractWhenCrossingOutline,1
;   retractBetweenLayers,1
;   useRetractionMinTravel,0
;   retractionMinTravel,3
;   retractWhileWiping,0
;   onlyWipeOutlines,1
;   avoidCrossingOutline,0
;   maxMovementDetourFactor,3
;   toolChangeRetractionDistance,12
;   toolChangeExtraRestartDistance,-0.5
;   toolChangeRetractionSpeed,600
;   allowThinWallGapFill,1
;   thinWallAllowedOverlapPercentage,10
;   horizontalSizeCompensation,0
G90
M83
; **** Replicator 1 dual right extruder start.gcode ****
M73 P0 ; enable build progress
G162 X Y F3000 ; home XY maximum
G161 Z F1200 ; home Z minimum
G92 Z-5 ; set Z to -5
G1 Z0 ; move Z to 0
G161 Z F100 ; home Z slowly
M132 X Y Z A B ; recall home offsets
M135 T0 ; load right extruder offsets
G1 X125 Y-70 Z30 F9000 ; move to wait position off table
G130 X20 Y20 Z20 A20 B20 ; lower stepper Vrefs while heating
M127
M140 S110 T0
M134 T0 ; stabilize bed temperature
M104 S223 T0
M133 T0 ; stabilize extruder temperature
G130 X127 Y127 Z40 A127 B127 ; default stepper Vrefs
G92 A0 B0 ; zero extruders
G1 Z0.4 ; position nozzle
G1 E25 F300 ; purge nozzle
G1 X115 Y-70 Z0.15 F1200 ; slow wipe
G1 X110 Y-70 Z0.5 F1200 ; lift
G92 A0 B0 ; zero extruders
M73 P1 ;@body (notify GPX body has started)
; **** end of start.gcode ****
G1 E-1.0000 F1200
G1 Z0.257 F900
; layer 1, Z = 0.25713
M135 T0
; tool H0.286 W0.400
; skirt
G1 X26.600 Y0.000 F4200
G1 E1.0000 F360
G1 X31.451 Y3.063 E0.2589 F1800
G1 X31.600 Y3.333 E0.0139
G1 X31.600 Y40.261 E1.6668
G1 X31.509 Y40.482 E0.0108
G1 X25.482 Y46.509 E0.3847
G1 X25.261 Y46.600 E0.0108
G1 X11.739 Y46.600 E0.6104
G1 X11.518 Y46.509 E0.0108
G1 X5.491 Y40.482 E0.3847
G1 X5.400 Y40.261 E0.0108
G1 X5.400 Y31.600 E0.3909
G1 X-20.548 Y31.600 E1.1712
G1 X-20.664 Y31.577 E0.0053
G1 X-24.449 Y30.009 E0.1849
G1 X-24.547 Y29.944 E0.0053
G1 X-29.944 Y24.547 E0.3445
G1 X-30.009 Y24.449 E0.0053
G1 X-31.577 Y20.664 E0.1849
G1 X-31.600 Y20.548 E0.0053
G1 X-31.600 Y-20.548 E1.8549
G1 X-31.577 Y-20.664 E0.0053
G1 X-30.009 Y-24.449 E0.1849
G1 X-29.944 Y-24.547 E0.0053
G1 X-24.547 Y-29.944 E0.3445
G1 X-24.449 Y-30.009 E0.0053
G1 X-20.664 Y-31.577 E0.1849
G1 X-20.548 Y-31.600 E0.0053
G1 X5.400 Y-31.600 E1.1712
G1 X5.400 Y-40.261 E0.3909
G1 X5.491 Y-40.482 E0.0108
G1 X11.518 Y-46.509 E0.3847
G1 X11.739 Y-46.600 E0.0108
G1 X25.261 Y-46.600 E0.6104
G1 X25.482 Y-46.509 E0.0108
G1 X31.509 Y-40.482 E0.3847
G1 X31.600 Y-40.261 E0.0108
G1 X31.600 Y-3.333 E1.6668
G1 X31.451 Y-3.063 E0.0139
G1 X26.600 Y0.000 E0.2589
G1 X25.851 Y0.000 F4200
G1 X31.150 Y3.346 E0.2829 F1800
G1 X31.200 Y3.436 E0.0046
G1 X31.200 Y40.182 E1.6586
G1 X31.170 Y40.255 E0.0036
G1 X25.255 Y46.170 E0.3775
G1 X25.182 Y46.200 E0.0036
G1 X11.818 Y46.200 E0.6032
G1 X11.745 Y46.170 E0.0036
G1 X5.830 Y40.255 E0.3775
G1 X5.800 Y40.182 E0.0036
G1 X5.800 Y31.200 E0.4054
G1 X-20.509 Y31.200 E1.1875
G1 X-20.547 Y31.192 E0.0018
G1 X-24.259 Y29.655 E0.1813
G1 X-24.292 Y29.633 E0.0018
G1 X-29.633 Y24.292 E0.3409
G1 X-29.655 Y24.259 E0.0018
G1 X-31.192 Y20.547 E0.1813
G1 X-31.200 Y20.509 E0.0018
G1 X-31.200 Y-20.509 E1.8514
G1 X-31.192 Y-20.547 E0.0018
G1 X-29.655 Y-24.259 E0.1813
G1 X-29.633 Y-24.292 E0.0018
G1 X-24.292 Y-29.633 E0.3409
G1 X-24.259 Y-29.655 E0.0018
G1 X-20.547 Y-31.192 E0.1813
G1 X-20.509 Y-31.200 E0.0018
G1 X5.800 Y-31.200 E1.1875
G1 X5.800 Y-40.182 E0.4054
G1 X5.830 Y-40.255 E0.0036
G1 X11.745 Y-46.170 E0.3775
G1 X11.818 Y-46.200 E0.0036
G1 X25.182 Y-46.200 E0.6032
G1 X25.255 Y-46.170 E0.0036
G1 X31.170 Y-40.255 E0.3775
G1 X31.200 Y-40.182 E0.0036
G1 X31.200 Y-3.436 E1.6586
G1 X31.150 Y-3.346 E0.0046
G1 X25.851 Y0.000 E0.2829
G1 E-1.0000 F1200
; inner perimeter
G1 X20.400 Y-9.950 F4200
G1 E1.0000 F1200
G1 X10.636 Y-14.600 E0.4882 F1350
G1 X-0.039 Y-14.600 E0.4818
G1 X-3.780 Y-14.108 E0.1703
G1 X-7.303 Y-12.648 E0.1721
G1 X-10.327 Y-10.327 E0.1721
G1 X-12.648 Y-7.303 E0.1721
G1 X-14.108 Y-3.780 E0.1721
G1 X-14.605 Y0.000 E0.1721
G1 X-14.108 Y3.780 E0.1721
G1 X-12.648 Y7.303 E0.1721
G1 X-10.327 Y10.327 E0.1721
G1 X-7.303 Y12.648 E0.1721
G1 X-3.780 Y14.108 E0.1721
G1 X-0.039 Y14.600 E0.1703
G1 X10.636 Y14.600 E0.4818
G1 X20.400 Y9.950 E0.4882
G1 X20.400 Y35.400 E1.1487
G1 X16.600 Y35.400 E0.1715
G1 X16.600 Y20.400 E0.6770
G1 X-18.251 Y20.400 E1.5731
G1 X-20.400 Y18.251 E0.1371
G1 X-20.400 Y-18.251 E1.6476
G1 X-18.251 Y-20.400 E0.1371
G1 X16.600 Y-20.400 E1.5731
G1 X16.600 Y-35.400 E0.6770
G1 X20.400 Y-35.400 E0.1715
G1 X20.400 Y-9.950 E1.1487
; outer perimeter
G1 X20.800 Y-9.317 F4200
G1 X10.545 Y-14.200 E0.5127 F900
G1 X-0.013 Y-14.200 E0.4766
G1 X-3.676 Y-13.718 E0.1667
G1 X-7.101 Y-12.299 E0.1673
G1 X-10.042 Y-10.042 E0.1673
G1 X-12.299 Y-7.101 E0.1673
G1 X-13.718 Y-3.676 E0.1673
G1 X-14.202 Y0.000 E0.1673
G1 X-13.718 Y3.676 E0.1673
G1 X-12.299 Y7.101 E0.1673
G1 X-10.042 Y10.042 E0.1673
G1 X-7.101 Y12.299 E0.1673
G1 X-3.676 Y13.718 E0.1673
G1 X-0.013 Y14.200 E0.1667
G1 X10.545 Y14.200 E0.4766
G1 X20.800 Y9.317 E0.5127
G1 X20.800 Y35.800 E1.1954
G1 X16.200 Y35.800 E0.2076
G1 X16.200 Y20.800 E0.6770
G1 X-18.417 Y20.800 E1.5625
G1 X-20.800 Y18.417 E0.1521
G1 X-20.800 Y-18.417 E1.6626
G1 X-18.417 Y-20.800 E0.1521
G1 X16.200 Y-20.800 E1.5625
G1 X16.200 Y-35.800 E0.6770
G1 X20.800 Y-35.800 E0.2076
G1 X20.800 Y-9.317 E1.1954
; inner perimeter
G1 X16.534 Y-13.645 F4200
G1 X16.970 Y-13.979 E0.0248 F1350
G1 X17.302 Y-14.412 E0.0246
G1 X17.515 Y-14.922 E0.0250
G1 X17.587 Y-15.468 E0.0248
G1 X17.515 Y-16.013 E0.0248
G1 X17.306 Y-16.516 E0.0246
G1 X16.970 Y-16.956 E0.0250
G1 X16.534 Y-17.291 E0.0248
G1 X16.026 Y-17.501 E0.0248
G1 X15.481 Y-17.573 E0.0248
G1 X14.937 Y-17.501 E0.0248
G1 X14.429 Y-17.291 E0.0248
G1 X13.993 Y-16.956 E0.0248
G1 X13.661 Y-16.524 E0.0246
G1 X13.450 Y-16.017 E0.0248
G1 X13.377 Y-15.473 E0.0248
G1 X13.448 Y-14.924 E0.0250
G1 X13.657 Y-14.419 E0.0246
G1 X13.990 Y-13.983 E0.0248
G1 X14.428 Y-13.645 E0.0250
G1 X14.937 Y-13.434 E0.0248
G1 X15.481 Y-13.363 E0.0248
G1 X16.026 Y-13.434 E0.0248
G1 X16.534 Y-13.645 E0.0248
; outer perimeter
G1 X16.332 Y-13.994 F4200
G1 X16.685 Y-14.264 E0.0201 F900
G1 X16.953 Y-14.614 E0.0199
G1 X17.125 Y-15.027 E0.0202
G1 X17.183 Y-15.468 E0.0201
G1 X17.125 Y-15.908 E0.0201
G1 X16.957 Y-16.315 E0.0199
G1 X16.685 Y-16.671 E0.0202
G1 X16.332 Y-16.941 E0.0201
G1 X15.922 Y-17.111 E0.0201
G1 X15.481 Y-17.169 E0.0201
G1 X15.041 Y-17.111 E0.0201
G1 X14.630 Y-16.941 E0.0201
G1 X14.278 Y-16.671 E0.0201
G1 X14.010 Y-16.322 E0.0199
G1 X13.839 Y-15.912 E0.0200
G1 X13.780 Y-15.472 E0.0200
G1 X13.838 Y-15.027 E0.0202
G1 X14.006 Y-14.620 E0.0199
G1 X14.276 Y-14.268 E0.0200
G1 X14.630 Y-13.994 E0.0202
G1 X15.041 Y-13.824 E0.0201
G1 X15.481 Y-13.766 E0.0201
G1 X15.922 Y-13.824 E0.0201
G1 X16.332 Y-13.994 E0.0201
G1 E-1.0000 F1200
; inner perimeter
G1 X16.579 Y13.694 F4200
G1 E1.0000 F1200
G1 X16.081 Y13.458 E0.0248 F1350
G1 X15.541 Y13.359 E0.0248
G1 X14.993 Y13.403 E0.0248
G1 X14.475 Y13.588 E0.0248
G1 X14.023 Y13.900 E0.0248
G1 X13.670 Y14.315 E0.0246
G1 X13.432 Y14.814 E0.0250
G1 X13.333 Y15.352 E0.0246
G1 X13.376 Y15.899 E0.0248
G1 X13.559 Y16.417 E0.0248
G1 X13.870 Y16.869 E0.0248
G1 X14.291 Y17.229 E0.0250
G1 X14.788 Y17.465 E0.0248
G1 X15.329 Y17.564 E0.0248
G1 X15.877 Y17.520 E0.0248
G1 X16.395 Y17.335 E0.0248
G1 X16.847 Y17.023 E0.0248
G1 X17.200 Y16.608 E0.0246
G1 X17.436 Y16.113 E0.0248
G1 X17.537 Y15.573 E0.0248
G1 X17.494 Y15.025 E0.0248
G1 X17.311 Y14.507 E0.0248
G1 X17.000 Y14.054 E0.0248
G1 X16.579 Y13.694 E0.0250
; outer perimeter
G1 X16.359 Y14.033 F4200
G1 X15.958 Y13.842 E0.0201 F900
G1 X15.521 Y13.762 E0.0201
G1 X15.078 Y13.798 E0.0201
G1 X14.659 Y13.947 E0.0201
G1 X14.294 Y14.199 E0.0201
G1 X14.008 Y14.535 E0.0199
G1 X13.816 Y14.939 E0.0202
G1 X13.736 Y15.372 E0.0199
G1 X13.771 Y15.815 E0.0200
G1 X13.919 Y16.233 E0.0200
G1 X14.170 Y16.600 E0.0200
G1 X14.511 Y16.891 E0.0202
G1 X14.912 Y17.081 E0.0201
G1 X15.349 Y17.161 E0.0201
G1 X15.792 Y17.125 E0.0201
G1 X16.211 Y16.976 E0.0201
G1 X16.576 Y16.724 E0.0201
G1 X16.862 Y16.389 E0.0199
G1 X17.053 Y15.988 E0.0200
G1 X17.134 Y15.551 E0.0200
G1 X17.099 Y15.109 E0.0200
G1 X16.951 Y14.690 E0.0200
G1 X16.700 Y14.324 E0.0200
G1 X16.359 Y14.033 E0.0202
G1 E-1.0000 F1200
; inner perimeter
G1 X-13.428 Y14.944 F4200
G1 E1.0000 F1200
G1 X-13.642 Y14.442 E0.0246 F1350
G1 X-13.982 Y14.005 E0.0250
G1 X-14.426 Y13.673 E0.0250
G1 X-14.931 Y13.469 E0.0246
G1 X-15.477 Y13.403 E0.0248
G1 X-16.021 Y13.480 E0.0248
G1 X-16.527 Y13.695 E0.0248
G1 X-16.959 Y14.034 E0.0248
G1 X-17.287 Y14.470 E0.0246
G1 X-17.493 Y14.978 E0.0248
G1 X-17.561 Y15.524 E0.0248
G1 X-17.485 Y16.068 E0.0248
G1 X-17.271 Y16.574 E0.0248
G1 X-16.934 Y17.007 E0.0248
G1 X-16.492 Y17.341 E0.0250
G1 X-15.981 Y17.547 E0.0248
G1 X-15.436 Y17.613 E0.0248
G1 X-14.892 Y17.536 E0.0248
G1 X-14.386 Y17.321 E0.0248
G1 X-13.953 Y16.982 E0.0248
G1 X-13.623 Y16.543 E0.0248
G1 X-13.418 Y16.033 E0.0248
G1 X-13.352 Y15.492 E0.0246
G1 X-13.428 Y14.944 E0.0250
; outer perimeter
G1 X-13.817 Y15.052 F4200
G1 X-13.990 Y14.646 E0.0199 F900
G1 X-14.265 Y14.293 E0.0202
G1 X-14.624 Y14.025 E0.0202
G1 X-15.032 Y13.860 E0.0199
G1 X-15.473 Y13.806 E0.0201
G1 X-15.913 Y13.869 E0.0201
G1 X-16.322 Y14.043 E0.0201
G1 X-16.671 Y14.317 E0.0201
G1 X-16.936 Y14.669 E0.0199
G1 X-17.103 Y15.080 E0.0200
G1 X-17.158 Y15.521 E0.0200
G1 X-17.096 Y15.961 E0.0200
G1 X-16.923 Y16.370 E0.0200
G1 X-16.650 Y16.720 E0.0200
G1 X-16.293 Y16.990 E0.0202
G1 X-15.881 Y17.156 E0.0201
G1 X-15.440 Y17.210 E0.0201
G1 X-15.000 Y17.147 E0.0201
G1 X-14.591 Y16.973 E0.0201
G1 X-14.241 Y16.700 E0.0201
G1 X-13.974 Y16.344 E0.0201
G1 X-13.808 Y15.932 E0.0201
G1 X-13.755 Y15.495 E0.0199
G1 X-13.817 Y15.052 E0.0202
G1 E-1.0000 F1200
; inner perimeter
G1 X-13.580 Y-14.563 F4200
G1 E1.0000 F1200
G1 X-13.392 Y-15.075 E0.0246 F1350
G1 X-13.341 Y-15.623 E0.0248
G1 X-13.437 Y-16.168 E0.0250
G1 X-13.665 Y-16.663 E0.0246
G1 X-14.021 Y-17.088 E0.0250
G1 X-14.470 Y-17.404 E0.0248
G1 X-14.986 Y-17.593 E0.0248
G1 X-15.534 Y-17.641 E0.0248
G1 X-16.075 Y-17.547 E0.0248
G1 X-16.573 Y-17.316 E0.0248
G1 X-16.992 Y-16.967 E0.0246
G1 X-17.309 Y-16.518 E0.0248
G1 X-17.499 Y-16.002 E0.0248
G1 X-17.549 Y-15.455 E0.0248
G1 X-17.455 Y-14.913 E0.0248
G1 X-17.225 Y-14.414 E0.0248
